;FLAVOR:Marlin
;TIME:967
;Filament used:0.528011m
;Layer height: 0.1
;MINX:90.206
;MINY:90.456
;MINZ:0.24
;MAXX:129.799
;MAXY:129.547
;MAXZ:2.56
                             
;Creality Print GCode Generated by CXEngineDEV
;Generated Time:2022-06-30 15:03:09
;----------Machine Config--------------
;Machine Name:Creality Ender-3 S1 Pro
;Machine Height:270
;Machine Width:220
;Machine Depth:220
;Material name:Castable
;Number of Extruders:1
;ExtruderParams[0] Nozzle Diameter1000
;----------Profile Config---------------
;Layer Height:0.1
;Wall Thickness:0.8
;Top/Bottom Thickness:0.6
;Out Wall Line Width:0.4
;Inner Wall Line Width:0.4
;Inital Layer Height:100
;Wall Line Count:2
;Infill Line Distance:4
;Infill Pattern:grid
;Infill Sparse Density:20
;Infill Wipe Distance:0
;Print Temperature:250
;Bed Temperature:70
;Support Enable:false
;Support Density:30
;Support Angle:1.0472
;Adhesion Type:raft
;machine is belt:false
;machine belt offset:10
;machine belt offset Y:0
;Raft Base Line Spacing:1.6
;Wait Heatup Sync:true
;----------Shell Config----------------
;Outer Wall Wipe Distance:200
;Infill Before Walls:false
;Infill Overlap:0.16
;Fill Gaps Between Walls:everywhere
;Minimum Infill Area:1
;Top Surface Skin Layer:0
;Top Layers:6
;Z Seam Alignment:sharpest_corner
;Seam Corner Preference:z_seam_corner_inner
;Z Seam X:110
;Z Seam Y:110
;Horizontal Expansion:0
;Top/Bottom Pattern:zigzag
;Ironing Pattern:zigzag
;Vase Model:false
;----------Support Config----------------
;Support Type:everywhere
;Support Pattern:zigzag
;Support Infill Layer Thickness:0.1
;Minimum Support Area:5
;Enable Support Roof:false
;Support Roof Thickness:0.8
;Support Roof Pattern:lines
;Connect Support Lines:0
;Connect Support ZigZags:1
;Minimum Support X/Y Distance:0.2
;Support Line Distance:1.33
; ---------PrintSpeed & Travel----------
;Enable Print Cool:true
;Avoid Printed Parts Traveling:true
;Enable Retraction:true
;Retraction Distance:0.8
;Retraction Speed:80
;Retraction Prime Speed:80
;Maximum Retraction Count:100
;Minimum Extrusion Distance Window:1
;Z Hop When Retracted:false
;Z Hop Height:0.2
;Retract Before Outer Wall:true
;Print Speed:20
;Infill Speed:20

;Prime Tower Speed:20
;Travel Speed:120
;Initial Layer Speed:10
;Skirt/Brim Speed:10
;Combing Mode:infill
; --------SpecialModel&Mesh Fixes--------
;Union Overlapping Volum:true
;Remove All Holes:false
;Maximum Travel Resolution:0.8
;Maximum Deviation:0.05
;Maximum Model Angle:0.872665
;IS Mold Print:false
;Make Overhang Printable:false
;Enable Coasting:false
;Coasting Volumes:0.06
;Coasting Speed:0.9
;Raft AirGap:0.25
;Layer0 ZOverLap:0.13
;---------------------End of Head--------------------------
M140 S70
M105
M104 S250
M105
M109 S250
M105
M190 S70
M82 ;absolute extrusion mode
M220 S100 ;Reset Feedrate
M221 S100 ;Reset Flowrate

G28 ;Home

G92 E0 ;Reset Extruder
G1 Z2.0 F3000 ;Move Z Axis up
G1 X10.1 Y20 Z0.28 F5000.0 ;Move to start position
G1 X10.1 Y145.0 Z0.28 F1500.0 E15 ;Draw the first line
G1 X10.4 Y145.0 Z0.28 F5000.0 ;Move to side a little
G1 X10.4 Y20 Z0.28 F1500.0 E30 ;Draw the second line
G92 E0  ;Reset Extruder
G1 E-1.0000 F1800 ;Retract a bit
G1 Z2.0 F3000 ;Move Z Axis up
G1 E0.0000 F1800 

G92 E0
G92 E0
G1 F4800 E-0.8

;LAYER_COUNT:15

;LAYER:-6
M107
G0 F7200 X127.055 Y123.159 Z0.24
;TYPE:SUPPORT-INTERFACE
G1 F4800 E0
G1 F1200 X126.697 Y123.651 E0.04857
G1 X126.46 Y123.956 E0.0794
G1 X125.947 Y124.565 E0.14296
G1 X125.514 Y125.026 E0.19345
G1 X124.973 Y125.55 E0.25357
G1 X124.712 Y125.786 E0.28166
G1 X124.113 Y126.283 E0.34379
G1 X123.591 Y126.675 E0.3959
G1 X122.913 Y127.13 E0.46108
G1 X122.661 Y127.286 E0.48474
G1 X122.131 Y127.591 E0.53355
G1 X121.856 Y127.737 E0.5584
G1 X121.326 Y127.998 E0.60556
G1 X120.656 Y128.29 E0.6639
G1 X120.336 Y128.416 E0.69135
G1 X119.736 Y128.629 E0.74218
G1 X119.063 Y128.831 E0.79827
G1 X118.676 Y128.932 E0.83019
G1 X118.096 Y129.063 E0.87766
G1 X117.836 Y129.113 E0.89879
G1 X117.05 Y129.235 E0.96229
G1 X116.375 Y129.303 E1.01644
G1 X115.619 Y129.342 E1.07687
G1 X115.276 Y129.347 E1.10425
G1 X114.71 Y129.338 E1.14944
G1 X114.412 Y129.323 E1.17325
G1 X113.77 Y129.271 E1.22467
G1 X112.996 Y129.17 E1.28698
G1 X112.155 Y129.01 E1.35531
G1 X111.299 Y128.795 E1.42576
G1 X110.639 Y128.674 E1.47933
G1 X109.958 Y128.636 E1.53377
G1 X109.276 Y128.685 E1.58835
G1 X108.589 Y128.825 E1.64432
G1 X108.176 Y128.932 E1.67837
G1 X107.596 Y129.063 E1.72584
G1 X107.336 Y129.113 E1.74697
G1 X106.55 Y129.235 E1.81047
G1 X105.875 Y129.303 E1.86462
G1 X105.119 Y129.342 E1.92505
G1 X104.776 Y129.347 E1.95243
G1 X104.21 Y129.338 E1.99762
G1 X103.912 Y129.323 E2.02144
G1 X103.27 Y129.271 E2.07285
G1 X102.496 Y129.17 E2.13516
G1 X101.655 Y129.01 E2.20349
G1 X100.932 Y128.829 E2.26299
G1 X100.573 Y128.726 E2.2928
G1 X99.94 Y128.517 E2.34601
G1 X99.262 Y128.256 E2.40401
G1 X98.928 Y128.112 E2.43304
G1 X98.369 Y127.85 E2.48232
G1 X97.712 Y127.502 E2.54167
G1 X97.412 Y127.329 E2.56931
G1 X96.88 Y126.997 E2.61937
G1 X96.212 Y126.53 E2.68443
G1 X96.008 Y126.376 E2.70483
G1 X95.547 Y126.007 E2.75197
G1 X95.299 Y125.794 E2.77806
G1 X94.774 Y125.311 E2.83501
G1 X94.263 Y124.791 E2.8932
G1 X93.742 Y124.201 E2.95604
G1 X93.582 Y124.006 E2.97617
G1 X93.189 Y123.498 E3.02744
G1 X92.72 Y122.819 E3.09331
G1 X92.57 Y122.583 E3.11563
G1 X92.239 Y122.023 E3.16756
G1 X91.866 Y121.313 E3.23158
G1 X91.738 Y121.042 E3.2555
G1 X91.43 Y120.33 E3.31743
G1 X91.144 Y119.554 E3.38345
G1 X90.95 Y118.925 E3.43599
G1 X90.861 Y118.595 E3.46327
G1 X90.739 Y118.086 E3.50505
G1 X90.669 Y117.745 E3.53284
G1 X90.546 Y117.024 E3.59123
G1 X90.462 Y116.313 E3.64838
G1 X90.415 Y115.578 E3.70717
G1 X90.406 Y115.229 E3.73504
G1 X90.408 Y114.627 E3.78309
G1 X90.447 Y113.896 E3.84152
G1 X90.496 Y113.386 E3.88242
G1 X90.579 Y112.762 E3.93267
G1 X90.71 Y112.048 E3.99062
G1 X90.892 Y111.284 E4.05331
G1 X91.012 Y110.624 E4.10686
G1 X91.048 Y109.943 E4.16129
G1 X90.997 Y109.263 E4.21573
G1 X90.87 Y108.63 E4.26726
G1 X90.734 Y108.065 E4.31365
G1 X90.588 Y107.289 E4.37668
G1 X90.535 Y106.941 E4.40478
G1 X90.451 Y106.18 E4.4659
G1 X90.415 Y105.578 E4.51404
G1 X90.406 Y105.229 E4.5419
G1 X90.408 Y104.627 E4.58996
G1 X90.447 Y103.896 E4.64839
G1 X90.496 Y103.386 E4.68929
G1 X90.579 Y102.762 E4.73954
G1 X90.71 Y102.048 E4.79749
G1 X90.874 Y101.358 E4.8541
G1 X90.961 Y101.037 E4.88065
G1 X91.142 Y100.455 E4.9293
G1 X91.405 Y99.736 E4.99041
G1 X91.546 Y99.39 E5.02024
G1 X91.882 Y98.657 E5.0846
G1 X92.266 Y97.928 E5.15037
G1 X92.599 Y97.372 E5.20211
G1 X92.752 Y97.132 E5.22483
G1 X93.119 Y96.599 E5.27648
G1 X93.549 Y96.036 E5.33303
G1 X93.79 Y95.742 E5.36338
G1 X94.318 Y95.15 E5.4267
G1 X94.828 Y94.637 E5.48444
G1 X95.393 Y94.123 E5.54541
G1 X96.108 Y93.545 E5.61881
G1 X96.779 Y93.07 E5.68443
G1 X97.481 Y92.63 E5.75056
G1 X97.768 Y92.467 E5.77691
G1 X98.446 Y92.112 E5.838
G1 X99.046 Y91.834 E5.89079
G1 X99.746 Y91.553 E5.951
G1 X100.051 Y91.444 E5.97685
G1 X100.682 Y91.241 E6.02976
G1 X101.424 Y91.044 E6.09105
G1 X101.756 Y90.969 E6.11822
G1 X102.309 Y90.861 E6.16319
G1 X102.574 Y90.818 E6.18462
G1 X103.356 Y90.72 E6.24753
G1 X104.032 Y90.671 E6.30164
G1 X104.284 Y90.66 E6.32177
G1 X105.078 Y90.657 E6.38515
G1 X105.742 Y90.687 E6.43821
G1 X105.987 Y90.706 E6.45783
G1 X106.617 Y90.774 E6.50841
G1 X106.871 Y90.809 E6.52887
G1 X107.654 Y90.948 E6.59235
G1 X108.288 Y91.095 E6.6443
G1 X109.058 Y91.309 E6.7081
G1 X109.058 Y91.273 E6.71097
G1 X109.196 Y91.303 E6.72225
G1 X109.877 Y91.363 E6.77682
G1 X110.563 Y91.334 E6.83162
G1 X110.918 Y91.267 E6.86046
G1 X110.918 Y91.307 E6.86366
G1 X111.973 Y91.032 E6.95068
G1 X112.778 Y90.866 E7.0163
G1 X113.074 Y90.818 E7.04023
G1 X113.856 Y90.72 E7.10314
G1 X114.532 Y90.671 E7.15725
G1 X114.784 Y90.66 E7.17738
G1 X115.578 Y90.657 E7.24076
G1 X116.242 Y90.687 E7.29382
G1 X116.487 Y90.706 E7.31343
G1 X117.117 Y90.774 E7.36402
G1 X117.371 Y90.809 E7.38448
G1 X118.154 Y90.948 E7.44796
G1 X118.78 Y91.093 E7.49926
G1 X119.07 Y91.17 E7.52321
G1 X119.754 Y91.377 E7.58025
G1 X120.472 Y91.635 E7.64115
G1 X121.132 Y91.913 E7.69832
G1 X121.485 Y92.078 E7.72942
G1 X122.148 Y92.418 E7.7889
G1 X122.722 Y92.75 E7.84183
G1 X122.982 Y92.913 E7.86633
G1 X123.493 Y93.255 E7.91541
G1 X124.113 Y93.715 E7.97704
G1 X124.351 Y93.907 E8.00145
G1 X124.913 Y94.393 E8.06076
G1 X125.429 Y94.888 E8.11783
G1 X125.62 Y95.084 E8.13968
G1 X126.113 Y95.626 E8.19816
G1 X126.554 Y96.162 E8.25357
G1 X127.001 Y96.768 E8.31368
G1 X127.194 Y97.048 E8.34083
G1 X127.62 Y97.727 E8.40481
G1 X127.963 Y98.345 E8.46123
G1 X128.306 Y99.05 E8.52381
G1 X128.436 Y99.343 E8.5494
G1 X128.707 Y100.021 E8.60769
G1 X128.932 Y100.676 E8.66297
G1 X129.026 Y100.988 E8.68898
G1 X129.21 Y101.68 E8.74614
G1 X129.359 Y102.391 E8.80413
G1 X129.481 Y103.164 E8.86659
G1 X129.514 Y103.434 E8.88831
G1 X129.579 Y104.244 E8.95317
G1 X129.599 Y104.983 E9.01218
G1 X129.58 Y105.735 E9.07223
G1 X129.565 Y105.997 E9.09318
G1 X129.484 Y106.815 E9.1588
G1 X129.383 Y107.478 E9.21233
G1 X129.342 Y107.705 E9.23074
G1 X129.217 Y108.293 E9.27873
G1 X129.129 Y108.645 E9.30769
G1 X129 Y109.301 E9.36106
G1 X128.954 Y109.983 E9.41562
G1 X128.995 Y110.666 E9.47024
G1 X129.161 Y111.481 E9.53663
G1 X129.227 Y111.754 E9.55905
G1 X129.359 Y112.391 E9.61098
G1 X129.481 Y113.164 E9.67345
G1 X129.514 Y113.434 E9.69516
G1 X129.579 Y114.244 E9.76003
G1 X129.599 Y114.983 E9.81904
G1 X129.58 Y115.735 E9.87909
G1 X129.565 Y115.997 E9.90003
G1 X129.484 Y116.815 E9.96565
G1 X129.383 Y117.478 E10.01918
G1 X129.342 Y117.705 E10.0376
G1 X129.217 Y118.293 E10.08558
G1 X129.152 Y118.558 E10.10736
G1 X128.938 Y119.308 E10.16962
G1 X128.695 Y120.011 E10.229
G1 X128.416 Y120.706 E10.28878
G1 X128.296 Y120.977 E10.31244
G1 X127.932 Y121.712 E10.37791
G1 X127.602 Y122.301 E10.4318
G1 X127.493 Y122.484 E10.4488
G1 X127.055 Y123.159 E10.51303
G0 F7200 X126.4 Y124.028
G1 F1200 X126.4 Y95.975 E12.75235
G0 F7200 X124.8 Y94.296
G1 F1200 X124.8 Y125.707 E15.25971
G0 F7200 X123.2 Y126.938
G1 F1200 X123.2 Y93.059 E17.96408
G0 F7200 X121.6 Y92.137
G1 F1200 X121.6 Y127.864 E20.81596
G0 F7200 X120 Y128.536
G1 F1200 X120 Y91.466 E23.77505
G0 F7200 X118.4 Y91.005
G1 F1200 X118.4 Y128.995 E26.80757
G0 F7200 X116.8 Y129.261
G1 F1200 X116.8 Y90.74 E29.88249
G0 F7200 X115.2 Y90.658
G1 F1200 X115.2 Y129.345 E32.97065
G0 F7200 X113.6 Y129.248
G1 F1200 X113.6 Y90.752 E36.04357
G0 F7200 X112 Y91.026
G1 F1200 X112 Y128.971 E39.0725
G0 F7200 X110.4 Y128.66
G1 F1200 X110.4 Y91.34 E42.05154
G0 F7200 X108.8 Y91.238
G1 F1200 X108.8 Y128.783 E45.04855
G0 F7200 X107.2 Y129.135
G1 F1200 X107.2 Y90.868 E48.10319
G0 F7200 X105.6 Y90.681
G1 F1200 X105.6 Y129.318 E51.18736
G0 F7200 X104 Y129.327
G1 F1200 X104 Y90.673 E54.27289
G0 F7200 X102.4 Y90.846
G1 F1200 X102.4 Y129.151 E57.33056
G0 F7200 X100.8 Y128.791
G1 F1200 X100.8 Y91.209 E60.33052
G0 F7200 X99.2 Y91.772
G1 F1200 X99.2 Y128.229 E63.24067
G0 F7200 X97.6 Y127.437
G1 F1200 X97.6 Y92.562 E66.02455
G0 F7200 X96 Y93.632
G1 F1200 X96 Y126.369 E68.63775
G0 F7200 X94.4 Y124.93
G1 F1200 X94.4 Y95.067 E71.02155
G0 F7200 X92.8 Y97.062
G1 F1200 X92.8 Y122.934 E73.08676
G0 F7200 X91.2 Y119.705
G1 F1200 X91.2 Y100.296 E74.63607
;;retract;;
G1 F4800 E73.83607
G0 F7200 X128 Y98.422
G1 F4800 E74.63607
G1 F1200 X128 Y121.575 E76.48425
G0 F600 X128 Y121.575 Z0.54
G0 F7200 X129.358 Y112.391
;TIME_ELAPSED:56.117689

;LAYER:-5
M140 S70
;TYPE:SUPPORT
G1 F1800 X129.479 Y113.163 E76.56222
G1 X129.513 Y113.434 E76.58947
G1 X129.558 Y114.002 E76.64632
G1 X106.295 Y90.739 E79.92898
G1 X105.986 Y90.705 E79.96
G1 X105.741 Y90.687 E79.98451
G1 X105.077 Y90.656 E80.05084
G1 X104.8 Y90.658 E80.07848
G1 X129.586 Y115.444 E83.57605
G1 X129.578 Y115.734 E83.605
G1 X129.564 Y115.996 E83.63118
G1 X129.488 Y116.761 E83.70789
G1 X103.441 Y90.714 E87.3834
G1 X103.355 Y90.719 E87.392
G1 X102.572 Y90.817 E87.47073
G1 X102.307 Y90.861 E87.49754
G1 X102.196 Y90.883 E87.50883
G1 X129.284 Y117.97 E91.33117
G1 X129.215 Y118.292 E91.36403
G1 X129.151 Y118.557 E91.39123
G1 X128.997 Y119.097 E91.44726
G1 X101.044 Y91.145 E95.39166
G1 X100.681 Y91.241 E95.42912
G1 X100.05 Y91.443 E95.49523
G1 X99.961 Y91.476 E95.5047
G1 X128.637 Y120.152 E99.5512
G1 X128.414 Y120.705 E99.61069
G1 X128.295 Y120.976 E99.64022
G1 X128.214 Y121.142 E99.65865
G1 X98.949 Y91.878 E103.78819
G1 X98.444 Y92.111 E103.84369
G1 X98.001 Y92.344 E103.89363
G1 X127.729 Y122.072 E108.08857
G1 X127.601 Y122.301 E108.11475
G1 X127.492 Y122.484 E108.136
G1 X127.191 Y122.948 E108.19119
G1 X97.106 Y92.864 E112.43644
G1 X96.778 Y93.07 E112.47508
G1 X96.263 Y93.434 E112.53801
G1 X126.601 Y123.773 E116.8191
G1 X126.458 Y123.955 E116.8422
G1 X125.961 Y124.547 E116.91932
G1 X95.472 Y94.058 E121.22165
G1 X95.392 Y94.122 E121.23187
G1 X94.827 Y94.636 E121.30809
G1 X94.731 Y94.731 E121.32156
G1 X125.265 Y125.265 E125.63024
G1 X124.972 Y125.549 E125.67095
G1 X124.711 Y125.785 E125.70607
G1 X124.525 Y125.939 E125.73016
G1 X94.043 Y95.457 E130.0315
G1 X93.789 Y95.741 E130.06952
G1 X93.548 Y96.035 E130.10745
G1 X93.4 Y96.228 E130.13172
G1 X123.735 Y126.564 E134.41238
G1 X123.59 Y126.673 E134.43048
G1 X122.913 Y127.129 E134.51193
G1 X122.896 Y127.139 E134.5139
G1 X92.807 Y97.05 E138.75978
G1 X92.751 Y97.131 E138.76961
G1 X92.598 Y97.371 E138.79801
G1 X92.267 Y97.924 E138.86231
G1 X122.001 Y127.658 E143.0581
G1 X121.855 Y127.736 E143.07462
G1 X121.326 Y127.996 E143.13343
G1 X121.047 Y128.118 E143.16382
G1 X91.788 Y98.859 E147.29258
G1 X91.546 Y99.389 E147.35071
G1 X91.405 Y99.735 E147.38799
G1 X91.363 Y99.848 E147.40002
G1 X120.036 Y128.521 E151.44609
G1 X119.735 Y128.628 E151.47797
G1 X119.062 Y128.83 E151.54808
G1 X118.957 Y128.857 E151.5589
G1 X91.002 Y100.902 E155.50365
G1 X90.961 Y101.036 E155.51763
G1 X90.873 Y101.357 E155.55084
G1 X90.714 Y102.027 E155.61955
G1 X117.803 Y129.116 E159.4421
G1 X117.049 Y129.234 E159.51825
G1 X116.555 Y129.283 E159.56779
G1 X90.514 Y103.242 E163.24245
G1 X90.496 Y103.385 E163.25684
G1 X90.447 Y103.895 E163.30796
G1 X90.411 Y104.553 E163.37371
G1 X115.202 Y129.344 E166.87199
G1 X114.709 Y129.336 E166.92119
G1 X114.411 Y129.322 E166.95096
G1 X113.769 Y129.269 E167.01523
G1 X113.704 Y129.261 E167.02177
G1 X90.439 Y105.996 E170.30471
G1 X90.45 Y106.179 E170.323
G1 X90.535 Y106.94 E170.39941
G1 X90.588 Y107.288 E170.43453
G1 X90.65 Y107.62 E170.46823
G1 X111.999 Y128.969 E173.48081
G1 X111.299 Y128.794 E173.5528
G1 X110.638 Y128.672 E173.61987
G1 X110.267 Y128.652 E173.65694
G1 X91.006 Y109.39 E176.37495
G1 X91.048 Y109.942 E176.43019
G1 X91.012 Y110.623 E176.49823
G1 X90.983 Y110.782 E176.51436
G1 X108.951 Y128.75 E179.04984
G1 X108.588 Y128.824 E179.0868
G1 X108.176 Y128.931 E179.12928
G1 X107.801 Y129.015 E179.16762
G1 X90.733 Y111.946 E181.57617
G1 X90.709 Y112.047 E181.58653
G1 X90.578 Y112.76 E181.65886
G1 X90.526 Y113.154 E181.69852
G1 X106.599 Y129.226 E183.96652
G1 X106.55 Y129.234 E183.97148
G1 X105.874 Y129.302 E184.03927
G1 X105.29 Y129.331 E184.09761
G1 X90.416 Y114.457 E186.19649
G1 X90.407 Y114.626 E186.21338
G1 X90.405 Y115.227 E186.27335
G1 X90.415 Y115.577 E186.30829
G1 X90.435 Y115.891 E186.33968
G1 X103.862 Y129.318 E188.23437
G1 X103.27 Y129.27 E188.29364
G1 X102.495 Y129.169 E188.37162
G1 X102.252 Y129.122 E188.39632
G1 X90.626 Y117.496 E190.03687
G1 X90.668 Y117.743 E190.06187
G1 X90.738 Y118.085 E190.0967
G1 X90.861 Y118.593 E190.14886
G1 X90.95 Y118.924 E190.18306
G1 X91.088 Y119.372 E190.22983
G1 X100.375 Y128.659 E191.54033
G1 X99.94 Y128.515 E191.58605
G1 X99.262 Y128.255 E191.6585
G1 X98.927 Y128.111 E191.69489
G1 X98.368 Y127.849 E191.75649
G1 X97.904 Y127.603 E191.80889
G1 X97.712 Y127.501 E191.83058
G1 X97.411 Y127.328 E191.86522
G1 X96.879 Y126.995 E191.92785
G1 X96.211 Y126.529 E192.00912
G1 X96.008 Y126.375 E192.03454
G1 X95.547 Y126.006 E192.09346
G1 X95.298 Y125.793 E192.12616
G1 X94.774 Y125.309 E192.19733
G1 X94.262 Y124.79 E192.27008
G1 X93.741 Y124.199 E192.34869
G1 X93.581 Y124.005 E192.37378
G1 X93.188 Y123.496 E192.43795
G1 X92.72 Y122.818 E192.52015
G1 X92.57 Y122.582 E192.54805
G1 X92.239 Y122.022 E192.61296
G0 F7200 X92.144 Y121.842
G1 F1800 X97.904 Y127.603 E193.42583
