;FLAVOR:Marlin
;TIME:847
;Filament used:0.364794m
;Layer height: 0.15
;MINX:89.702
;MINY:89.701
;MINZ:0.15
;MAXX:130.298
;MAXY:130.299
;MAXZ:2.4
                              
;Creality Print GCode Generated by CXEngineDEV
;Generated Time:2022-06-30 15:03:09
;----------Machine Config--------------
;Machine Name:Creality Ender-3 S1 Pro
;Machine Height:270
;Machine Width:220
;Machine Depth:220
;Material name:Castable
;Number of Extruders:1
;ExtruderParams[0] Nozzle Diameter1000
;----------Profile Config---------------
;Layer Height:0.15
;Wall Thickness:0.8
;Top/Bottom Thickness:1
;Out Wall Line Width:0.4
;Inner Wall Line Width:0.4
;Inital Layer Height:150
;Wall Line Count:2
;Infill Line Distance:4
;Infill Pattern:grid
;Infill Sparse Density:20
;Infill Wipe Distance:0
;Print Temperature:250
;Bed Temperature:90
;Support Enable:false
;Support Density:15
;Support Angle:1.0472
;Adhesion Type:none
;machine is belt:false
;machine belt offset:10
;machine belt offset Y:0
;Raft Base Line Spacing:1.6
;Wait Heatup Sync:true
;----------Shell Config----------------
;Outer Wall Wipe Distance:200
;Infill Before Walls:false
;Infill Overlap:0.16
;Fill Gaps Between Walls:everywhere
;Minimum Infill Area:1
;Top Surface Skin Layer:0
;Top Layers:4
;Z Seam Alignment:sharpest_corner
;Seam Corner Preference:z_seam_corner_inner
;Z Seam X:110
;Z Seam Y:110
;Horizontal Expansion:0
;Top/Bottom Pattern:zigzag
;Ironing Pattern:zigzag
;Vase Model:false
;----------Support Config----------------
;Support Type:everywhere
;Support Pattern:zigzag
;Support Infill Layer Thickness:0.15
;Minimum Support Area:5
;Enable Support Roof:false
;Support Roof Thickness:0.8
;Support Roof Pattern:lines
;Connect Support Lines:0
;Connect Support ZigZags:1
;Minimum Support X/Y Distance:0.2
;Support Line Distance:2.67
; ---------PrintSpeed & Travel----------
;Enable Print Cool:true
;Avoid Printed Parts Traveling:true
;Enable Retraction:true
;Retraction Distance:0.8
;Retraction Speed:80
;Retraction Prime Speed:80
;Maximum Retraction Count:100
;Minimum Extrusion Distance Window:1
;Z Hop When Retracted:false
;Z Hop Height:0.2
;Retract Before Outer Wall:true
;Print Speed:50
;Infill Speed:50

;Prime Tower Speed:50
;Travel Speed:120
;Initial Layer Speed:25
;Skirt/Brim Speed:25
;Combing Mode:off
; --------SpecialModel&Mesh Fixes--------
;Union Overlapping Volum:true
;Remove All Holes:false
;Maximum Travel Resolution:0.6
;Maximum Deviation:0.05
;Maximum Model Angle:0.872665
;IS Mold Print:false
;Make Overhang Printable:false
;Enable Coasting:false
;Coasting Volumes:0.06
;Coasting Speed:0.9
;Raft AirGap:0.25
;Layer0 ZOverLap:0.13
;---------------------End of Head--------------------------
M140 S90
M105
M104 S250
M105
M109 S250
M105
M190 S90
M82 ;absolute extrusion mode
M220 S100 ;Reset Feedrate
M221 S100 ;Reset Flowrate

G28 ;Home

G92 E0 ;Reset Extruder
G1 Z2.0 F3000 ;Move Z Axis up
G1 X10.1 Y20 Z0.28 F5000.0 ;Move to start position
G1 X10.1 Y145.0 Z0.28 F1500.0 E15 ;Draw the first line
G1 X10.4 Y145.0 Z0.28 F5000.0 ;Move to side a little
G1 X10.4 Y20 Z0.28 F1500.0 E30 ;Draw the second line
G92 E0  ;Reset Extruder
G1 E-1.0000 F1800 ;Retract a bit
G1 Z2.0 F3000 ;Move Z Axis up
G1 E0.0000 F1800 

G92 E0
G92 E0
G1 F4800 E-0.8

;LAYER_COUNT:16

;LAYER:0
M107
;MESH:
G0 F3600 X98.956 Y105.181 Z0.15
;TYPE:WALL-INNER
G1 F4800 E0
G1 F1500 X98.957 Y105.216 E0.00096
G1 X99.57 Y105.216 E0.01778
G1 X99.99 Y105.195 E0.02932
G1 X100.413 Y105.142 E0.04102
G1 X100.831 Y105.058 E0.05272
G1 X101.067 Y104.993 E0.05943
G1 X101.082 Y105.031 E0.06055
G1 X102.042 Y104.619 E0.08922
G1 X102.28 Y104.484 E0.09673
G1 X102.403 Y104.423 E0.1005
G1 X102.77 Y104.186 E0.11248
G1 X103.305 Y103.784 E0.13085
G1 X103.291 Y103.765 E0.13149
G1 X103.431 Y103.649 E0.13648
G1 X103.884 Y103.173 E0.15451
G1 X103.814 Y103.105 E0.15719
G1 X103.035 Y102.345 E0.18705
G1 X102.896 Y102.485 E0.19247
G1 X102.632 Y102.749 E0.20271
G1 X102.442 Y102.939 E0.21009
G1 X102.311 Y103.034 E0.21453
G1 X102.008 Y103.256 E0.22483
G1 X101.982 Y103.271 E0.22566
G1 X101.703 Y103.439 E0.23459
G1 X101.64 Y103.471 E0.23653
G1 X101.394 Y103.598 E0.24413
G1 X101.283 Y103.645 E0.24744
G1 X101.073 Y103.735 E0.2537
G1 X100.903 Y103.79 E0.25861
G1 X100.786 Y103.828 E0.26198
G1 X100.522 Y103.895 E0.26946
G1 X100.431 Y103.918 E0.27203
G1 X100.15 Y103.969 E0.27987
G1 X100.106 Y103.973 E0.28108
G1 X99.78 Y104.009 E0.29008
G1 X99.708 Y104.011 E0.29206
G1 X99.419 Y104.021 E0.29999
G1 X99.293 Y104.01 E0.30346
G1 X98.921 Y103.976 E0.31371
G1 X98.822 Y103.966 E0.31644
G1 X98.516 Y103.907 E0.32499
G1 X98.469 Y103.897 E0.32631
G1 X98.127 Y103.803 E0.33605
G1 X98.103 Y103.795 E0.33674
G1 X97.843 Y103.702 E0.34432
G1 X97.733 Y103.654 E0.34761
G1 X97.468 Y103.538 E0.35555
G1 X97.363 Y103.479 E0.35885
G1 X97.207 Y103.39 E0.36378
G1 X97.028 Y103.276 E0.3696
G1 X96.921 Y103.207 E0.3731
G1 X96.703 Y103.043 E0.38058
G1 X96.642 Y102.998 E0.38266
G1 X96.396 Y102.778 E0.39172
G1 X96.359 Y102.745 E0.39308
G1 X96.117 Y102.502 E0.40249
G1 X96.042 Y102.426 E0.40542
G1 X95.852 Y102.161 E0.41437
G1 X95.742 Y102.008 E0.41954
G1 X95.632 Y101.826 E0.42537
G1 X95.551 Y101.693 E0.42965
G1 X95.44 Y101.476 E0.43633
G1 X95.407 Y101.412 E0.43831
G1 X95.28 Y101.115 E0.44717
G1 X95.138 Y100.785 E0.45703
G1 X95.074 Y100.638 E0.46143
G1 X94.035 Y101.052 E0.49212
G1 X93.992 Y101.07 E0.4934
G1 X94.2 Y101.648 E0.51025
G1 X94.375 Y102.036 E0.52193
G1 X94.699 Y102.639 E0.54072
G1 X94.718 Y102.628 E0.54132
G1 X94.811 Y102.772 E0.54602
G1 X94.956 Y102.964 E0.55263
G1 X94.951 Y102.968 E0.5528
G1 X95.203 Y103.291 E0.56404
G1 X95.218 Y103.28 E0.56455
G1 X95.351 Y103.434 E0.57014
G1 X95.657 Y103.732 E0.58186
G1 X95.984 Y104.009 E0.59362
G1 X96.333 Y104.26 E0.60541
G1 X96.922 Y104.618 E0.62432
G1 X96.931 Y104.604 E0.62478
G1 X97.077 Y104.679 E0.62929
G1 X97.469 Y104.844 E0.64096
G1 X97.873 Y104.981 E0.65266
G1 X98.167 Y105.056 E0.66099
G1 X98.164 Y105.12 E0.66274
G1 X98.956 Y105.181 E0.68454
G0 F3600 X98.986 Y104.782
;TYPE:WALL-OUTER
G1 F600 X99.018 Y104.398 E0.69511
G1 X99.019 Y104.386 E0.69545
G1 X98.801 Y104.366 E0.70145
G1 X98.716 Y104.366 E0.70337
G1 X98.718 Y104.353
G1 X98.661 Y104.342 E0.70497
G1 X98.367 Y104.284 E0.71319
G1 X98.014 Y104.187 E0.72323
G1 X97.624 Y104.049 E0.73459
G1 X97.626 Y104.044 E0.73473
G1 X97.294 Y103.899 E0.74467
G1 X96.994 Y103.729 E0.75414
G1 X96.696 Y103.538 E0.76385
G1 X96.387 Y103.306 E0.77445
G1 X96.093 Y103.044 E0.78526
G1 X95.787 Y102.737 E0.79715
G1 X95.519 Y102.986 E0.80719
G1 X95.505 Y102.999 E0.80771
G1 X95.643 Y103.16 E0.81353
G1 X95.815 Y103.328 E0.82013
G1 X95.926 Y103.436 E0.82438
G1 X96.13 Y103.609 E0.83172
G1 X96.23 Y103.693 E0.8353
G1 X96.463 Y103.861 E0.84318
G1 X96.554 Y103.926 E0.84625
G1 X96.786 Y104.067 E0.8537
G1 X96.789 Y104.062
G1 X96.885 Y104.13 E0.85554
G1 X97.114 Y104.248 E0.86261
G1 X97.247 Y104.316 E0.86671
G1 X97.47 Y104.41 E0.87335
G1 X97.611 Y104.47 E0.87755
G1 X97.886 Y104.563 E0.88552
G1 X97.987 Y104.597 E0.88844
G1 X98.268 Y104.668 E0.8964
G1 X98.371 Y104.695 E0.89932
G1 X98.584 Y104.731 E0.90524
G1 X98.583 Y104.751 E0.90579
G1 X98.685 Y104.758 E0.9086
G1 X98.986 Y104.782 E0.91689
G0 F3600 X99.002 Y104.583
;;retract;;
G1 F4800 E0.11689
G0 F3600 X95.603 Y102.501
G1 F4800 E0.91689
G1 F600 X95.405 Y102.225 E0.92621
G1 X95.204 Y101.894 E0.93683
G1 X95.04 Y101.573 E0.94672
G1 X94.86 Y101.154 E0.95924
G1 X94.499 Y101.298 E0.9699
G1 X94.571 Y101.498 E0.97573
G1 X94.678 Y101.736 E0.98289
G1 X94.734 Y101.859 E0.9866
G1 X94.853 Y102.08 E0.99349
G1 X94.858 Y102.077
G1 X94.923 Y102.207 E0.99585
G1 X95.072 Y102.438 E1.00339
G1 X95.139 Y102.543 E1.00681
G1 X95.284 Y102.735 E1.01341
G1 X95.301 Y102.722
G1 X95.603 Y102.501 E1.02166
G0 F3600 X95.487 Y102.339
G0 X95.845 Y102.083
;;retract;;
G1 F4800 E0.22166
G0 F3600 X95.047 Y100.294
;TYPE:WALL-INNER
G1 F4800 E1.02166
G1 F600 X95.005 Y99.924 E1.03188
G1 X94.963 Y99.555 E1.04207
G1 X94.931 Y99.273 E1.04986
G1 X93.824 Y99.356 E1.08032
G1 X93.775 Y99.36 E1.08167
G1 X93.803 Y99.99 E1.09897
G1 X93.893 Y100.698 E1.11856
G1 X93.946 Y100.692 E1.12002
G1 X95.064 Y100.559 E1.13755
G1 X95.076 Y100.557 E1.13789
G1 X95.073 Y100.53 E1.13863
G1 X95.047 Y100.294 E1.14515
G0 F3600 X94.634 Y100.207
;TYPE:WALL-OUTER
G1 F600 X94.577 Y99.701 E1.15912
G1 X94.192 Y99.73 E1.16971
G1 X94.202 Y99.956 E1.17592
G1 X94.24 Y100.254 E1.18416
G1 X94.634 Y100.207 E1.19505
G0 F3600 X94.612 Y100.009
G0 X95.049 Y99.961
;;retract;;
G1 F4800 E0.39505
G0 F3600 X95.056 Y98.701
;TYPE:WALL-INNER
G1 F4800 E1.19505
G1 F1500 X95.1 Y98.476 E1.20134
G1 X95.145 Y98.31 E1.20606
G1 X95.194 Y98.135 E1.21105
G1 X95.265 Y97.932 E1.21695
G1 X95.374 Y97.622 E1.22597
G1 X95.428 Y97.526 E1.22899
G1 X95.606 Y97.212 E1.23889
G1 X95.623 Y97.185 E1.23977
G1 X95.791 Y96.923 E1.24831
G1 X95.844 Y96.852 E1.25074
G1 X96 Y96.644 E1.25787
G1 X96.095 Y96.538 E1.26178
G1 X96.237 Y96.379 E1.26763
G1 X96.365 Y96.251 E1.2726
G1 X96.379 Y96.237 E1.27314
G1 X96.659 Y95.988 E1.28342
G1 X96.684 Y95.966 E1.28434
G1 X96.992 Y95.742 E1.29479
G1 X97.01 Y95.731 E1.29536
G1 X97.327 Y95.536 E1.30558
G1 X97.413 Y95.483 E1.30835
G1 X97.713 Y95.355 E1.3173
G1 X97.917 Y95.268 E1.32338
G1 X98.095 Y95.211 E1.32851
G1 X98.248 Y95.162 E1.33292
G1 X98.468 Y95.103 E1.33917
G1 X98.479 Y95.1 E1.33948
G1 X98.496 Y95.097 E1.33996
G1 X98.847 Y95.031 E1.34976
G1 X98.894 Y95.027 E1.35105
G1 X99.209 Y94.995 E1.35974
G1 X99.286 Y94.992 E1.36185
G1 X99.621 Y94.978 E1.37105
G1 X99.707 Y94.986 E1.37342
G1 X100.079 Y95.024 E1.38369
G1 X100.168 Y95.033 E1.38614
G1 X100.482 Y95.094 E1.39492
G1 X100.555 Y95.109 E1.39696
G1 X100.857 Y95.194 E1.40557
G1 X100.896 Y95.208 E1.40671
G1 X101.233 Y95.332 E1.41656
G1 X101.263 Y95.345 E1.41746
G1 X101.468 Y95.434 E1.42359
G1 X101.627 Y95.521 E1.42856
G1 X101.801 Y95.617 E1.43402
G1 X101.969 Y95.725 E1.4395
G1 X102.075 Y95.793 E1.44295
G1 X102.296 Y95.959 E1.45054
G1 X102.36 Y96.007 E1.45273
G1 X102.581 Y96.2 E1.46078
G1 X102.616 Y96.235 E1.46214
G1 X102.822 Y96.442 E1.47015
G1 X102.893 Y96.526 E1.47317
G1 X103.055 Y96.718 E1.48007
G1 X103.142 Y96.838 E1.48413
G1 X103.243 Y96.978 E1.48887
G1 X103.363 Y97.171 E1.49511
G1 X103.418 Y97.26 E1.49798
G1 X103.555 Y97.523 E1.50611
G1 X103.593 Y97.596 E1.50837
G1 X103.717 Y97.885 E1.517
G1 X103.77 Y98.008 E1.52068
G1 X103.846 Y98.289 E1.52866
G1 X103.944 Y98.648 E1.53887
G1 X103.95 Y98.706 E1.54047
G1 X103.992 Y99.076 E1.55069
G1 X104.034 Y99.445 E1.56088
G1 X104.066 Y99.727 E1.56867
G1 X105.172 Y99.644 E1.5991
G1 X105.222 Y99.64 E1.60048
G1 X105.194 Y99.01 E1.61778
G1 X105.163 Y98.769 E1.62445
G1 X105.176 Y98.766 E1.62482
G1 X105.138 Y98.573 E1.63022
G1 X105.104 Y98.302 E1.63771
G1 X105.085 Y98.304 E1.63823
G1 X105.057 Y98.165 E1.64213
G1 X104.991 Y97.935 E1.64869
G1 X105.004 Y97.93 E1.64907
G1 X104.934 Y97.735 E1.65476
G1 X104.872 Y97.519 E1.66092
G1 X104.858 Y97.523 E1.66132
G1 X104.796 Y97.352 E1.66632
G1 X104.7 Y97.139 E1.67273
G1 X104.725 Y97.124 E1.67353
G1 X104.413 Y96.58 E1.69073
G1 X104.186 Y96.229 E1.7022
G1 X103.928 Y95.887 E1.71396
G1 X103.644 Y95.564 E1.72576
G1 X103.339 Y95.267 E1.73744
G1 X103.012 Y94.991 E1.74918
G1 X102.661 Y94.739 E1.76104
G1 X102.417 Y94.595 E1.76881
G1 X102.311 Y94.523 E1.77233
G1 X101.92 Y94.322 E1.78439
G1 X101.528 Y94.156 E1.79608
G1 X101.124 Y94.02 E1.80777
G1 X100.832 Y93.945 E1.81604
G1 X100.835 Y93.885 E1.81769
G1 X100.04 Y93.818 E1.83959
G1 X100.039 Y93.784 E1.84052
G1 X99.426 Y93.784 E1.85734
G1 X99.007 Y93.805 E1.86885
G1 X98.74 Y93.839 E1.87624
G1 X98.728 Y93.798 E1.87741
G1 X97.93 Y94.006 E1.90004
G1 X97.915 Y93.969 E1.90113
G1 X97.665 Y94.075 E1.90858
G1 X97.507 Y94.116 E1.91306
G1 X97.511 Y94.128
G1 X97.515 Y94.139 E1.91338
G1 X96.741 Y94.466 E1.93644
G1 X96.754 Y94.497 E1.93736
G1 X96.593 Y94.577 E1.94229
G1 X96.377 Y94.717 E1.94936
G1 X96.357 Y94.692 E1.95024
G1 X95.875 Y95.079 E1.9672
G1 X95.563 Y95.354 E1.97861
G1 X95.266 Y95.659 E1.99029
G1 X94.989 Y95.986 E2.00205
G1 X94.738 Y96.335 E2.01385
G1 X94.38 Y96.924 E2.03276
G1 X94.39 Y96.93 E2.03308
G1 X94.214 Y97.27 E2.04358
G1 X94.236 Y97.282 E2.04427
G1 X94.155 Y97.468 E2.04984
G1 X94.017 Y97.876 E2.06166
G1 X93.911 Y98.29 E2.07338
G1 X93.795 Y98.974 E2.09242
G1 X93.842 Y98.982 E2.09367
G1 X94.947 Y99.18 E2.1119
G1 X94.962 Y99.183
G1 X94.984 Y99.066 E2.11502
G1 X95.056 Y98.701 E2.12523
G0 F3600 X94.645 Y98.72
;TYPE:WALL-OUTER
G1 F600 X94.714 Y98.369 E2.13505
G1 X94.811 Y98.018 E2.14504
G1 X94.974 Y97.552 E2.15859
G1 X94.631 Y97.417 E2.1687
G1 X94.616 Y97.411 E2.16914
G1 X94.528 Y97.612 E2.17516
G1 X94.435 Y97.891 E2.18323
G1 X94.401 Y97.989 E2.18608
G1 X94.33 Y98.27 E2.19403
G1 X94.303 Y98.373 E2.19696
G1 X94.256 Y98.65 E2.20466
G1 X94.645 Y98.72 E2.21551
G0 F3600 X94.683 Y98.524
G0 X95.115 Y98.609
;;retract;;
G1 F4800 E1.41551
G0 F3600 X97.17 Y95.163
G1 F4800 E2.21551
G1 F600 X96.984 Y94.829 E2.226
G1 X96.791 Y94.925 E2.23192
G1 X96.559 Y95.075 E2.2395
G1 X96.455 Y95.142 E2.24289
G1 X96.299 Y95.26 E2.24826
G1 X96.295 Y95.255 E2.24843
G1 X96.235 Y95.303 E2.24958
G1 X96.133 Y95.385 E2.252
G1 X95.96 Y95.538 E2.25834
G1 X95.839 Y95.644 E2.26275
G1 X95.662 Y95.826 E2.26972
G1 X95.562 Y95.928 E2.27364
G1 X95.389 Y96.132 E2.28098
G1 X95.305 Y96.232 E2.28456
G1 X95.137 Y96.465 E2.29244
G1 X95.072 Y96.556 E2.29551
G1 X94.931 Y96.788 E2.30296
G1 X94.936 Y96.791
G1 X94.868 Y96.887 E2.3048
G1 X94.752 Y97.107 E2.31162
G1 X94.774 Y97.119 E2.31191
G1 X95.099 Y97.296 E2.31972
G1 X95.269 Y96.996 E2.32918
G1 X95.46 Y96.698 E2.33889
G1 X95.692 Y96.389 E2.34949
G1 X95.946 Y96.104 E2.35997
G1 X96.218 Y95.832 E2.37052
G1 X96.225 Y95.839
G1 X96.482 Y95.611 E2.37995
G1 X96.486 Y95.616 E2.38013
G1 X96.533 Y95.582 E2.38172
G1 X96.773 Y95.407 E2.38987
G1 X97.17 Y95.163 E2.40266
G0 F3600 X97.073 Y94.989
;;retract;;
G1 F4800 E1.60266
G0 F3600 X99.655 Y94.576
G1 F4800 E2.40266
G1 F600 X99.648 Y94.225 E2.41229
G1 X99.647 Y94.184 E2.41341
G1 X99.436 Y94.184 E2.4192
G1 X99.166 Y94.197 E2.42662
G1 X99.042 Y94.204 E2.43003
G1 X98.742 Y94.241 E2.43832
G1 X98.646 Y94.254 E2.44098
G1 X98.459 Y94.292 E2.44622
G1 X98.456 Y94.282 E2.4465
G1 X98.386 Y94.3 E2.44849
G1 X98.022 Y94.395 E2.45881
G1 X98.024 Y94.401
G1 X97.878 Y94.437 E2.46125
G1 X97.697 Y94.501 E2.46652
G1 X97.695 Y94.496 E2.46666
G1 X97.622 Y94.526 E2.46784
G1 X97.27 Y94.676 E2.47834
G1 X97.28 Y94.699
G1 X97.43 Y95.041 E2.48613
G1 X97.777 Y94.893 E2.49643
G1 X97.818 Y94.88 E2.49761
G1 X98.126 Y94.781 E2.50649
G1 X98.486 Y94.685 E2.51666
G1 X98.487 Y94.692
G1 X98.532 Y94.684 E2.51731
G1 X98.791 Y94.635 E2.52252
G1 X99.186 Y94.595 E2.53341
G1 X99.655 Y94.576 E2.54629
G0 F3600 X99.652 Y94.376
;;retract;;
G1 F4800 E1.74629
G0 F3600 X104.136 Y97.846
G1 F4800 E2.54629
G1 F1500 X104.476 Y97.711 E2.55633
G1 X104.497 Y97.702 E2.55696
G1 X104.425 Y97.502 E2.56279
G1 X104.318 Y97.264 E2.56995
G1 X104.295 Y97.213 E2.57148
G1 X104.262 Y97.141 E2.57366
G1 X104.178 Y96.986 E2.57849
G1 X104.183 Y96.983 E2.57865
G1 X104.071 Y96.788 E2.58482
G1 X103.962 Y96.619 E2.59034
G1 X103.906 Y96.532 E2.59318
G1 X103.858 Y96.458 E2.5956
G1 X103.688 Y96.232 E2.60336
G1 X103.618 Y96.14 E2.60653
G1 X103.421 Y95.916 E2.61472
G1 X103.354 Y95.84 E2.6175
G1 X103.129 Y95.622 E2.6261
G1 X103.07 Y95.564 E2.62837
G1 X102.866 Y95.391 E2.63571
G1 X102.766 Y95.307 E2.63929
G1 X102.533 Y95.139 E2.64717
G1 X102.442 Y95.074 E2.65024
G1 X102.208 Y94.936 E2.65769
G1 X102.107 Y94.868 E2.66104
G1 X101.88 Y94.751 E2.66804
G1 X101.75 Y94.684 E2.67206
G1 X101.527 Y94.59 E2.6787
G1 X101.386 Y94.53 E2.6829
G1 X101.116 Y94.44 E2.69071
G1 X101.01 Y94.404 E2.69378
G1 X100.74 Y94.335 E2.70143
G1 X100.625 Y94.305 E2.70469
G1 X100.413 Y94.269 E2.71059
G1 X100.414 Y94.251 E2.71109
G1 X100.312 Y94.243 E2.71389
G1 X100.228 Y94.236 E2.71621
G1 X100.013 Y94.217 E2.72213
G1 X99.977 Y94.612 E2.73159
G1 X100.194 Y94.634 E2.73754
G1 X100.28 Y94.634 E2.73987
G1 X100.278 Y94.647
G1 X100.336 Y94.658 E2.74149
G1 X100.641 Y94.718 E2.75002
G1 X100.989 Y94.816 E2.75994
G1 X101.371 Y94.956 E2.7711
G1 X101.7 Y95.099 E2.78095
G1 X101.698 Y95.104 E2.7811
G1 X102.002 Y95.271 E2.79061
G1 X102.3 Y95.462 E2.80033
G1 X102.609 Y95.694 E2.81093
