;FLAVOR:Marlin
;TIME:1183
;Filament used:0.623402m
;Layer height: 0.1
;MINX:89.085
;MINY:89.641
;MINZ:0.24
;MAXX:130.913
;MAXY:130.368
;MAXZ:3.06
                            
;Creality Print GCode Generated by CXEngineDEV
;Generated Time:2022-06-30 15:03:09
;----------Machine Config--------------
;Machine Name:Creality Ender-3 S1 Pro
;Machine Height:270
;Machine Width:220
;Machine Depth:220
;Material name:Castable
;Number of Extruders:1
;ExtruderParams[0] Nozzle Diameter1000
;----------Profile Config---------------
;Layer Height:0.1
;Wall Thickness:0.8
;Top/Bottom Thickness:0.6
;Out Wall Line Width:0.4
;Inner Wall Line Width:0.4
;Inital Layer Height:100
;Wall Line Count:2
;Infill Line Distance:4
;Infill Pattern:grid
;Infill Sparse Density:20
;Infill Wipe Distance:0
;Print Temperature:250
;Bed Temperature:90
;Support Enable:false
;Support Density:30
;Support Angle:1.0472
;Adhesion Type:simpleraft
;machine is belt:false
;machine belt offset:10
;machine belt offset Y:0
;Raft Base Line Spacing:1.6
;Wait Heatup Sync:true
;----------Shell Config----------------
;Outer Wall Wipe Distance:200
;Infill Before Walls:false
;Infill Overlap:0.16
;Fill Gaps Between Walls:everywhere
;Minimum Infill Area:1
;Top Surface Skin Layer:0
;Top Layers:6
;Z Seam Alignment:sharpest_corner
;Seam Corner Preference:z_seam_corner_inner
;Z Seam X:110
;Z Seam Y:110
;Horizontal Expansion:0
;Top/Bottom Pattern:zigzag
;Ironing Pattern:zigzag
;Vase Model:false
;----------Support Config----------------
;Support Type:everywhere
;Support Pattern:zigzag
;Support Infill Layer Thickness:0.1
;Minimum Support Area:5
;Enable Support Roof:false
;Support Roof Thickness:0.8
;Support Roof Pattern:lines
;Connect Support Lines:0
;Connect Support ZigZags:1
;Minimum Support X/Y Distance:0.2
;Support Line Distance:1.33
; ---------PrintSpeed & Travel----------
;Enable Print Cool:true
;Avoid Printed Parts Traveling:true
;Enable Retraction:true
;Retraction Distance:0.8
;Retraction Speed:80
;Retraction Prime Speed:80
;Maximum Retraction Count:100
;Minimum Extrusion Distance Window:1
;Z Hop When Retracted:false
;Z Hop Height:0.2
;Retract Before Outer Wall:true
;Print Speed:20
;Infill Speed:20

;Prime Tower Speed:20
;Travel Speed:120
;Initial Layer Speed:10
;Skirt/Brim Speed:10
;Combing Mode:infill
; --------SpecialModel&Mesh Fixes--------
;Union Overlapping Volum:true
;Remove All Holes:false
;Maximum Travel Resolution:0.8
;Maximum Deviation:0.05
;Maximum Model Angle:0.872665
;IS Mold Print:false
;Make Overhang Printable:false
;Enable Coasting:false
;Coasting Volumes:0.06
;Coasting Speed:0.9
;Raft AirGap:0.25
;Layer0 ZOverLap:0.13
;---------------------End of Head--------------------------
M140 S90
M105
M104 S250
M105
M109 S250
M105
M190 S90
M82 ;absolute extrusion mode
M220 S100 ;Reset Feedrate
M221 S100 ;Reset Flowrate

G28 ;Home

G92 E0 ;Reset Extruder
G1 Z2.0 F3000 ;Move Z Axis up
G1 X10.1 Y20 Z0.28 F5000.0 ;Move to start position
G1 X10.1 Y145.0 Z0.28 F1500.0 E15 ;Draw the first line
G1 X10.4 Y145.0 Z0.28 F5000.0 ;Move to side a little
G1 X10.4 Y20 Z0.28 F1500.0 E30 ;Draw the second line
G92 E0  ;Reset Extruder
G1 E-1.0000 F1800 ;Retract a bit
G1 Z2.0 F3000 ;Move Z Axis up
G1 E0.0000 F1800 

G92 E0
G92 E0
G1 F4800 E-0.8

;LAYER_COUNT:20

;LAYER:-4
M107
G0 F7200 X92.536 Y95.878 Z0.24
;TYPE:SUPPORT-INTERFACE
G1 F4800 E0
G1 F1200 X92.8 Y95.545 E0.03731
G1 X92.8 Y124.362 E2.56764
G1 X92.87 Y124.454 E2.57779
G1 X93.3 Y124.963 E2.6363
G1 X93.465 Y125.145 E2.65787
G1 X94.022 Y125.718 E2.72804
G1 X94.4 Y126.07 E2.77339
G1 X94.4 Y93.839 E5.60349
G1 X94.824 Y93.465 E5.65313
G1 X95.371 Y93.029 E5.71456
G1 X95.988 Y92.59 E5.78105
G1 X96 Y92.582 E5.78231
G1 X96 Y127.322 E8.83272
G1 X96.022 Y127.338 E8.83511
G1 X96.573 Y127.691 E8.89257
G1 X97.237 Y128.07 E8.9597
G1 X97.51 Y128.213 E8.98676
G1 X97.6 Y128.256 E8.99552
G1 X97.6 Y91.65 E12.20977
G1 X97.687 Y91.605 E12.21837
G1 X98.291 Y91.325 E12.27683
G1 X98.559 Y91.212 E12.30237
G1 X99.2 Y90.968 E12.36259
G1 X99.2 Y128.937 E15.69653
G1 X99.84 Y129.151 E15.75578
G1 X100.425 Y129.315 E15.80913
G1 X100.756 Y129.396 E15.83905
G1 X100.8 Y129.404 E15.84298
G1 X100.8 Y90.501 E19.25892
G1 X100.907 Y90.475 E19.26859
G1 X101.692 Y90.331 E19.33867
G1 X101.865 Y90.307 E19.35401
G1 X102.4 Y90.259 E19.40117
G1 X102.4 Y129.679 E22.86251
G1 X102.407 Y129.68 E22.86314
G1 X103.158 Y129.742 E22.9293
G1 X103.823 Y129.767 E22.98774
G1 X104 Y129.767 E23.00328
G1 X104 Y90.279 E26.47059
G1 X104.628 Y90.247 E26.5258
G1 X105.261 Y90.244 E26.58139
G1 X105.464 Y90.252 E26.59923
G1 X105.6 Y90.264 E26.61121
G1 X105.6 Y129.678 E30.07203
G1 X105.733 Y129.662 E30.08379
G1 X106.367 Y129.57 E30.14004
G1 X106.633 Y129.524 E30.16375
G1 X107.2 Y129.401 E30.21469
G1 X107.2 Y90.5 E33.63046
G1 X107.44 Y90.557 E33.65212
G1 X107.995 Y90.706 E33.70258
G1 X108.323 Y90.805 E33.73267
G1 X108.8 Y90.92 E33.77575
G1 X108.8 Y128.98 E37.11767
G1 X108.844 Y128.968 E37.12168
G1 X109.564 Y128.866 E37.18553
G1 X110.298 Y128.858 E37.24998
G1 X110.4 Y128.869 E37.25899
G1 X110.4 Y91.037 E40.5809
G1 X110.472 Y91.036 E40.58722
G1 X111.195 Y90.932 E40.65136
G1 X111.873 Y90.746 E40.71309
G1 X112 Y90.708 E40.72473
G1 X112 Y129.192 E44.10389
G1 X112.426 Y129.315 E44.14282
G1 X112.756 Y129.396 E44.17266
G1 X113.521 Y129.551 E44.24119
G1 X113.6 Y129.563 E44.24821
G1 X113.6 Y90.347 E47.69164
G1 X113.692 Y90.331 E47.69984
G1 X113.865 Y90.307 E47.71518
G1 X114.485 Y90.252 E47.76983
G1 X114.706 Y90.242 E47.78925
G1 X115.2 Y90.242 E47.83263
G1 X115.2 Y129.743 E51.30109
G1 X115.823 Y129.767 E51.35583
G1 X116.051 Y129.768 E51.37585
G1 X116.753 Y129.747 E51.43752
G1 X116.8 Y129.744 E51.44165
G1 X116.8 Y90.246 E54.90984
G1 X117.261 Y90.244 E54.95032
G1 X117.464 Y90.252 E54.96816
G1 X118.098 Y90.306 E55.02403
G1 X118.293 Y90.33 E55.04129
G1 X118.4 Y90.35 E55.05084
G1 X118.4 Y129.565 E58.49419
G1 X118.633 Y129.524 E58.51496
G1 X119.443 Y129.347 E58.58776
G1 X119.99 Y129.201 E58.63747
G0 F7200 X119.99 Y129.2
G1 F1200 X120 Y129.197 E58.63839
G1 X120 Y90.708 E62.01798
G1 X120.752 Y90.949 E62.08732
G1 X121.012 Y91.043 E62.1116
G1 X121.6 Y91.283 E62.16736
G1 X121.6 Y128.626 E65.44633
G1 X121.647 Y128.606 E65.45082
G1 X122.356 Y128.279 E65.51937
G1 X122.666 Y128.122 E65.54989
G1 X123.2 Y127.822 E65.60367
G1 X123.2 Y92.083 E68.74179
G1 X123.278 Y92.126 E68.74961
G1 X123.842 Y92.477 E68.80794
G1 X124.077 Y92.633 E68.83271
G1 X124.703 Y93.087 E68.90061
G1 X124.8 Y93.166 E68.9116
G1 X124.8 Y126.744 E71.85997
G1 X125.208 Y126.414 E71.90605
G1 X125.438 Y126.217 E71.93264
G1 X125.894 Y125.799 E71.98696
G1 X126.4 Y125.287 E72.05016
G1 X126.4 Y94.616 E74.74328
G1 X126.594 Y94.824 E74.76826
G1 X126.982 Y95.268 E74.82003
G1 X127.202 Y95.541 E74.85082
G1 X127.533 Y95.973 E74.89861
G1 X127.954 Y96.579 E74.9634
G1 X128 Y96.651 E74.9709
G1 X128 Y123.257 E77.30709
G1 X128.02 Y123.227 E77.31025
G1 X128.186 Y122.965 E77.33749
G1 X128.573 Y122.296 E77.40535
G1 X128.904 Y121.652 E77.46893
G1 X129.199 Y120.99 E77.53257
G1 X129.392 Y120.506 E77.57832
G1 X129.589 Y119.953 E77.62987
G1 X129.6 Y119.918 E77.63309
G1 X129.6 Y110.656 E78.44636
G1 X129.572 Y110.504 E78.45993
G1 X129.549 Y109.76 E78.52529
G1 X129.619 Y109.029 E78.58977
G1 X129.776 Y108.343 E78.65156
G1 X129.854 Y108.057 E78.67759
G1 X129.988 Y107.496 E78.72823
G1 X130.137 Y106.701 E78.79926
G1 X130.18 Y106.412 E78.82491
G1 X130.251 Y105.822 E78.87709
G1 X130.275 Y105.529 E78.90291
G0 F7200 X130.276 Y105.529
G1 F1200 X130.305 Y105.016 E78.94802
G1 X130.313 Y104.73 E78.97314
G1 X130.311 Y104.094 E79.02899
G1 X130.3 Y103.802 E79.05465
G1 X130.247 Y103.047 E79.12111
G1 X130.176 Y102.466 E79.1725
G1 X130.115 Y102.072 E79.20751
G1 X129.974 Y101.341 E79.27288
G1 X129.824 Y100.73 E79.32812
G1 X129.612 Y100.021 E79.3931
G1 X129.6 Y99.986 E79.39635
G1 X129.6 Y109.228 E80.20786
;;retract;;
G1 F4800 E79.40786
G0 F7200 X92.537 Y95.879
G1 F4800 E80.20786
G1 F1200 X92.35 Y96.134 E80.23562
G1 X91.936 Y96.748 E80.30065
G1 X91.602 Y97.294 E80.35685
G1 X91.219 Y98.003 E80.42761
G1 X90.86 Y98.773 E80.50221
G1 X90.732 Y99.074 E80.53093
G1 X90.534 Y99.596 E80.57995
G1 X90.434 Y99.883 E80.60663
G0 F7200 X90.433 Y99.883
G1 F1200 X90.267 Y100.412 E80.65532
G1 X90.187 Y100.694 E80.68106
G1 X90.038 Y101.289 E80.73491
G1 X89.886 Y102.054 E80.8034
G1 X89.851 Y102.274 E80.82296
G1 X89.773 Y102.872 E80.87591
G1 X89.736 Y103.228 E80.90734
G1 X89.7 Y103.78 E80.95591
G1 X89.685 Y104.63 E81.03056
G1 X89.694 Y104.963 E81.05981
G1 X89.735 Y105.651 E81.12033
G1 X89.806 Y106.31 E81.17853
G1 X89.844 Y106.588 E81.20317
G1 X89.983 Y107.361 E81.27213
G1 X90.116 Y107.941 E81.32438
G1 X90.5 Y109.346 E81.45227
G1 X90.421 Y109.346 E81.45921
G1 X90.424 Y109.367 E81.46107
G1 X90.452 Y110.098 E81.52531
G1 X90.387 Y110.828 E81.58966
G1 X90.237 Y111.517 E81.65157
G1 X90.04 Y112.281 E81.72085
G1 X89.886 Y113.054 E81.79006
G1 X89.851 Y113.274 E81.80962
G1 X89.773 Y113.872 E81.86257
G1 X89.736 Y114.228 E81.894
G1 X89.7 Y114.78 E81.94257
G1 X89.685 Y115.63 E82.01722
G1 X89.694 Y115.963 E82.04647
G1 X89.735 Y116.651 E82.10699
G1 X89.806 Y117.31 E82.16519
G1 X89.844 Y117.588 E82.18983
G1 X89.983 Y118.361 E82.25879
G1 X90.117 Y118.943 E82.31123
G1 X90.193 Y119.238 E82.33798
G1 X90.372 Y119.833 E82.39254
G1 X90.451 Y120.073 E82.41472
G1 X90.722 Y120.801 E82.48293
G1 X90.966 Y121.373 E82.53754
G1 X91.103 Y121.663 E82.5657
G1 X91.2 Y121.852 E82.58435
G1 X91.2 Y98.043 E84.67494
G0 F600 X91.2 Y98.043 Z0.54
G0 F7200 X89.876 Y119.574
;TIME_ELAPSED:54.555262

;LAYER:-3
;TYPE:SUPPORT
G1 F1800 X99.876 Y129.575 E86.08612
G1 X99.726 Y129.534 E86.10164
G1 X98.971 Y129.282 E86.18106
G1 X98.668 Y129.168 E86.21336
G1 X97.934 Y128.86 E86.29279
G1 X97.572 Y128.685 E86.33291
G1 X90.761 Y121.874 E87.29401
G1 X90.741 Y121.834 E87.29847
G1 X90.604 Y121.544 E87.33048
G1 X90.349 Y120.946 E87.39534
G1 X90.076 Y120.213 E87.47339
G1 X89.992 Y119.959 E87.50009
G1 X89.81 Y119.353 E87.56322
G1 X89.727 Y119.033 E87.59621
G1 X89.59 Y118.439 E87.65703
G1 X89.466 Y117.75 E87.72689
G1 X101.698 Y129.982 E89.45295
G1 X102 Y130.031 E89.48348
G1 X102.367 Y130.078 E89.5204
G1 X103.132 Y130.142 E89.597
G1 X103.275 Y130.145 E89.61127
G1 X89.306 Y116.176 E91.58245
G1 X89.294 Y115.973 E91.60274
G1 X89.285 Y115.623 E91.63767
G1 X89.3 Y114.773 E91.7225
G1 X89.3 Y114.756 E91.72419
G1 X104.692 Y130.148 E93.89617
G1 X104.773 Y130.147 E93.90425
G1 X105.493 Y130.092 E93.97631
G1 X105.79 Y130.058 E94.00613
G1 X105.986 Y130.028 E94.02592
G1 X89.422 Y113.463 E96.36335
G1 X89.454 Y113.222 E96.38761
G1 X89.491 Y112.991 E96.41095
G1 X89.634 Y112.262 E96.48508
G1 X107.183 Y129.811 E98.96143
G1 X107.528 Y129.738 E98.99662
G1 X108.107 Y129.583 E99.05642
G1 X108.307 Y129.52 E99.07735
G1 X89.912 Y111.125 E101.67308
G1 X89.991 Y110.768 E101.70956
G1 X90.051 Y110.088 E101.77768
G1 X90.04 Y109.839 E101.80255
G1 X109.482 Y129.281 E104.54602
G1 X109.594 Y129.266 E104.5573
G1 X110.277 Y129.258 E104.62545
G1 X110.951 Y129.336 E104.69315
G1 X89.756 Y108.141 E107.684
G1 X89.727 Y108.033 E107.69515
G1 X89.59 Y107.439 E107.75598
G1 X89.45 Y106.659 E107.83505
G1 X89.412 Y106.382 E107.86295
G1 X112.852 Y129.822 E111.17059
G1 X113.445 Y129.944 E111.231
G1 X114 Y130.031 E111.28705
G1 X114.367 Y130.078 E111.32397
G1 X114.534 Y130.09 E111.34068
G1 X89.29 Y104.846 E114.90288
G1 X89.285 Y104.623 E114.92513
G1 X89.3 Y103.773 E115.00996
G1 X89.32 Y103.462 E115.04106
G1 X116.024 Y130.167 E118.80935
G1 X116.061 Y130.168 E118.81304
G1 X116.773 Y130.147 E118.88412
G1 X117.371 Y130.099 E118.94398
G1 X89.458 Y102.186 E122.8828
G1 X89.491 Y101.991 E122.90254
G1 X89.65 Y101.192 E122.98383
G1 X89.695 Y101.008 E123.00273
G1 X118.617 Y129.931 E127.084
G1 X118.713 Y129.916 E127.0937
G1 X119.528 Y129.738 E127.17694
G1 X119.771 Y129.671 E127.20209
G1 X90.006 Y99.905 E131.40232
G1 X90.056 Y99.751 E131.41848
G1 X90.156 Y99.464 E131.4488
G1 X90.358 Y98.932 E131.50558
G1 X90.383 Y98.869 E131.51235
G1 X120.852 Y129.337 E135.81178
G1 X121.216 Y129.212 E135.85018
G1 X121.802 Y128.975 E135.91326
G1 X121.871 Y128.942 E135.92089
G1 X90.825 Y97.896 E140.30181
G1 X90.856 Y97.834 E140.30873
G1 X91.255 Y97.095 E140.39253
G1 X91.323 Y96.98 E140.40586
G1 X122.83 Y128.486 E144.85177
G1 X122.847 Y128.479 E144.8536
G1 X123.564 Y128.075 E144.93572
G1 X123.728 Y127.97 E144.95515
G1 X91.876 Y96.119 E149.44974
G1 X92.027 Y95.897 E149.47653
G1 X92.214 Y95.642 E149.50808
G1 X92.478 Y95.306 E149.55072
G1 X124.575 Y127.404 E154.08002
G1 X125.005 Y127.092 E154.13303
G1 X125.376 Y126.79 E154.18077
G1 X93.125 Y94.54 E158.73166
G1 X93.217 Y94.438 E158.74537
G1 X93.721 Y93.923 E158.81727
G1 X93.824 Y93.824 E158.83152
G1 X126.127 Y126.127 E163.38982
G1 X126.176 Y126.083 E163.39639
G1 X126.739 Y125.513 E163.47634
G1 X126.829 Y125.415 E163.48961
G1 X94.569 Y93.155 E168.04185
G1 X95.133 Y92.708 E168.11365
G1 X95.368 Y92.54 E168.14248
G1 X127.483 Y124.655 E172.67425
G1 X127.521 Y124.608 E172.68028
G1 X128.014 Y123.95 E172.76232
G1 X128.086 Y123.843 E172.77519
G1 X96.213 Y91.97 E177.27281
G1 X96.811 Y91.612 E177.34236
G1 X97.111 Y91.455 E177.37614
G1 X128.638 Y122.981 E181.82487
G1 X128.929 Y122.479 E181.88277
G1 X129.139 Y122.068 E181.92882
G1 X98.061 Y90.99 E186.31427
G1 X98.136 Y90.956 E186.32248
G1 X98.416 Y90.838 E186.3528
G1 X99.073 Y90.588 E186.42294
G1 X129.586 Y121.101 E190.72866
G1 X129.764 Y120.654 E190.77666
G1 X129.966 Y120.087 E190.83672
G1 X129.971 Y120.071 E190.83839
G1 X100.151 Y90.251 E195.04632
G1 X100.816 Y90.085 E195.11471
G1 X101.308 Y89.994 E195.16463
G1 X130.285 Y118.971 E199.2536
G1 X130.377 Y118.589 E199.29281
G1 X130.525 Y117.797 E199.3732
G1 X102.575 Y89.847 E203.31725
G1 X102.688 Y89.842 E203.32853
G1 X103.323 Y89.842 E203.3919
G1 X103.892 Y89.868 E203.44873
G1 X103.892 Y89.885 E203.45043
G1 X104.021 Y89.878 E203.46332
G1 X130.675 Y116.533 E207.22455
G1 X130.705 Y116.027 E207.27513
G1 X130.713 Y115.741 E207.30368
G1 X130.71 Y115.154 E207.36225
G1 X105.405 Y89.849 E210.93306
G1 X105.492 Y89.852 E210.94175
G1 X106.132 Y89.907 E211.00584
G1 X106.347 Y89.934 E211.02746
G1 X107.032 Y90.062 E211.097
G1 X130.598 Y113.627 E214.42234
G1 X130.573 Y113.418 E214.44334
G1 X130.508 Y112.996 E214.48595
G1 X130.367 Y112.265 E214.56023
G1 X130.274 Y111.889 E214.59888
G1 X108.922 Y90.537 E217.61188
G1 X109.078 Y90.575 E217.6279
G1 X109.758 Y90.649 E217.69615
G1 X110.436 Y90.637 E217.76381
G1 X129.961 Y110.162 E220.519
G1 X129.95 Y109.773 E220.55783
G1 X130.015 Y109.093 E220.62599
G1 X130.068 Y108.855 E220.65032
G1 X111.615 Y90.402 E223.25424
G1 X111.763 Y90.361 E223.26956
G1 X112.03 Y90.282 E223.29734
G1 X112.733 Y90.105 E223.36968
G1 X130.345 Y107.718 E225.85499
G1 X130.377 Y107.589 E225.86826
G1 X130.533 Y106.76 E225.95243
G1 X130.567 Y106.525 E225.97612
G1 X113.941 Y89.899 E228.32223
G1 X114.467 Y89.852 E228.37492
G1 X114.688 Y89.842 E228.39699
G1 X115.298 Y89.842 E228.45786
G1 X130.692 Y105.236 E230.63012
G1 X130.705 Y105.027 E230.65101
G1 X130.713 Y104.741 E230.67956
G1 X130.711 Y104.079 E230.74562
G1 X130.701 Y103.831 E230.77038
G1 X116.717 Y89.847 E232.74368
G1 X117.274 Y89.844 E232.79925
G1 X117.492 Y89.852 E232.82102
G1 X118.132 Y89.907 E232.88512
G1 X118.199 Y89.914 E232.89184
G1 X130.548 Y102.264 E234.63449
G1 X130.508 Y101.996 E234.66152
G1 X130.367 Y101.265 E234.73581
G1 X130.207 Y100.615 E234.8026
G1 X129.991 Y99.892 E234.87789
G1 X129.856 Y99.495 E234.91973
G1 X129.589 Y98.804 E234.99365
G1 X129.327 Y98.214 E235.05806
G1 X122.242 Y91.129 E236.05783
G1 X121.962 Y90.998 E236.08868
G1 X121.149 Y90.667 E236.17627
G1 X120.885 Y90.571 E236.20429
G1 X120.111 Y90.323 E236.28539
G1 X119.988 Y90.29 E236.2981
G1 X130.16 Y100.462 E237.73348
G0 F600 X130.16 Y100.462 Z0.74
G0 F7200 X127.021 Y94.401
;TIME_ELAPSED:108.657821

;LAYER:-2
;TYPE:SUPPORT-INTERFACE
G1 F2400 X126.635 Y94 E237.75199
G1 X93.368 Y94 E238.85846
G1 X93.651 Y93.711 E238.87191
G1 X93.773 Y93.6 E238.87739
G1 X126.234 Y93.6 E239.95705
G0 F7200 X126.232 Y93.6
G1 F2400 X125.794 Y93.202 E239.97674
G0 F7200 X125.793 Y93.2
G1 F2400 X94.213 Y93.2 E241.02709
G1 X94.233 Y93.181 E241.02801
G1 X94.554 Y92.911 E241.04196
G1 X94.697 Y92.8 E241.04798
G1 X125.305 Y92.8 E242.06601
