;FLAVOR:Marlin
;TIME:7182
;Filament used:4.55018m
;Layer height: 0.15
;MINX:22.7
;MINY:72.7
;MINZ:0.15
;MAXX:197.3
;MAXY:147.3
;MAXZ:1.95
                                     
;Creality Print GCode Generated by CXEngineDEV
;Generated Time:2022-06-30 15:03:09
;----------Machine Config--------------
;Machine Name:Creality Ender-3 S1 Pro
;Machine Height:270
;Machine Width:220
;Machine Depth:220
;Material name:Castable
;Number of Extruders:1
;ExtruderParams[0] Nozzle Diameter1000
;----------Profile Config---------------
;Layer Height:0.15
;Wall Thickness:0.8
;Top/Bottom Thickness:1
;Out Wall Line Width:0.4
;Inner Wall Line Width:0.4
;Inital Layer Height:150
;Wall Line Count:2
;Infill Line Distance:4
;Infill Pattern:grid
;Infill Sparse Density:20
;Infill Wipe Distance:0
;Print Temperature:260
;Bed Temperature:90
;Support Enable:false
;Support Density:15
;Support Angle:1.0472
;Adhesion Type:none
;machine is belt:false
;machine belt offset:10
;machine belt offset Y:0
;Raft Base Line Spacing:1.6
;Wait Heatup Sync:true
;----------Shell Config----------------
;Outer Wall Wipe Distance:200
;Infill Before Walls:false
;Infill Overlap:0.16
;Fill Gaps Between Walls:everywhere
;Minimum Infill Area:1
;Top Surface Skin Layer:0
;Top Layers:4
;Z Seam Alignment:sharpest_corner
;Seam Corner Preference:z_seam_corner_inner
;Z Seam X:110
;Z Seam Y:110
;Horizontal Expansion:0
;Top/Bottom Pattern:zigzag
;Ironing Pattern:zigzag
;Vase Model:false
;----------Support Config----------------
;Support Type:everywhere
;Support Pattern:zigzag
;Support Infill Layer Thickness:0.15
;Minimum Support Area:5
;Enable Support Roof:false
;Support Roof Thickness:0.8
;Support Roof Pattern:lines
;Connect Support Lines:0
;Connect Support ZigZags:1
;Minimum Support X/Y Distance:0.2
;Support Line Distance:2.67
; ---------PrintSpeed & Travel----------
;Enable Print Cool:true
;Avoid Printed Parts Traveling:true
;Enable Retraction:true
;Retraction Distance:0.8
;Retraction Speed:80
;Retraction Prime Speed:80
;Maximum Retraction Count:100
;Minimum Extrusion Distance Window:1
;Z Hop When Retracted:false
;Z Hop Height:0.2
;Retract Before Outer Wall:true
;Print Speed:50
;Infill Speed:50

;Prime Tower Speed:50
;Travel Speed:120
;Initial Layer Speed:25
;Skirt/Brim Speed:25
;Combing Mode:off
; --------SpecialModel&Mesh Fixes--------
;Union Overlapping Volum:true
;Remove All Holes:false
;Maximum Travel Resolution:0.6
;Maximum Deviation:0.05
;Maximum Model Angle:0.872665
;IS Mold Print:false
;Make Overhang Printable:false
;Enable Coasting:false
;Coasting Volumes:0.06
;Coasting Speed:0.9
;Raft AirGap:0.25
;Layer0 ZOverLap:0.13
;---------------------End of Head--------------------------
M140 S90
M105
M104 S260
M105
M109 S260
M105
M190 S90
M82 ;absolute extrusion mode
M220 S100 ;Reset Feedrate
M221 S100 ;Reset Flowrate

G28 ;Home

G92 E0 ;Reset Extruder
G1 Z2.0 F3000 ;Move Z Axis up
G1 X10.1 Y20 Z0.28 F5000.0 ;Move to start position
G1 X10.1 Y145.0 Z0.28 F1500.0 E15 ;Draw the first line
G1 X10.4 Y145.0 Z0.28 F5000.0 ;Move to side a little
G1 X10.4 Y20 Z0.28 F1500.0 E30 ;Draw the second line
G92 E0  ;Reset Extruder
G1 E-1.0000 F1800 ;Retract a bit
G1 Z2.0 F3000 ;Move Z Axis up
G1 E0.0000 F1800 

G92 E0
G92 E0
G1 F4800 E-0.8

;LAYER_COUNT:13

;LAYER:0
M107
;MESH:
G0 F3600 X170.541 Y137.761 Z0.15
;TYPE:WALL-INNER
G1 F4800 E0
G1 F1500 X170.474 Y138.305 E0.01504
G1 X170.552 Y138.848 E0.03009
G1 X170.766 Y139.353 E0.04514
G1 X171.105 Y139.786 E0.06023
G1 X171.545 Y140.116 E0.07532
G1 X172.053 Y140.321 E0.09036
G1 X172.599 Y140.387 E0.10545
G1 X173.142 Y140.31 E0.1205
G1 X173.648 Y140.095 E0.13558
G1 X174.079 Y139.756 E0.15063
G1 X174.41 Y139.317 E0.16571
G1 X174.615 Y138.807 E0.1808
G1 X174.682 Y138.263 E0.19584
G1 X174.604 Y137.72 E0.21089
G1 X174.389 Y137.214 E0.22597
G1 X174.049 Y136.782 E0.24106
G1 X173.611 Y136.452 E0.25611
G1 X173.101 Y136.247 E0.27119
G1 X172.557 Y136.181 E0.28623
G1 X172.013 Y136.258 E0.3013
G1 X171.508 Y136.473 E0.31636
G1 X171.076 Y136.812 E0.33143
G1 X170.745 Y137.251 E0.34652
G1 X170.541 Y137.761 E0.36159
G0 F3600 X170.932 Y137.861
;TYPE:WALL-OUTER
G1 F1500 X170.878 Y138.301 E0.37375
G1 X170.941 Y138.74 E0.38592
G1 X171.114 Y139.148 E0.39808
G1 X171.388 Y139.498 E0.41028
G1 X171.743 Y139.765 E0.42247
G1 X172.154 Y139.93 E0.43462
G1 X172.595 Y139.984 E0.44681
G1 X173.034 Y139.921 E0.45898
G1 X173.443 Y139.748 E0.47117
G1 X173.791 Y139.474 E0.48332
G1 X174.059 Y139.119 E0.49553
G1 X174.224 Y138.707 E0.5077
G1 X174.278 Y138.267 E0.51987
G1 X174.215 Y137.828 E0.53204
G1 X174.042 Y137.419 E0.54422
G1 X173.767 Y137.07 E0.55642
G1 X173.413 Y136.803 E0.56858
G1 X173.001 Y136.638 E0.58076
G1 X172.561 Y136.584 E0.59292
G1 X172.121 Y136.647 E0.60512
G1 X171.713 Y136.82 E0.61728
G1 X171.364 Y137.094 E0.62946
G1 X171.097 Y137.449 E0.64164
G1 X170.932 Y137.861 E0.65382
G0 F3600 X170.908 Y138.059
G0 X170.471 Y138.005
;;retract;;
G1 F4800 E-0.14618
G0 F3600 X170.736 Y83.043
;TYPE:WALL-INNER
G1 F4800 E0.65382
G1 F1500 X170.813 Y83.587 E0.6689
G1 X171.028 Y84.092 E0.68396
G1 X171.367 Y84.524 E0.69903
G1 X171.806 Y84.855 E0.71411
G1 X172.316 Y85.059 E0.72919
G1 X172.86 Y85.126 E0.74423
G1 X173.403 Y85.048 E0.75928
G1 X173.908 Y84.834 E0.77433
G1 X174.341 Y84.495 E0.78942
G1 X174.671 Y84.055 E0.80451
G1 X174.876 Y83.547 E0.81954
G1 X174.942 Y83.001 E0.83463
G1 X174.865 Y82.458 E0.84968
G1 X174.65 Y81.952 E0.86477
G1 X174.311 Y81.521 E0.87981
G1 X173.872 Y81.189 E0.89492
G1 X173.362 Y80.986 E0.90998
G1 X172.818 Y80.918 E0.92502
G1 X172.275 Y80.998 E0.94008
G1 X171.77 Y81.21 E0.95511
G1 X171.337 Y81.551 E0.97023
G1 X171.007 Y81.989 E0.98528
G1 X170.802 Y82.499 E1.00036
G1 X170.736 Y83.043 E1.0154
G0 F3600 X171.139 Y83.039
;TYPE:WALL-OUTER
G1 F1500 X171.202 Y83.479 E1.0276
G1 X171.375 Y83.887 E1.03976
G1 X171.649 Y84.236 E1.05193
G1 X172.004 Y84.503 E1.06412
G1 X172.416 Y84.668 E1.0763
G1 X172.856 Y84.722 E1.08846
G1 X173.295 Y84.659 E1.10063
G1 X173.703 Y84.486 E1.11279
G1 X174.053 Y84.212 E1.12499
G1 X174.32 Y83.857 E1.13718
G1 X174.485 Y83.446 E1.14933
G1 X174.539 Y83.005 E1.16152
G1 X174.476 Y82.566 E1.17369
G1 X174.303 Y82.157 E1.18588
G1 X174.029 Y81.809 E1.19803
G1 X173.674 Y81.541 E1.21024
G1 X173.262 Y81.377 E1.2224
G1 X172.822 Y81.322 E1.23457
G1 X172.383 Y81.386 E1.24674
G1 X171.975 Y81.558 E1.25889
G1 X171.625 Y81.833 E1.27111
G1 X171.358 Y82.187 E1.28327
G1 X171.193 Y82.599 E1.29545
G1 X171.139 Y83.039 E1.30762
G0 F3600 X171.167 Y83.237
G0 X170.731 Y83.299
;;retract;;
G1 F4800 E0.50762
G0 F3600 X34.953 Y108.347
;TYPE:WALL-INNER
G1 F4800 E1.30762
G1 F1500 X34.612 Y107.915 E1.32272
G1 X34.174 Y107.585 E1.33777
G1 X33.664 Y107.38 E1.35285
G1 X33.12 Y107.314 E1.36789
G1 X32.576 Y107.391 E1.38296
G1 X32.071 Y107.606 E1.39802
G1 X31.639 Y107.945 E1.41309
G1 X31.309 Y108.384 E1.42816
G1 X31.104 Y108.892 E1.44319
G1 X31.038 Y109.438 E1.45828
G1 X31.115 Y109.981 E1.47333
G1 X31.33 Y110.487 E1.48842
G1 X31.669 Y110.918 E1.50346
G1 X32.108 Y111.25 E1.51857
G1 X32.616 Y111.453 E1.53358
G1 X33.162 Y111.521 E1.54867
G1 X33.705 Y111.441 E1.56374
G1 X34.211 Y111.229 E1.57879
G1 X34.642 Y110.888 E1.59387
G1 X34.974 Y110.45 E1.60895
G1 X35.177 Y109.94 E1.62401
G1 X35.245 Y109.396 E1.63906
G1 X35.165 Y108.852 E1.65414
G1 X34.953 Y108.347 E1.66917
G0 F3600 X34.605 Y108.552
;TYPE:WALL-OUTER
G1 F1500 X34.33 Y108.203 E1.68136
G1 X33.976 Y107.936 E1.69353
G1 X33.564 Y107.771 E1.70571
G1 X33.124 Y107.717 E1.71787
G1 X32.684 Y107.78 E1.73007
G1 X32.276 Y107.953 E1.74223
G1 X31.927 Y108.227 E1.75441
G1 X31.66 Y108.582 E1.76659
G1 X31.495 Y108.993 E1.77875
G1 X31.441 Y109.434 E1.79094
G1 X31.504 Y109.873 E1.80311
G1 X31.677 Y110.282 E1.81529
G1 X31.951 Y110.63 E1.82745
G1 X32.306 Y110.898 E1.83965
G1 X32.717 Y111.062 E1.85179
G1 X33.158 Y111.117 E1.86399
G1 X33.597 Y111.053 E1.87616
G1 X34.006 Y110.881 E1.88834
G1 X34.354 Y110.606 E1.90051
G1 X34.622 Y110.252 E1.91269
G1 X34.786 Y109.84 E1.92486
G1 X34.841 Y109.4 E1.93703
G1 X34.777 Y108.96 E1.94923
G1 X34.605 Y108.552 E1.96138
G0 F3600 X34.482 Y108.395
G0 X34.827 Y108.124
;;retract;;
G1 F4800 E1.16138
G0 F3600 X56.9 Y91.9
;TYPE:WALL-INNER
G1 F4800 E1.96138
G1 F1500 X56.9 Y128.1 E2.95469
G1 X196.9 Y128.1 E6.79623
G1 X196.9 Y146.9 E7.3121
G1 X38.688 Y146.9 E11.65338
G1 X32.462 Y146.896 E11.82421
G1 X31.163 Y146.803 E11.85995
G1 X29.855 Y146.518 E11.89668
G1 X28.599 Y146.05 E11.93346
G1 X27.416 Y145.404 E11.97045
G1 X26.343 Y144.601 E12.00722
G1 X25.399 Y143.657 E12.04385
G1 X24.596 Y142.584 E12.08063
G1 X23.95 Y141.401 E12.11761
G1 X23.482 Y140.145 E12.15439
G1 X23.197 Y138.837 E12.19113
G1 X23.1 Y137.485 E12.22832
G1 X23.104 Y82.458 E13.73824
G1 X23.197 Y81.163 E13.77387
G1 X23.482 Y79.855 E13.8106
G1 X23.95 Y78.599 E13.84738
G1 X24.596 Y77.416 E13.88436
G1 X25.399 Y76.343 E13.92114
G1 X26.343 Y75.399 E13.95777
G1 X27.416 Y74.596 E13.99454
G1 X28.599 Y73.95 E14.03153
G1 X29.855 Y73.482 E14.06831
G1 X31.163 Y73.197 E14.10504
G1 X32.515 Y73.1 E14.14224
G1 X196.9 Y73.1 E18.6529
G1 X196.9 Y91.9 E19.16876
G1 X56.9 Y91.9 E23.01031
G0 F3600 X57.3 Y92.3
;TYPE:WALL-OUTER
G1 F1500 X57.3 Y127.7 E23.98167
G1 X197.3 Y127.7 E27.82321
G1 X197.3 Y147.3 E28.36103
G1 X38.688 Y147.3 E32.71328
G1 X32.447 Y147.296 E32.88453
G1 X31.105 Y147.2 E32.92145
G1 X29.741 Y146.903 E32.95976
G1 X28.434 Y146.416 E32.99803
G1 X27.2 Y145.742 E33.03661
G1 X26.079 Y144.903 E33.07503
G1 X25.097 Y143.921 E33.11314
G1 X24.258 Y142.8 E33.15156
G1 X23.584 Y141.566 E33.19014
G1 X23.097 Y140.259 E33.22841
G1 X22.8 Y138.895 E33.26672
G1 X22.7 Y137.5 E33.30509
G1 X22.704 Y82.447 E34.81573
G1 X22.8 Y81.105 E34.85265
G1 X23.097 Y79.741 E34.89095
G1 X23.584 Y78.434 E34.92922
G1 X24.258 Y77.2 E34.9678
G1 X25.097 Y76.079 E35.00623
G1 X26.079 Y75.097 E35.04433
G1 X27.2 Y74.258 E35.08275
G1 X28.434 Y73.584 E35.12134
G1 X29.741 Y73.097 E35.15961
G1 X31.105 Y72.8 E35.19791
G1 X32.5 Y72.7 E35.23629
G1 X197.3 Y72.7 E39.75834
G1 X197.3 Y92.3 E40.29615
G1 X57.3 Y92.3 E44.1377
G0 F3600 X57.3 Y92.5
G0 X56.86 Y92.5
;;retract;;
G1 F4800 E43.3377
G0 F3600 X25.584 Y143.504
;TYPE:SKIN
G1 F4800 E44.1377
G1 F1500 X26.494 Y144.414 E44.17301
G1 X27.511 Y145.173 E44.20783
G1 X24.823 Y142.486 E44.31212
G1 X24.798 Y142.453 E44.31326
G1 X24.165 Y141.293 E44.34952
G1 X24.146 Y141.243 E44.35099
G1 X28.756 Y145.853 E44.52988
G1 X29.656 Y146.187 E44.55622
G1 X23.811 Y140.342 E44.78304
G1 X23.713 Y140.079 E44.79074
G1 X23.601 Y139.567 E44.80512
G1 X30.431 Y146.397 E45.07016
G1 X31.154 Y146.554 E45.09046
G1 X23.444 Y138.843 E45.38967
G1 X23.434 Y138.8 E45.39089
G1 X23.393 Y138.227 E45.40665
G1 X31.771 Y146.605 E45.73176
G1 X32.38 Y146.648 E45.74851
G1 X23.349 Y137.617 E46.09897
G1 X23.34 Y137.484 E46.10262
G1 X23.34 Y137.042 E46.11475
G1 X32.952 Y146.655 E46.48777
G1 X33.518 Y146.655 E46.5033
G1 X23.34 Y136.477 E46.89826
G1 X23.34 Y135.911 E46.91379
G1 X34.084 Y146.656 E47.33074
G1 X34.65 Y146.656 E47.34627
G1 X23.34 Y135.345 E47.78518
G1 X23.34 Y134.78 E47.80068
G1 X35.216 Y146.656 E48.26154
G1 X35.782 Y146.656 E48.27707
G1 X23.34 Y134.214 E48.75988
G1 X23.34 Y133.648 E48.77541
G1 X36.348 Y146.657 E49.28022
G1 X36.914 Y146.657 E49.29575
G1 X23.34 Y133.083 E49.82249
G1 X23.34 Y132.517 E49.83802
G1 X37.48 Y146.658 E50.38675
G1 X38.046 Y146.658 E50.40228
G1 X23.34 Y131.951 E50.97297
G1 X23.34 Y131.386 E50.98848
G1 X38.612 Y146.658 E51.58112
G1 X38.687 Y146.658 E51.58317
G1 X39.178 Y146.658 E51.59665
G1 X23.34 Y130.82 E52.21125
G1 X23.34 Y130.254 E52.22678
G1 X39.744 Y146.658 E52.86334
G1 X40.31 Y146.658 E52.87887
G1 X23.34 Y129.689 E53.53738
G1 X23.34 Y129.123 E53.55291
G1 X40.875 Y146.658 E54.23337
G1 X41.441 Y146.658 E54.2489
G1 X23.34 Y128.557 E54.95132
G1 X23.34 Y127.991 E54.96685
G1 X42.007 Y146.658 E55.69123
G1 X42.572 Y146.658 E55.70673
G1 X23.34 Y127.426 E56.45304
G1 X23.34 Y126.86 E56.46857
G1 X43.138 Y146.658 E57.23684
G1 X43.704 Y146.658 E57.25237
G1 X23.34 Y126.295 E58.04259
G1 X23.34 Y125.729 E58.05812
G1 X44.269 Y146.658 E58.87028
G1 X44.835 Y146.658 E58.88581
G1 X23.34 Y125.164 E59.71991
G1 X23.34 Y124.598 E59.73544
G1 X45.401 Y146.658 E60.59151
G1 X45.966 Y146.658 E60.60701
G1 X23.34 Y124.032 E61.48503
G1 X23.34 Y123.467 E61.50053
G1 X46.532 Y146.658 E62.40049
G1 X47.098 Y146.658 E62.41602
G1 X23.34 Y122.901 E63.33794
G1 X23.34 Y122.335 E63.35347
G1 X47.663 Y146.658 E64.29734
G1 X48.229 Y146.658 E64.31287
G1 X23.34 Y121.77 E65.27868
G1 X23.34 Y121.204 E65.29421
G1 X48.795 Y146.658 E66.28198
G1 X49.361 Y146.658 E66.29751
G1 X23.34 Y120.638 E67.30725
G1 X23.34 Y120.073 E67.32275
G1 X49.926 Y146.658 E68.35442
G1 X50.492 Y146.658 E68.36995
G1 X23.34 Y119.507 E69.42357
G1 X23.34 Y118.941 E69.4391
G1 X51.058 Y146.658 E70.5147
G1 X51.623 Y146.658 E70.5302
G1 X23.34 Y118.376 E71.62771
G1 X23.34 Y117.81 E71.64325
G1 X52.189 Y146.658 E72.76272
G1 X52.755 Y146.658 E72.77826
G1 X23.34 Y117.244 E73.9197
G1 X23.34 Y116.678 E73.93523
G1 X53.32 Y146.658 E75.09862
G1 X53.886 Y146.658 E75.11415
G1 X23.34 Y116.113 E76.29948
G1 X23.34 Y115.547 E76.31501
G1 X54.452 Y146.658 E77.52231
G1 X55.017 Y146.658 E77.53781
G1 X23.341 Y114.982 E78.76701
G1 X23.341 Y114.416 E78.78254
G1 X55.583 Y146.658 E80.03371
G1 X56.149 Y146.658 E80.04924
G1 X23.341 Y113.851 E81.32235
G1 X23.341 Y113.285 E81.33788
G1 X56.714 Y146.658 E82.63294
G1 X57.28 Y146.658 E82.64847
G1 X23.341 Y112.719 E83.96549
G1 X23.341 Y112.154 E83.98099
G1 X57.846 Y146.658 E85.31995
G1 X58.411 Y146.658 E85.33546
G1 X23.341 Y111.588 E86.69637
G1 X23.341 Y111.022 E86.7119
G1 X58.977 Y146.658 E88.09477
G1 X59.543 Y146.658 E88.1103
G1 X23.341 Y110.457 E89.51512
G1 X23.341 Y109.891 E89.53065
G1 X60.109 Y146.658 E90.95743
G1 X60.674 Y146.658 E90.97293
G1 X23.341 Y109.325 E92.42165
G1 X23.341 Y108.76 E92.43716
G1 X61.24 Y146.658 E93.90783
G1 X61.806 Y146.658 E93.92336
G1 X23.341 Y108.194 E95.41599
G1 X23.341 Y107.628 E95.43152
G1 X62.371 Y146.658 E96.9461
G1 X62.937 Y146.658 E96.96163
G1 X23.341 Y107.063 E98.49815
G1 X23.341 Y106.497 E98.51368
G1 X63.503 Y146.658 E100.07217
G1 X64.068 Y146.658 E100.08767
G1 X23.341 Y105.931 E101.6681
G1 X23.341 Y105.365 E101.68363
G1 X64.634 Y146.658 E103.28603
G1 X65.2 Y146.658 E103.30156
G1 X23.341 Y104.8 E104.9259
G1 X23.342 Y104.235 E104.9414
G1 X65.765 Y146.658 E106.58764
G1 X66.331 Y146.658 E106.60318
G1 X23.342 Y103.669 E108.27138
G1 X23.342 Y103.103 E108.28691
G1 X66.897 Y146.658 E109.97709
G1 X67.462 Y146.658 E109.99259
G1 X32.447 Y111.643 E111.35136
G1 X32.555 Y111.686 E111.35455
G1 X33.127 Y111.757 E111.37037
G1 X68.028 Y146.658 E112.72472
G1 X68.594 Y146.658 E112.74025
G1 X33.629 Y111.694 E114.09706
G1 X33.77 Y111.673 E114.10098
G1 X34.055 Y111.554 E114.10945
G1 X69.159 Y146.658 E115.47168
G1 X69.725 Y146.658 E115.48721
G1 X34.429 Y111.362 E116.85689
G1 X34.745 Y111.112 E116.86794
G1 X70.291 Y146.658 E118.24732
G1 X70.857 Y146.658 E118.26285
G1 X35.003 Y110.805 E119.65416
G1 X35.184 Y110.568 E119.66235
G1 X35.226 Y110.462 E119.66548
G1 X71.422 Y146.658 E121.07008
G1 X71.988 Y146.658 E121.08561
G1 X35.387 Y110.057 E122.50593
G1 X35.411 Y109.999 E122.50765
G1 X35.464 Y109.569 E122.51954
G1 X72.554 Y146.658 E123.95881
G1 X73.119 Y146.658 E123.97432
G1 X35.423 Y108.963 E125.43711
G1 X35.398 Y108.786 E125.44201
G1 X35.162 Y108.221 E125.45882
G1 X34.829 Y107.802 E125.4735
G1 X34.78 Y107.741 E125.47565
G0 F3600 X34.728 Y107.701
G1 F1500 X23.342 Y96.315 E125.91749
G1 X23.342 Y96.881 E125.93302
G1 X33.589 Y107.128 E126.33066
G1 X33.118 Y107.071 E126.34368
G1 X32.985 Y107.089 E126.34736
G1 X23.342 Y97.447 E126.72154
G1 X23.342 Y98.012 E126.73705
G1 X32.493 Y107.164 E127.09217
G1 X32.096 Y107.332 E127.104
G1 X23.342 Y98.578 E127.44371
G1 X23.342 Y99.144 E127.45924
G1 X31.749 Y107.551 E127.78547
G1 X31.465 Y107.775 E127.7954
G1 X31.44 Y107.808 E127.79653
G1 X23.342 Y99.709 E128.1108
G1 X23.342 Y100.275 E128.12633
G1 X31.198 Y108.131 E128.43119
G1 X31.097 Y108.264 E128.43577
G1 X31.003 Y108.502 E128.44279
G1 X23.342 Y100.841 E128.74008
G1 X23.342 Y101.406 E128.75558
G1 X30.859 Y108.924 E129.0473
G1 X30.797 Y109.427 E129.06121
G1 X23.342 Y101.972 E129.35051
G1 X23.342 Y102.538 E129.36604
G1 X30.906 Y110.102 E129.65956
