;FLAVOR:Marlin
;TIME:2540
;Filament used:0.793528m
;Layer height: 0.1
;MINX:88.105
;MINY:88.351
;MINZ:0.24
;MAXX:131.898
;MAXY:131.647
;MAXZ:3.56
                            
;Creality Print GCode Generated by CXEngineDEV
;Generated Time:2022-06-30 15:03:09
;----------Machine Config--------------
;Machine Name:Creality Ender-3 S1 Pro
;Machine Height:270
;Machine Width:220
;Machine Depth:220
;Material name:Castable
;Number of Extruders:1
;ExtruderParams[0] Nozzle Diameter1000
;----------Profile Config---------------
;Layer Height:0.1
;Wall Thickness:0.8
;Top/Bottom Thickness:0.6
;Out Wall Line Width:0.4
;Inner Wall Line Width:0.4
;Inital Layer Height:100
;Wall Line Count:2
;Infill Line Distance:4
;Infill Pattern:grid
;Infill Sparse Density:20
;Infill Wipe Distance:0
;Print Temperature:250
;Bed Temperature:70
;Support Enable:false
;Support Density:30
;Support Angle:1.0472
;Adhesion Type:raft
;machine is belt:false
;machine belt offset:10
;machine belt offset Y:0
;Raft Base Line Spacing:1.6
;Wait Heatup Sync:true
;----------Shell Config----------------
;Outer Wall Wipe Distance:200
;Infill Before Walls:false
;Infill Overlap:0.16
;Fill Gaps Between Walls:everywhere
;Minimum Infill Area:1
;Top Surface Skin Layer:0
;Top Layers:6
;Z Seam Alignment:sharpest_corner
;Seam Corner Preference:z_seam_corner_inner
;Z Seam X:110
;Z Seam Y:110
;Horizontal Expansion:0
;Top/Bottom Pattern:zigzag
;Ironing Pattern:zigzag
;Vase Model:false
;----------Support Config----------------
;Support Type:everywhere
;Support Pattern:zigzag
;Support Infill Layer Thickness:0.1
;Minimum Support Area:5
;Enable Support Roof:false
;Support Roof Thickness:0.8
;Support Roof Pattern:lines
;Connect Support Lines:0
;Connect Support ZigZags:1
;Minimum Support X/Y Distance:0.2
;Support Line Distance:1.33
; ---------PrintSpeed & Travel----------
;Enable Print Cool:true
;Avoid Printed Parts Traveling:true
;Enable Retraction:true
;Retraction Distance:0.8
;Retraction Speed:80
;Retraction Prime Speed:80
;Maximum Retraction Count:100
;Minimum Extrusion Distance Window:1
;Z Hop When Retracted:false
;Z Hop Height:0.2
;Retract Before Outer Wall:true
;Print Speed:20
;Infill Speed:20

;Prime Tower Speed:20
;Travel Speed:120
;Initial Layer Speed:10
;Skirt/Brim Speed:10
;Combing Mode:infill
; --------SpecialModel&Mesh Fixes--------
;Union Overlapping Volum:true
;Remove All Holes:false
;Maximum Travel Resolution:0.8
;Maximum Deviation:0.05
;Maximum Model Angle:0.872665
;IS Mold Print:false
;Make Overhang Printable:false
;Enable Coasting:false
;Coasting Volumes:0.06
;Coasting Speed:0.9
;Raft AirGap:0.25
;Layer0 ZOverLap:0.13
;---------------------End of Head--------------------------
M140 S70
M105
M104 S250
M105
M109 S250
M105
M190 S70
M82 ;absolute extrusion mode
M220 S100 ;Reset Feedrate
M221 S100 ;Reset Flowrate

G28 ;Home

G92 E0 ;Reset Extruder
G1 Z2.0 F3000 ;Move Z Axis up
G1 X10.1 Y20 Z0.28 F5000.0 ;Move to start position
G1 X10.1 Y145.0 Z0.28 F1500.0 E15 ;Draw the first line
G1 X10.4 Y145.0 Z0.28 F5000.0 ;Move to side a little
G1 X10.4 Y20 Z0.28 F1500.0 E30 ;Draw the second line
G92 E0  ;Reset Extruder
G1 E-1.0000 F1800 ;Retract a bit
G1 Z2.0 F3000 ;Move Z Axis up
G1 E0.0000 F1800 

G92 E0
G92 E0
G1 F4800 E-0.8

;LAYER_COUNT:25

;LAYER:-6
M107
G0 F7200 X92.996 Y92.911 Z0.24
;TYPE:SUPPORT-INTERFACE
G1 F4800 E0
G1 F1200 X93.249 Y92.67 E0.02789
G1 X93.695 Y92.271 E0.07566
G1 X94.348 Y91.743 E0.14269
G1 X94.671 Y91.502 E0.17486
G1 X95.164 Y91.158 E0.22285
G1 X95.427 Y90.986 E0.24793
G1 X95.9 Y90.695 E0.29226
G1 X96.188 Y90.53 E0.31876
G1 X96.755 Y90.226 E0.37012
G1 X97.033 Y90.089 E0.39485
G1 X97.514 Y89.867 E0.43714
G1 X97.836 Y89.728 E0.46514
G1 X98.425 Y89.499 E0.51558
G1 X98.768 Y89.378 E0.54462
G1 X99.285 Y89.211 E0.58799
G1 X99.66 Y89.104 E0.61911
G1 X100.219 Y88.961 E0.66517
G1 X100.51 Y88.896 E0.68897
G1 X101.113 Y88.779 E0.73801
G1 X101.45 Y88.724 E0.76526
G1 X102.037 Y88.648 E0.81251
G1 X102.347 Y88.616 E0.83739
G1 X102.93 Y88.574 E0.88405
G1 X103.263 Y88.559 E0.91065
G1 X103.889 Y88.552 E0.96063
G1 X104.195 Y88.558 E0.98506
G1 X104.787 Y88.587 E1.03237
G1 X105.126 Y88.614 E1.05952
G1 X105.667 Y88.67 E1.10293
G1 X106.051 Y88.725 E1.1339
G1 X106.578 Y88.812 E1.17654
G1 X106.916 Y88.879 E1.20404
G1 X107.516 Y89.017 E1.25319
G1 X107.837 Y89.102 E1.27969
G1 X108.79 Y89.383 E1.359
G1 X108.796 Y89.366 E1.36044
G1 X109.012 Y89.421 E1.37823
G1 X109.69 Y89.504 E1.43276
G1 X110.373 Y89.5 E1.48728
G1 X111.049 Y89.41 E1.54172
G1 X111.731 Y89.228 E1.59806
G1 X112.16 Y89.104 E1.63371
G1 X112.719 Y88.961 E1.67977
G1 X113.01 Y88.896 E1.70357
G1 X113.613 Y88.779 E1.7526
G1 X113.95 Y88.724 E1.77986
G1 X114.537 Y88.648 E1.82711
G1 X114.847 Y88.616 E1.85198
G1 X115.43 Y88.574 E1.89864
G1 X115.763 Y88.559 E1.92525
G1 X116.389 Y88.552 E1.97522
G1 X116.695 Y88.558 E1.99965
G1 X117.287 Y88.587 E2.04697
G1 X117.626 Y88.614 E2.07411
G1 X118.167 Y88.67 E2.11753
G1 X118.551 Y88.725 E2.14849
G1 X119.078 Y88.812 E2.19113
G1 X119.416 Y88.879 E2.21864
G1 X120.016 Y89.017 E2.26778
G1 X120.337 Y89.102 E2.29429
G1 X120.966 Y89.289 E2.34667
G1 X121.738 Y89.559 E2.41195
G1 X122.084 Y89.696 E2.44166
G1 X122.643 Y89.936 E2.49022
G1 X122.942 Y90.076 E2.51657
G1 X123.735 Y90.486 E2.58784
G1 X124.449 Y90.907 E2.654
G1 X125.067 Y91.316 E2.71316
G1 X125.301 Y91.481 E2.73601
G1 X125.977 Y91.998 E2.80395
G1 X126.539 Y92.476 E2.86284
G1 X127.162 Y93.065 E2.93128
G1 X127.432 Y93.343 E2.96221
G1 X127.784 Y93.722 E3.0035
G1 X127.991 Y93.959 E3.02862
G1 X128.369 Y94.419 E3.07614
G1 X128.596 Y94.715 E3.10592
G1 X128.918 Y95.158 E3.14964
G1 X129.141 Y95.487 E3.18136
G1 X129.477 Y96.02 E3.23166
G1 X129.893 Y96.753 E3.29894
G1 X130.049 Y97.054 E3.326
G1 X130.318 Y97.617 E3.37581
G1 X130.45 Y97.916 E3.4019
G1 X130.663 Y98.44 E3.44705
G1 X130.773 Y98.733 E3.47203
G1 X130.962 Y99.285 E3.5186
G1 X131.062 Y99.608 E3.54559
G1 X131.233 Y100.236 E3.59755
G1 X131.306 Y100.539 E3.62243
G1 X131.47 Y101.356 E3.68895
G1 X131.579 Y102.083 E3.74763
G1 X131.618 Y102.423 E3.77494
G1 X131.66 Y102.905 E3.81357
G1 X131.68 Y103.243 E3.84059
G1 X131.698 Y103.897 E3.89282
G1 X131.696 Y104.227 E3.91916
G1 X131.678 Y104.801 E3.965
G1 X131.652 Y105.19 E3.99612
G1 X131.575 Y105.952 E4.05726
G1 X131.477 Y106.603 E4.10981
G1 X131.411 Y106.965 E4.13918
G1 X131.274 Y107.591 E4.19034
G1 X131.203 Y107.883 E4.21432
G1 X131.035 Y108.478 E4.26368
G1 X130.885 Y109.131 E4.31716
G1 X130.818 Y109.811 E4.3717
G1 X130.838 Y110.494 E4.42625
G1 X130.922 Y111.033 E4.46979
G1 X130.892 Y111.033 E4.47219
G1 X131.207 Y112.13 E4.56329
G1 X131.306 Y112.539 E4.59688
G1 X131.47 Y113.356 E4.6634
G1 X131.579 Y114.083 E4.72208
G1 X131.618 Y114.423 E4.7494
G1 X131.66 Y114.905 E4.78802
G1 X131.68 Y115.243 E4.81505
G1 X131.698 Y115.897 E4.86727
G1 X131.696 Y116.227 E4.89362
G1 X131.678 Y116.801 E4.93946
G1 X131.652 Y117.19 E4.97058
G1 X131.575 Y117.952 E5.03171
G1 X131.477 Y118.603 E5.08426
G1 X131.411 Y118.965 E5.11364
G1 X131.274 Y119.591 E5.16479
G1 X131.203 Y119.883 E5.18878
G1 X131.054 Y120.416 E5.23296
G1 X130.94 Y120.779 E5.26333
G1 X130.755 Y121.315 E5.30859
G1 X130.654 Y121.583 E5.33145
G1 X130.426 Y122.14 E5.37949
G1 X130.287 Y122.45 E5.40661
G1 X130.044 Y122.956 E5.45142
G1 X129.867 Y123.295 E5.48195
G1 X129.569 Y123.826 E5.53055
G1 X129.402 Y124.104 E5.55644
G1 X129.074 Y124.612 E5.60471
G1 X128.951 Y124.793 E5.62218
G1 X128.511 Y125.397 E5.68183
G1 X128.004 Y126.026 E5.74632
G1 X127.764 Y126.299 E5.77533
G1 X127.316 Y126.779 E5.82775
G1 X126.708 Y127.369 E5.89537
G1 X126.445 Y127.606 E5.92363
G1 X125.962 Y128.012 E5.974
G1 X125.287 Y128.529 E6.04187
G1 X124.953 Y128.762 E6.07438
G1 X124.483 Y129.072 E6.11932
G1 X124.224 Y129.231 E6.14358
G1 X123.697 Y129.535 E6.19215
G1 X123.374 Y129.706 E6.22132
G1 X122.819 Y129.981 E6.27076
G1 X122.511 Y130.121 E6.29777
G1 X121.759 Y130.433 E6.36276
G1 X121.104 Y130.665 E6.41823
G1 X120.792 Y130.764 E6.44435
G1 X120.238 Y130.924 E6.49038
G1 X119.912 Y131.007 E6.51724
G1 X119.104 Y131.183 E6.58325
G1 X118.185 Y131.328 E6.65751
G1 X117.522 Y131.396 E6.71072
G1 X117.168 Y131.42 E6.73904
G1 X116.324 Y131.448 E6.80645
G1 X115.669 Y131.436 E6.85874
G1 X115.165 Y131.407 E6.89904
G1 X114.517 Y131.35 E6.95096
G1 X113.781 Y131.249 E7.01027
G1 X113 Y131.103 E7.07369
G1 X112.612 Y131.013 E7.10548
G1 X112.013 Y130.855 E7.15493
G1 X111.668 Y130.752 E7.18367
G1 X111.139 Y130.56 E7.2286
G1 X111.139 Y130.614 E7.23291
G1 X111.02 Y130.583 E7.24272
G1 X110.342 Y130.498 E7.29727
G1 X109.659 Y130.498 E7.35179
G1 X108.98 Y130.585 E7.40643
G1 X108.778 Y130.638 E7.4231
G1 X108.771 Y130.617 E7.42487
G1 X107.738 Y130.924 E7.51089
G1 X107.412 Y131.007 E7.53774
G1 X106.604 Y131.183 E7.60375
G1 X105.685 Y131.328 E7.67802
G1 X105.022 Y131.396 E7.73122
G1 X104.668 Y131.42 E7.75954
G1 X103.824 Y131.448 E7.82695
G1 X103.169 Y131.436 E7.87925
G1 X102.665 Y131.407 E7.91954
G1 X102.017 Y131.35 E7.97147
G1 X101.281 Y131.249 E8.03077
G1 X100.5 Y131.103 E8.09419
G1 X100.112 Y131.013 E8.12599
G1 X99.513 Y130.855 E8.17544
G1 X99.211 Y130.766 E8.20057
G1 X98.426 Y130.501 E8.26671
G1 X97.806 Y130.257 E8.31989
G1 X97.481 Y130.117 E8.34814
G1 X96.93 Y129.86 E8.39667
G1 X96.628 Y129.707 E8.4237
G1 X95.912 Y129.311 E8.48901
G1 X95.322 Y128.944 E8.54447
G1 X95.055 Y128.767 E8.57005
G1 X94.572 Y128.426 E8.61724
G1 X93.932 Y127.924 E8.68217
G1 X93.585 Y127.631 E8.71842
G1 X93.197 Y127.28 E8.76019
G1 X92.914 Y127.007 E8.79158
G1 X92.5 Y126.586 E8.83871
G1 X92.283 Y126.35 E8.8643
G1 X91.869 Y125.872 E8.91478
G1 X91.663 Y125.619 E8.94082
G1 X91.335 Y125.191 E8.98386
G1 X91.142 Y124.926 E9.01003
G1 X90.679 Y124.234 E9.0765
G1 X90.288 Y123.577 E9.13753
G1 X89.905 Y122.852 E9.20298
G1 X89.743 Y122.513 E9.23297
G1 X89.489 Y121.936 E9.28329
G1 X89.353 Y121.598 E9.31237
G1 X89.096 Y120.887 E9.37272
G1 X88.902 Y120.263 E9.42489
G1 X88.803 Y119.9 E9.45492
G1 X88.666 Y119.333 E9.50148
G1 X88.593 Y118.98 E9.53026
G1 X88.492 Y118.414 E9.57615
G1 X88.439 Y118.046 E9.60583
G1 X88.372 Y117.475 E9.65172
G1 X88.318 Y116.686 E9.71485
G1 X88.305 Y116.246 E9.74999
G1 X88.306 Y115.651 E9.79749
G1 X88.318 Y115.313 E9.82448
G1 X88.351 Y114.769 E9.86799
G1 X88.39 Y114.363 E9.90054
G1 X88.459 Y113.81 E9.94503
G1 X88.5 Y113.536 E9.96715
G1 X88.609 Y112.935 E10.0159
G1 X88.677 Y112.617 E10.04186
G1 X88.812 Y112.062 E10.08745
G1 X88.946 Y111.593 E10.12639
G1 X89.104 Y110.942 E10.17986
G1 X89.18 Y110.264 E10.23432
G1 X89.171 Y109.581 E10.28885
G1 X89.075 Y108.908 E10.34311
G1 X88.949 Y108.417 E10.38358
G1 X88.803 Y107.9 E10.42646
G1 X88.666 Y107.333 E10.47302
G1 X88.593 Y106.98 E10.5018
G1 X88.492 Y106.414 E10.54769
G1 X88.439 Y106.046 E10.57737
G1 X88.372 Y105.475 E10.62326
G1 X88.318 Y104.686 E10.68639
G1 X88.305 Y104.246 E10.72153
G1 X88.306 Y103.651 E10.76903
G1 X88.318 Y103.313 E10.79602
G1 X88.351 Y102.769 E10.83953
G1 X88.39 Y102.363 E10.87209
G1 X88.459 Y101.81 E10.91657
G1 X88.5 Y101.536 E10.93869
G1 X88.609 Y100.935 E10.98744
G1 X88.677 Y100.617 E11.0134
G1 X88.812 Y100.062 E11.059
G1 X88.915 Y99.691 E11.08973
G1 X89.084 Y99.145 E11.13535
G1 X89.22 Y98.756 E11.16825
G1 X89.411 Y98.254 E11.21112
G1 X89.559 Y97.898 E11.2419
G1 X89.762 Y97.444 E11.2816
G1 X90.126 Y96.718 E11.34643
G1 X90.348 Y96.318 E11.38294
G1 X90.685 Y95.757 E11.43518
G1 X90.875 Y95.464 E11.46306
G1 X91.206 Y94.985 E11.50954
G1 X91.697 Y94.339 E11.57431
G1 X91.96 Y94.02 E11.60731
G1 X92.338 Y93.589 E11.65307
G1 X92.534 Y93.377 E11.67612
G1 X92.996 Y92.911 E11.7285
G0 F7200 X92.8 Y93.108
G1 F1200 X92.8 Y126.891 E14.4252
G0 F7200 X94.4 Y128.291
G1 F1200 X94.4 Y91.704 E17.34574
G0 F7200 X96 Y90.637
G1 F1200 X96 Y129.359 E20.43669
G0 F7200 X97.6 Y130.168
G1 F1200 X97.6 Y89.829 E23.65673
G0 F7200 X99.2 Y89.238
G1 F1200 X99.2 Y130.762 E26.97135
G0 F7200 X100.8 Y131.159
G1 F1200 X100.8 Y88.839 E30.34952
G0 F7200 X102.4 Y88.612
G1 F1200 X102.4 Y131.383 E33.76368
G0 F7200 X104 Y131.443
G1 F1200 X104 Y88.555 E37.18719
G0 F7200 X105.6 Y88.664
G1 F1200 X105.6 Y131.337 E40.59353
G0 F7200 X107.2 Y131.054
G1 F1200 X107.2 Y88.945 E43.95486
G0 F7200 X108.8 Y89.368
G1 F1200 X108.8 Y130.633 E47.24881
G0 F7200 X110.4 Y130.505
G1 F1200 X110.4 Y89.496 E50.52232
G0 F7200 X112 Y89.15
G1 F1200 X112 Y130.851 E53.85108
G0 F7200 X113.6 Y131.215
G1 F1200 X113.6 Y88.781 E57.23834
G0 F7200 X115.2 Y88.59
G1 F1200 X115.2 Y131.409 E60.65634
G0 F7200 X116.8 Y131.433
G1 F1200 X116.8 Y88.564 E64.07833
G0 F7200 X118.4 Y88.704
G1 F1200 X118.4 Y131.295 E67.47813
G0 F7200 X120 Y130.985
G1 F1200 X120 Y89.014 E70.82843
G0 F7200 X121.6 Y89.511
G1 F1200 X121.6 Y130.49 E74.09955
G0 F7200 X123.2 Y129.793
G1 F1200 X123.2 Y90.21 E77.25924
G0 F7200 X124.8 Y91.14
G1 F1200 X124.8 Y128.863 E80.27045
G0 F7200 X126.4 Y127.644
G1 F1200 X126.4 Y92.358 E83.08713
G0 F7200 X128 Y93.97
G1 F1200 X128 Y126.031 E85.64638
G0 F7200 X129.6 Y123.771
G1 F1200 X129.6 Y96.237 E87.84426
G0 F7200 X131.2 Y100.115
G1 F1200 X131.2 Y107.894 E88.46522
G0 F7200 X131.2 Y112.106
G1 F1200 X131.2 Y119.894 E89.08689
;;retract;;
G1 F4800 E88.28689
G0 F7200 X91.2 Y125.005
G1 F4800 E89.08689
G1 F1200 X91.2 Y94.993 E91.48258
G0 F7200 X89.6 Y97.806
G1 F1200 X89.6 Y122.188 E93.42885
G0 F600 X89.6 Y122.188 Z0.54
G0 F7200 X91.662 Y125.618
;TIME_ELAPSED:67.222142

;LAYER:-5
M140 S70
;TYPE:SUPPORT
G1 F1800 X91.869 Y125.871 E93.46147
G1 X92.282 Y126.349 E93.5245
G1 X92.5 Y126.585 E93.55656
G1 X92.913 Y127.006 E93.61541
G1 X93.196 Y127.279 E93.65464
G1 X93.584 Y127.63 E93.70685
G1 X93.932 Y127.922 E93.75217
G1 X94.162 Y128.103 E93.78138
G1 X91.616 Y125.557 E94.14065
G1 X91.335 Y125.19 E94.18677
G1 X91.142 Y124.925 E94.21948
G1 X90.679 Y124.233 E94.30256
G1 X90.288 Y123.576 E94.37884
G1 X89.904 Y122.851 E94.4607
G1 X89.743 Y122.511 E94.49824
G1 X89.552 Y122.079 E94.54537
G1 X97.671 Y130.198 E95.69105
G1 X97.805 Y130.256 E95.70562
G1 X98.425 Y130.5 E95.7721
G1 X99.211 Y130.765 E95.85487
G1 X99.512 Y130.854 E95.88619
G1 X99.823 Y130.936 E95.91828
G1 X88.809 Y119.921 E97.47254
G1 X88.803 Y119.899 E97.47482
G1 X88.666 Y119.332 E97.53302
G1 X88.593 Y118.979 E97.56899
G1 X88.491 Y118.413 E97.62638
G1 X88.453 Y118.151 E97.65279
G1 X101.592 Y131.29 E99.50685
G1 X102.017 Y131.349 E99.54966
G1 X102.664 Y131.405 E99.61446
G1 X103.149 Y131.433 E99.66293
G1 X88.314 Y116.599 E101.75624
G1 X88.304 Y116.245 E101.79158
G1 X88.306 Y115.65 E101.85095
G1 X88.317 Y115.312 E101.88469
G1 X88.324 Y115.194 E101.89649
G1 X104.552 Y131.422 E104.18643
G1 X104.668 Y131.419 E104.19801
G1 X105.021 Y131.395 E104.23331
G1 X105.684 Y131.327 E104.29981
G1 X105.845 Y131.301 E104.31609
G1 X88.447 Y113.902 E106.7712
G1 X88.459 Y113.808 E106.78066
G1 X88.5 Y113.535 E106.80821
G1 X88.608 Y112.934 E106.86913
G1 X88.658 Y112.7 E106.89301
G1 X107.043 Y131.085 E109.48733
G1 X107.411 Y131.006 E109.52489
G1 X107.738 Y130.922 E109.55857
G1 X108.167 Y130.794 E109.60325
G1 X88.949 Y111.577 E112.31504
G1 X89.103 Y110.94 E112.38043
G1 X89.166 Y110.38 E112.43666
G1 X109.326 Y130.539 E115.28139
G1 X109.658 Y130.497 E115.31478
G1 X110.341 Y130.497 E115.38293
G1 X110.749 Y130.548 E115.42395
G1 X89.062 Y108.861 E118.48422
G1 X88.949 Y108.415 E118.53013
G1 X88.803 Y107.899 E118.58364
G1 X88.666 Y107.332 E118.64184
G1 X88.592 Y106.978 E118.67793
G0 F7200 X88.591 Y106.976
G1 F1800 X112.631 Y131.016 E122.07023
G1 X112.999 Y131.101 E122.10792
G1 X113.781 Y131.248 E122.18731
G1 X114.356 Y131.326 E122.24521
G1 X88.362 Y105.332 E125.91325
G1 X88.318 Y104.685 E125.97795
G1 X88.305 Y104.245 E126.02188
G1 X88.305 Y103.861 E126.06019
G1 X115.882 Y131.438 E129.95161
G1 X116.324 Y131.447 E129.99572
G1 X117.168 Y131.419 E130.07998
G1 X117.27 Y131.412 E130.09018
G1 X88.374 Y102.517 E134.16765
G1 X88.389 Y102.362 E134.18319
G1 X88.459 Y101.809 E134.2388
G1 X88.5 Y101.534 E134.26655
G1 X88.546 Y101.274 E134.29289
G1 X118.542 Y131.27 E138.52565
G1 X119.103 Y131.182 E138.58231
G1 X119.731 Y131.045 E138.64645
G1 X88.799 Y100.112 E143.01136
G1 X88.812 Y100.061 E143.01661
G1 X88.915 Y99.69 E143.05503
G1 X89.084 Y99.144 E143.11206
G1 X89.125 Y99.025 E143.12462
G1 X120.845 Y130.745 E147.60065
G1 X121.104 Y130.664 E147.62773
G1 X121.758 Y130.432 E147.69697
