;FLAVOR:Marlin
;TIME:3610
;Filament used:2.21485m
;Layer height: 0.15
;MINX:30.2
;MINY:82.7
;MINZ:0.15
;MAXX:189.8
;MAXY:137.3
;MAXZ:1.95
                                     
;Creality Print GCode Generated by CXEngineDEV
;Generated Time:2022-06-30 15:03:09
;----------Machine Config--------------
;Machine Name:Creality Ender-3 S1 Pro
;Machine Height:270
;Machine Width:220
;Machine Depth:220
;Material name:Castable
;Number of Extruders:1
;ExtruderParams[0] Nozzle Diameter1000
;----------Profile Config---------------
;Layer Height:0.15
;Wall Thickness:0.8
;Top/Bottom Thickness:1
;Out Wall Line Width:0.4
;Inner Wall Line Width:0.4
;Inital Layer Height:150
;Wall Line Count:2
;Infill Line Distance:4
;Infill Pattern:grid
;Infill Sparse Density:20
;Infill Wipe Distance:0
;Print Temperature:260
;Bed Temperature:90
;Support Enable:false
;Support Density:15
;Support Angle:1.0472
;Adhesion Type:none
;machine is belt:false
;machine belt offset:10
;machine belt offset Y:0
;Raft Base Line Spacing:1.6
;Wait Heatup Sync:true
;----------Shell Config----------------
;Outer Wall Wipe Distance:200
;Infill Before Walls:false
;Infill Overlap:0.16
;Fill Gaps Between Walls:everywhere
;Minimum Infill Area:1
;Top Surface Skin Layer:0
;Top Layers:4
;Z Seam Alignment:sharpest_corner
;Seam Corner Preference:z_seam_corner_inner
;Z Seam X:110
;Z Seam Y:110
;Horizontal Expansion:0
;Top/Bottom Pattern:zigzag
;Ironing Pattern:zigzag
;Vase Model:false
;----------Support Config----------------
;Support Type:everywhere
;Support Pattern:zigzag
;Support Infill Layer Thickness:0.15
;Minimum Support Area:5
;Enable Support Roof:false
;Support Roof Thickness:0.8
;Support Roof Pattern:lines
;Connect Support Lines:0
;Connect Support ZigZags:1
;Minimum Support X/Y Distance:0.2
;Support Line Distance:2.67
; ---------PrintSpeed & Travel----------
;Enable Print Cool:true
;Avoid Printed Parts Traveling:true
;Enable Retraction:true
;Retraction Distance:0.8
;Retraction Speed:80
;Retraction Prime Speed:80
;Maximum Retraction Count:100
;Minimum Extrusion Distance Window:1
;Z Hop When Retracted:false
;Z Hop Height:0.2
;Retract Before Outer Wall:true
;Print Speed:50
;Infill Speed:50

;Prime Tower Speed:50
;Travel Speed:120
;Initial Layer Speed:25
;Skirt/Brim Speed:25
;Combing Mode:off
; --------SpecialModel&Mesh Fixes--------
;Union Overlapping Volum:true
;Remove All Holes:false
;Maximum Travel Resolution:0.6
;Maximum Deviation:0.05
;Maximum Model Angle:0.872665
;IS Mold Print:false
;Make Overhang Printable:false
;Enable Coasting:false
;Coasting Volumes:0.06
;Coasting Speed:0.9
;Raft AirGap:0.25
;Layer0 ZOverLap:0.13
;---------------------End of Head--------------------------
M140 S90
M105
M104 S260
M105
M109 S260
M105
M190 S90
M82 ;absolute extrusion mode
M220 S100 ;Reset Feedrate
M221 S100 ;Reset Flowrate

G28 ;Home

G92 E0 ;Reset Extruder
G1 Z2.0 F3000 ;Move Z Axis up
G1 X10.1 Y20 Z0.28 F5000.0 ;Move to start position
G1 X10.1 Y145.0 Z0.28 F1500.0 E15 ;Draw the first line
G1 X10.4 Y145.0 Z0.28 F5000.0 ;Move to side a little
G1 X10.4 Y20 Z0.28 F1500.0 E30 ;Draw the second line
G92 E0  ;Reset Extruder
G1 E-1.0000 F1800 ;Retract a bit
G1 Z2.0 F3000 ;Move Z Axis up
G1 E0.0000 F1800 

G92 E0
G92 E0
G1 F4800 E-0.8

;LAYER_COUNT:13

;LAYER:0
M107
;MESH:
G0 F3600 X181.1 Y91.4 Z0.15
;TYPE:WALL-INNER
G1 F4800 E0
G1 F1500 X38.9 Y91.4 E3.90191
G1 X38.9 Y128.6 E4.92267
G1 X181.1 Y128.6 E8.82458
G1 X181.1 Y91.4 E9.84533
G0 F3600 X180.7 Y91.8
;TYPE:WALL-OUTER
G1 F1500 X39.3 Y91.8 E13.72529
G1 X39.3 Y128.2 E14.7241
G1 X180.7 Y128.2 E18.60406
G1 X180.7 Y91.8 E19.60286
G0 F3600 X180.5 Y91.8
G0 X180.5 Y91.36
;;retract;;
G1 F4800 E18.80286
G0 F3600 X185.008 Y83.104
;TYPE:WALL-INNER
G1 F4800 E19.60286
G1 F1500 X185.858 Y83.187 E19.62629
G1 X186.682 Y83.437 E19.64992
G1 X187.441 Y83.843 E19.67354
G1 X188.11 Y84.39 E19.69725
G1 X188.657 Y85.059 E19.72096
G1 X189.063 Y85.818 E19.74458
G1 X189.313 Y86.642 E19.76821
G1 X189.4 Y87.529 E19.79267
G1 X189.396 Y132.508 E21.02687
G1 X189.313 Y133.358 E21.05031
G1 X189.063 Y134.182 E21.07394
G1 X188.657 Y134.941 E21.09756
G1 X188.11 Y135.61 E21.12127
G1 X187.441 Y136.157 E21.14498
G1 X186.682 Y136.563 E21.1686
G1 X185.858 Y136.813 E21.19223
G1 X184.971 Y136.9 E21.21668
G1 X40.626 Y136.9 E25.17745
G1 X34.992 Y136.896 E25.33205
G1 X34.142 Y136.813 E25.35548
G1 X33.318 Y136.563 E25.37911
G1 X32.559 Y136.157 E25.40273
G1 X31.89 Y135.61 E25.42644
G1 X31.343 Y134.941 E25.45015
G1 X30.937 Y134.182 E25.47377
G1 X30.687 Y133.358 E25.4974
G1 X30.6 Y132.471 E25.52186
G1 X30.604 Y87.492 E26.75606
G1 X30.687 Y86.642 E26.7795
G1 X30.937 Y85.818 E26.80313
G1 X31.343 Y85.059 E26.82674
G1 X31.89 Y84.39 E26.85046
G1 X32.559 Y83.843 E26.87417
G1 X33.318 Y83.437 E26.89779
G1 X34.142 Y83.187 E26.92142
G1 X35.029 Y83.1 E26.94587
G1 X179.374 Y83.1 E30.90664
G1 X185.008 Y83.104 E31.06124
G0 F3600 X185.027 Y82.704
;TYPE:WALL-OUTER
G1 F1500 X185.938 Y82.793 E31.08635
G1 X186.837 Y83.066 E31.11213
G1 X187.663 Y83.508 E31.13784
G1 X188.394 Y84.106 E31.16376
G1 X188.992 Y84.837 E31.18967
G1 X189.434 Y85.663 E31.21538
G1 X189.707 Y86.562 E31.24116
G1 X189.8 Y87.51 E31.26729
G1 X189.796 Y132.527 E32.50254
G1 X189.707 Y133.438 E32.52766
G1 X189.434 Y134.337 E32.55344
G1 X188.992 Y135.163 E32.57915
G1 X188.394 Y135.894 E32.60506
G1 X187.663 Y136.492 E32.63098
G1 X186.837 Y136.934 E32.65668
G1 X185.938 Y137.207 E32.68246
G1 X184.99 Y137.3 E32.7086
G1 X40.626 Y137.3 E36.66989
G1 X34.973 Y137.296 E36.82501
G1 X34.062 Y137.207 E36.85013
G1 X33.163 Y136.934 E36.87591
G1 X32.337 Y136.492 E36.90161
G1 X31.606 Y135.894 E36.92753
G1 X31.008 Y135.163 E36.95344
G1 X30.566 Y134.337 E36.97915
G1 X30.293 Y133.438 E37.00493
G1 X30.2 Y132.49 E37.03107
G1 X30.204 Y87.473 E38.26632
G1 X30.293 Y86.562 E38.29143
G1 X30.566 Y85.663 E38.31721
G1 X31.008 Y84.837 E38.34292
G1 X31.606 Y84.106 E38.36883
G1 X32.337 Y83.508 E38.39475
G1 X33.163 Y83.066 E38.42045
G1 X34.062 Y82.793 E38.44624
G1 X35.01 Y82.7 E38.47237
G1 X179.374 Y82.7 E42.43367
G1 X185.027 Y82.704 E42.58878
G0 F3600 X185.226 Y82.723
G0 X185.183 Y83.161
;;retract;;
G1 F4800 E41.78878
G0 F3600 X188.458 Y85.196
;TYPE:SKIN
G1 F4800 E42.58878
G1 F1500 X187.939 Y84.56 E42.61131
G1 X187.302 Y84.041 E42.63385
G1 X186.642 Y83.687 E42.6544
G1 X188.812 Y85.857 E42.73861
G1 X188.839 Y85.909 E42.74022
G1 X189.075 Y86.683 E42.76242
G0 F3600 X189.076 Y86.687
G1 F1500 X185.813 Y83.424 E42.88904
G1 X185.186 Y83.362 E42.90633
G1 X189.136 Y87.313 E43.05963
G1 X189.158 Y87.539 E43.06586
G1 X189.158 Y87.901 E43.0758
G1 X184.601 Y83.343 E43.25265
G1 X184.035 Y83.343 E43.26818
G1 X189.158 Y88.466 E43.46698
G1 X189.158 Y89.032 E43.48252
G1 X183.469 Y83.343 E43.70328
G1 X182.903 Y83.342 E43.71881
G1 X189.158 Y89.598 E43.96156
G1 X189.158 Y90.163 E43.97706
G1 X182.337 Y83.342 E44.24175
G1 X181.77 Y83.341 E44.25731
G1 X189.158 Y90.729 E44.54401
G1 X189.158 Y91.295 E44.55954
G1 X181.204 Y83.341 E44.8682
G1 X180.638 Y83.341 E44.88373
G1 X189.158 Y91.86 E45.21433
G1 X189.158 Y92.426 E45.22986
G1 X180.072 Y83.34 E45.58245
G1 X179.506 Y83.34 E45.59798
G1 X189.158 Y92.992 E45.97253
G1 X189.158 Y93.558 E45.98806
G1 X178.94 Y83.339 E46.38459
G1 X178.374 Y83.339 E46.40012
G1 X189.158 Y94.123 E46.8186
G1 X189.158 Y94.689 E46.83413
G1 X177.809 Y83.339 E47.27456
G1 X177.243 Y83.339 E47.29009
G1 X189.158 Y95.255 E47.75247
G1 X189.158 Y95.82 E47.76798
G1 X176.677 Y83.339 E48.25231
G1 X176.112 Y83.339 E48.26781
G1 X189.158 Y96.386 E48.77409
G1 X189.158 Y96.951 E48.78959
G1 X175.546 Y83.339 E49.31781
G1 X174.98 Y83.339 E49.33334
G1 X189.158 Y97.517 E49.88353
G1 X189.158 Y98.082 E49.89903
G1 X174.414 Y83.339 E50.47116
G1 X173.849 Y83.339 E50.48666
G1 X189.158 Y98.648 E51.08073
G1 X189.158 Y99.214 E51.09626
G1 X181.338 Y91.394 E51.39972
G1 X181.338 Y91.96 E51.41525
G1 X189.158 Y99.779 E51.71869
G1 X189.158 Y100.345 E51.73422
G1 X181.338 Y92.526 E52.03766
G1 X181.338 Y93.092 E52.05319
G1 X189.158 Y100.911 E52.35663
G1 X189.158 Y101.476 E52.37214
G1 X181.338 Y93.657 E52.67558
G1 X181.338 Y94.223 E52.69111
G1 X189.158 Y102.042 E52.99455
G1 X189.158 Y102.608 E53.01008
G1 X181.338 Y94.789 E53.31352
G1 X181.338 Y95.354 E53.32902
G1 X189.158 Y103.173 E53.63246
G1 X189.158 Y103.739 E53.64799
G1 X181.338 Y95.92 E53.95143
G1 X181.338 Y96.486 E53.96696
G1 X189.158 Y104.305 E54.2704
G1 X189.158 Y104.871 E54.28593
G1 X181.338 Y97.051 E54.58939
G1 X181.338 Y97.617 E54.60492
G1 X189.158 Y105.436 E54.90836
G1 X189.157 Y106.001 E54.92386
G1 X181.338 Y98.183 E55.22726
G1 X181.338 Y98.748 E55.24277
G1 X189.157 Y106.567 E55.54619
G1 X189.157 Y107.133 E55.56172
G1 X181.338 Y99.314 E55.86514
G1 X181.338 Y99.88 E55.88067
G1 X189.157 Y107.698 E56.18407
G1 X189.157 Y108.264 E56.1996
G1 X181.338 Y100.445 E56.50302
G1 X181.338 Y101.011 E56.51855
G1 X189.157 Y108.83 E56.82197
G1 X189.157 Y109.395 E56.83747
G1 X181.338 Y101.577 E57.14087
G1 X181.338 Y102.142 E57.15638
G1 X189.157 Y109.961 E57.4598
G1 X189.157 Y110.527 E57.47533
G1 X181.338 Y102.708 E57.77875
G1 X181.338 Y103.274 E57.79428
G1 X189.157 Y111.092 E58.09768
G1 X189.157 Y111.658 E58.11321
G1 X181.338 Y103.84 E58.41661
G1 X181.338 Y104.405 E58.43212
G1 X189.157 Y112.224 E58.73554
G1 X189.157 Y112.789 E58.75104
G1 X181.338 Y104.971 E59.05444
G1 X181.338 Y105.537 E59.06997
G1 X189.157 Y113.355 E59.37337
G1 X189.157 Y113.921 E59.3889
G1 X181.338 Y106.102 E59.69232
G1 X181.338 Y106.668 E59.70785
G1 X189.157 Y114.486 E60.01125
G1 X189.156 Y115.051 E60.02676
G1 X181.338 Y107.234 E60.33012
G1 X181.338 Y107.799 E60.34562
G1 X189.156 Y115.617 E60.649
G1 X189.156 Y116.183 E60.66453
G1 X181.338 Y108.365 E60.96791
G1 X181.338 Y108.931 E60.98345
G1 X189.156 Y116.748 E61.28681
G1 X189.156 Y117.314 E61.30234
G1 X181.338 Y109.496 E61.60572
G1 X181.338 Y110.062 E61.62125
G1 X189.156 Y117.88 E61.92463
G1 X189.156 Y118.446 E61.94016
G1 X181.338 Y110.628 E62.24354
G1 X181.338 Y111.193 E62.25905
G1 X189.156 Y119.011 E62.56243
G1 X189.156 Y119.577 E62.57796
G1 X181.338 Y111.759 E62.88134
G1 X181.338 Y112.325 E62.89687
G1 X189.156 Y120.143 E63.20025
G1 X189.156 Y120.708 E63.21575
G1 X181.338 Y112.891 E63.51912
G1 X181.338 Y113.456 E63.53462
G1 X189.156 Y121.274 E63.838
G1 X189.156 Y121.84 E63.85353
G1 X181.338 Y114.022 E64.15691
G1 X181.338 Y114.588 E64.17244
G1 X189.156 Y122.405 E64.47581
G1 X189.156 Y122.971 E64.49134
G1 X181.338 Y115.153 E64.79472
G1 X181.338 Y115.719 E64.81025
G1 X189.156 Y123.536 E65.11361
G1 X189.156 Y124.102 E65.12914
G1 X181.338 Y116.285 E65.4325
G1 X181.338 Y116.85 E65.44801
G1 X189.156 Y124.667 E65.75137
G1 X189.156 Y125.233 E65.7669
G1 X181.338 Y117.416 E66.07026
G1 X181.338 Y117.982 E66.08579
G1 X189.156 Y125.799 E66.38915
G1 X189.156 Y126.364 E66.40466
G1 X181.338 Y118.547 E66.70802
G1 X181.338 Y119.113 E66.72355
G1 X189.156 Y126.93 E67.02691
G1 X189.156 Y127.496 E67.04244
G1 X181.338 Y119.679 E67.3458
G1 X181.338 Y120.244 E67.36131
G1 X189.156 Y128.061 E67.66467
G1 X189.156 Y128.627 E67.6802
G1 X181.338 Y120.81 E67.98356
G1 X181.338 Y121.376 E67.99909
G1 X189.156 Y129.193 E68.30245
G1 X189.156 Y129.759 E68.31798
G1 X181.338 Y121.941 E68.62137
G1 X181.338 Y122.507 E68.6369
G1 X189.156 Y130.324 E68.94026
G1 X189.156 Y130.89 E68.95579
G1 X181.338 Y123.073 E69.25915
G1 X181.338 Y123.639 E69.27468
G1 X189.156 Y131.456 E69.57804
G1 X189.156 Y132.021 E69.59355
G1 X181.338 Y124.204 E69.89691
G1 X181.338 Y124.77 E69.91244
G1 X189.147 Y132.578 E70.21545
G1 X189.097 Y133.094 E70.22968
G1 X181.338 Y125.336 E70.53075
G1 X181.338 Y125.901 E70.54625
G1 X189 Y133.563 E70.84358
G1 X188.868 Y133.997 E70.85603
G1 X181.338 Y126.467 E71.14823
G1 X181.338 Y127.033 E71.16376
G1 X188.685 Y134.379 E71.44885
G1 X188.488 Y134.748 E71.46033
G1 X181.338 Y127.598 E71.73779
G1 X181.338 Y128.164 E71.75332
G1 X188.243 Y135.068 E72.02125
G1 X187.989 Y135.38 E72.03229
G1 X181.338 Y128.73 E72.29036
G1 X181.339 Y128.839 E72.29335
G1 X180.882 Y128.839 E72.30589
G1 X187.688 Y135.645 E72.57
G1 X187.376 Y135.898 E72.58103
G1 X180.317 Y128.839 E72.85495
G1 X179.751 Y128.839 E72.87049
G1 X187.021 Y136.109 E73.1526
G1 X186.652 Y136.306 E73.16408
G1 X179.185 Y128.839 E73.45384
G1 X178.62 Y128.839 E73.46934
G1 X186.23 Y136.449 E73.76465
G1 X185.814 Y136.575 E73.77658
G1 X185.792 Y136.577 E73.77719
G1 X178.054 Y128.839 E74.07746
G1 X177.488 Y128.839 E74.09299
G1 X185.276 Y136.627 E74.39521
G1 X184.956 Y136.659 E74.40403
G1 X184.742 Y136.659 E74.40991
G1 X176.923 Y128.839 E74.71335
G1 X176.357 Y128.839 E74.72888
G1 X184.177 Y136.659 E75.03234
G1 X183.611 Y136.659 E75.04787
G1 X175.791 Y128.839 E75.35133
G1 X175.226 Y128.839 E75.36683
G1 X183.045 Y136.659 E75.67027
G1 X182.48 Y136.659 E75.68577
G1 X174.66 Y128.839 E75.98923
G1 X174.094 Y128.839 E76.00476
G1 X181.914 Y136.659 E76.30822
G1 X181.348 Y136.659 E76.32375
G1 X173.528 Y128.839 E76.62721
G1 X172.963 Y128.839 E76.64271
G1 X180.783 Y136.659 E76.94617
G1 X180.217 Y136.659 E76.9617
G1 X172.397 Y128.839 E77.26516
G1 X171.831 Y128.839 E77.28069
G1 X179.651 Y136.659 E77.58415
G1 X179.086 Y136.659 E77.59965
G1 X171.266 Y128.839 E77.90311
G1 X170.7 Y128.839 E77.91864
G1 X178.52 Y136.659 E78.2221
G1 X177.954 Y136.659 E78.23763
G1 X170.134 Y128.839 E78.54109
G1 X169.569 Y128.839 E78.5566
G1 X177.389 Y136.659 E78.86005
G1 X176.823 Y136.659 E78.87559
G1 X169.003 Y128.839 E79.17904
G1 X168.437 Y128.839 E79.19457
G1 X176.257 Y136.659 E79.49803
G1 X175.691 Y136.659 E79.51356
G1 X167.872 Y128.839 E79.817
G1 X167.306 Y128.839 E79.83253
G1 X175.126 Y136.659 E80.13599
G1 X174.56 Y136.659 E80.15152
G1 X166.74 Y128.839 E80.45498
G1 X166.175 Y128.839 E80.47049
G1 X173.994 Y136.659 E80.77393
G1 X173.429 Y136.659 E80.78943
G1 X165.609 Y128.839 E81.09289
G1 X165.043 Y128.839 E81.10842
G1 X172.863 Y136.659 E81.41188
G1 X172.297 Y136.659 E81.42741
G1 X164.477 Y128.839 E81.73087
G1 X163.912 Y128.839 E81.74637
G1 X171.732 Y136.659 E82.04983
G1 X171.166 Y136.659 E82.06536
G1 X163.346 Y128.839 E82.36882
G1 X162.78 Y128.839 E82.38435
G1 X170.6 Y136.659 E82.68781
G1 X170.035 Y136.659 E82.70331
G1 X162.215 Y128.839 E83.00677
G1 X161.649 Y128.839 E83.0223
G1 X169.469 Y136.659 E83.32576
G1 X168.903 Y136.659 E83.34129
G1 X161.083 Y128.839 E83.64475
G1 X160.518 Y128.839 E83.66025
G1 X168.338 Y136.659 E83.96371
G1 X167.772 Y136.659 E83.97924
G1 X159.952 Y128.839 E84.2827
G1 X159.386 Y128.839 E84.29823
G1 X167.206 Y136.659 E84.60169
G1 X166.641 Y136.659 E84.61719
G1 X158.821 Y128.839 E84.92065
G1 X158.255 Y128.839 E84.93618
G1 X166.075 Y136.659 E85.23964
G1 X165.509 Y136.659 E85.25517
G1 X157.689 Y128.839 E85.55863
G1 X157.124 Y128.839 E85.57414
G1 X164.943 Y136.659 E85.87758
G1 X164.378 Y136.659 E85.89308
G1 X156.558 Y128.839 E86.19654
G1 X155.992 Y128.839 E86.21207
G1 X163.812 Y136.659 E86.51553
G1 X163.246 Y136.659 E86.53106
G1 X155.427 Y128.839 E86.8345
G1 X154.861 Y128.839 E86.85003
G1 X162.681 Y136.659 E87.15349
G1 X162.115 Y136.659 E87.16902
G1 X154.295 Y128.839 E87.47248
G1 X153.729 Y128.839 E87.48801
G1 X161.549 Y136.659 E87.79147
G1 X160.984 Y136.659 E87.80697
G1 X153.164 Y128.839 E88.11043
G1 X152.598 Y128.839 E88.12596
G1 X160.418 Y136.659 E88.42942
G1 X159.852 Y136.659 E88.44495
G1 X152.032 Y128.839 E88.74841
G1 X151.467 Y128.839 E88.76391
G1 X159.287 Y136.659 E89.06737
G1 X158.721 Y136.659 E89.0829
G1 X150.901 Y128.839 E89.38636
G1 X150.335 Y128.839 E89.40189
G1 X158.155 Y136.659 E89.70535
G1 X157.59 Y136.659 E89.72085
G1 X149.77 Y128.839 E90.02431
G1 X149.204 Y128.839 E90.03984
G1 X157.024 Y136.659 E90.3433
G1 X156.458 Y136.659 E90.35883
G1 X148.638 Y128.839 E90.66229
G1 X148.073 Y128.839 E90.67779
G1 X155.893 Y136.659 E90.98125
G1 X155.327 Y136.659 E90.99678
G1 X147.507 Y128.839 E91.30024
G1 X146.941 Y128.839 E91.31577
G1 X154.761 Y136.659 E91.61923
G1 X154.195 Y136.659 E91.63476
G1 X146.376 Y128.839 E91.9382
G1 X145.81 Y128.839 E91.95373
G1 X153.63 Y136.659 E92.25719
G1 X153.064 Y136.659 E92.27272
G1 X145.244 Y128.839 E92.57618
G1 X144.678 Y128.839 E92.59171
G1 X152.498 Y136.659 E92.89517
G1 X151.933 Y136.659 E92.91067
G1 X144.113 Y128.839 E93.21413
G1 X143.547 Y128.839 E93.22966
G1 X151.367 Y136.659 E93.53312
