;FLAVOR:Marlin
;TIME:6606
;Filament used:4.03224m
;Layer height: 0.15
;MINX:82.699
;MINY:82.699
;MINZ:0.18
;MAXX:137.3
;MAXY:137.3
;MAXZ:40.72
                                
;Creality Print GCode Generated by CXEngineDEV
;Generated Time:2022-06-30 15:03:09
;----------Machine Config--------------
;Machine Name:Creality Ender-3 S1 Pro
;Machine Height:270
;Machine Width:220
;Machine Depth:220
;Material name:Castable
;Number of Extruders:1
;ExtruderParams[0] Nozzle Diameter1000
;----------Profile Config---------------
;Layer Height:0.15
;Wall Thickness:0.8
;Top/Bottom Thickness:1
;Out Wall Line Width:0.4
;Inner Wall Line Width:0.4
;Inital Layer Height:150
;Wall Line Count:2
;Infill Line Distance:4
;Infill Pattern:grid
;Infill Sparse Density:20
;Infill Wipe Distance:0
;Print Temperature:260
;Bed Temperature:70
;Support Enable:false
;Support Density:15
;Support Angle:1.0472
;Adhesion Type:raft
;machine is belt:false
;machine belt offset:10
;machine belt offset Y:0
;Raft Base Line Spacing:1.6
;Wait Heatup Sync:true
;----------Shell Config----------------
;Outer Wall Wipe Distance:200
;Infill Before Walls:false
;Infill Overlap:0.16
;Fill Gaps Between Walls:everywhere
;Minimum Infill Area:1
;Top Surface Skin Layer:0
;Top Layers:4
;Z Seam Alignment:sharpest_corner
;Seam Corner Preference:z_seam_corner_inner
;Z Seam X:110
;Z Seam Y:110
;Horizontal Expansion:0
;Top/Bottom Pattern:zigzag
;Ironing Pattern:zigzag
;Vase Model:false
;----------Support Config----------------
;Support Type:everywhere
;Support Pattern:zigzag
;Support Infill Layer Thickness:0.15
;Minimum Support Area:5
;Enable Support Roof:false
;Support Roof Thickness:0.8
;Support Roof Pattern:lines
;Connect Support Lines:0
;Connect Support ZigZags:1
;Minimum Support X/Y Distance:0.2
;Support Line Distance:2.67
; ---------PrintSpeed & Travel----------
;Enable Print Cool:true
;Avoid Printed Parts Traveling:true
;Enable Retraction:true
;Retraction Distance:0.8
;Retraction Speed:80
;Retraction Prime Speed:80
;Maximum Retraction Count:100
;Minimum Extrusion Distance Window:1
;Z Hop When Retracted:false
;Z Hop Height:0.2
;Retract Before Outer Wall:true
;Print Speed:50
;Infill Speed:50

;Prime Tower Speed:50
;Travel Speed:120
;Initial Layer Speed:25
;Skirt/Brim Speed:25
;Combing Mode:off
; --------SpecialModel&Mesh Fixes--------
;Union Overlapping Volum:true
;Remove All Holes:false
;Maximum Travel Resolution:0.6
;Maximum Deviation:0.05
;Maximum Model Angle:0.872665
;IS Mold Print:false
;Make Overhang Printable:false
;Enable Coasting:false
;Coasting Volumes:0.06
;Coasting Speed:0.9
;Raft AirGap:0.25
;Layer0 ZOverLap:0.13
;---------------------End of Head--------------------------
M140 S70
M105
M104 S260
M105
M109 S260
M105
M190 S70
M82 ;absolute extrusion mode
M220 S100 ;Reset Feedrate
M221 S100 ;Reset Flowrate

G28 ;Home

G92 E0 ;Reset Extruder
G1 Z2.0 F3000 ;Move Z Axis up
G1 X10.1 Y20 Z0.28 F5000.0 ;Move to start position
G1 X10.1 Y145.0 Z0.28 F1500.0 E15 ;Draw the first line
G1 X10.4 Y145.0 Z0.28 F5000.0 ;Move to side a little
G1 X10.4 Y20 Z0.28 F1500.0 E30 ;Draw the second line
G92 E0  ;Reset Extruder
G1 E-1.0000 F1800 ;Retract a bit
G1 Z2.0 F3000 ;Move Z Axis up
G1 E0.0000 F1800 

G92 E0
G92 E0
G1 F4800 E-0.8

;LAYER_COUNT:266

;LAYER:-6
M107
G0 F7200 X110.719 Y83.018 Z0.18
;TYPE:SUPPORT-INTERFACE
G1 F4800 E0
G1 F1200 X110.955 Y82.985 E0.01427
G1 X111.791 Y82.911 E0.06451
G1 X112.194 Y82.9 E0.08865
G1 X127.549 Y82.903 E1.00792
G1 X128.266 Y82.935 E1.05089
G1 X128.452 Y82.951 E1.06207
G1 X129.102 Y83.04 E1.10135
G1 X129.314 Y83.078 E1.11424
G1 X129.937 Y83.22 E1.1525
G1 X130.143 Y83.276 E1.16528
G1 X130.772 Y83.48 E1.20486
G1 X130.955 Y83.548 E1.21655
G1 X131.566 Y83.808 E1.25631
G1 X131.727 Y83.886 E1.26702
G1 X132.323 Y84.205 E1.30749
G1 X132.499 Y84.31 E1.31976
G1 X133.019 Y84.652 E1.35702
G1 X133.226 Y84.801 E1.37229
G1 X133.722 Y85.195 E1.41021
G1 X133.863 Y85.317 E1.42137
G1 X134.342 Y85.772 E1.46093
G1 X134.488 Y85.924 E1.47354
G1 X134.907 Y86.401 E1.51155
G1 X135.059 Y86.59 E1.52607
G1 X135.424 Y87.09 E1.56314
G1 X135.554 Y87.285 E1.57717
G1 X135.892 Y87.847 E1.61643
G1 X135.974 Y87.998 E1.62672
G1 X136.257 Y88.581 E1.66551
G1 X136.356 Y88.808 E1.68034
G1 X136.576 Y89.386 E1.71737
G1 X136.649 Y89.608 E1.73136
G1 X136.814 Y90.194 E1.7678
G1 X136.872 Y90.445 E1.78323
G1 X136.989 Y91.07 E1.82129
G1 X137.015 Y91.257 E1.8326
G1 X137.089 Y92.091 E1.88272
G1 X137.1 Y92.5 E1.90722
G1 X137.097 Y127.549 E4.00554
G1 X137.065 Y128.266 E4.04851
G1 X137.05 Y128.445 E4.05926
G1 X136.96 Y129.102 E4.09896
G1 X136.922 Y129.312 E4.11174
G1 X136.781 Y129.934 E4.14992
G1 X136.726 Y130.136 E4.16246
G1 X136.52 Y130.772 E4.20248
G1 X136.455 Y130.949 E4.21377
G1 X136.2 Y131.548 E4.25274
G1 X136.11 Y131.734 E4.26511
G1 X135.799 Y132.316 E4.30462
G1 X135.691 Y132.499 E4.31734
G1 X135.355 Y133.011 E4.35401
G1 X135.211 Y133.211 E4.36876
G1 X134.815 Y133.71 E4.4069
G1 X134.682 Y133.864 E4.41908
G1 X134.23 Y134.34 E4.45838
G1 X134.076 Y134.488 E4.47117
G1 X133.599 Y134.907 E4.50918
G1 X133.411 Y135.058 E4.52361
G1 X132.91 Y135.424 E4.56076
G1 X132.721 Y135.55 E4.57436
G1 X132.153 Y135.892 E4.61405
G1 X132.002 Y135.974 E4.62434
G1 X131.413 Y136.259 E4.66351
G1 X131.195 Y136.355 E4.67777
G1 X130.605 Y136.579 E4.71555
G1 X130.396 Y136.648 E4.72873
G1 X129.806 Y136.814 E4.76542
G1 X129.555 Y136.872 E4.78085
G1 X128.937 Y136.988 E4.81849
G1 X128.735 Y137.016 E4.8307
G1 X127.909 Y137.089 E4.88034
G1 X127.506 Y137.1 E4.90448
G1 X92.451 Y137.097 E7.00316
G1 X91.734 Y137.065 E7.04613
G1 X91.548 Y137.049 E7.05731
G1 X90.898 Y136.96 E7.09658
G1 X90.686 Y136.922 E7.10948
G1 X90.063 Y136.78 E7.14773
G1 X89.857 Y136.724 E7.16051
G1 X89.228 Y136.52 E7.2001
G1 X89.045 Y136.452 E7.21179
G1 X88.446 Y136.197 E7.25076
G1 X88.262 Y136.108 E7.263
G1 X87.677 Y135.795 E7.30272
G1 X87.501 Y135.69 E7.31499
G1 X86.981 Y135.348 E7.35225
G1 X86.774 Y135.199 E7.36752
G1 X86.278 Y134.805 E7.40545
G1 X86.136 Y134.682 E7.41669
G1 X85.658 Y134.228 E7.45616
G1 X85.507 Y134.07 E7.46924
G1 X85.082 Y133.586 E7.50781
G1 X84.945 Y133.415 E7.52092
G1 X84.574 Y132.907 E7.55858
G1 X84.446 Y132.715 E7.5724
G1 X84.108 Y132.153 E7.61166
G1 X84.026 Y132.002 E7.62195
G1 X83.736 Y131.404 E7.66174
G1 X83.644 Y131.192 E7.67557
G1 X83.418 Y130.597 E7.71368
G1 X83.351 Y130.392 E7.72659
G1 X83.186 Y129.805 E7.76309
G1 X83.128 Y129.555 E7.77846
G1 X83.011 Y128.93 E7.81653
G1 X82.983 Y128.726 E7.82885
G1 X82.911 Y127.91 E7.8779
G1 X82.9 Y127.5 E7.90245
G1 X82.903 Y92.451 E10.00077
G1 X82.935 Y91.734 E10.04374
G1 X82.95 Y91.555 E10.0545
G1 X83.04 Y90.898 E10.0942
G1 X83.078 Y90.686 E10.10709
G1 X83.219 Y90.066 E10.14516
G1 X83.274 Y89.864 E10.15769
G1 X83.48 Y89.228 E10.19771
G1 X83.545 Y89.051 E10.209
G1 X83.8 Y88.452 E10.24798
G1 X83.89 Y88.266 E10.26035
G1 X84.201 Y87.684 E10.29985
G1 X84.31 Y87.501 E10.31261
G1 X84.652 Y86.981 E10.34987
G1 X84.801 Y86.774 E10.36514
G1 X85.185 Y86.29 E10.40213
G1 X85.318 Y86.136 E10.41431
G1 X85.772 Y85.658 E10.45377
G1 X85.924 Y85.512 E10.46639
G1 X86.401 Y85.093 E10.5044
G1 X86.59 Y84.941 E10.51892
G1 X87.09 Y84.576 E10.55598
G1 X87.279 Y84.45 E10.56958
G1 X87.847 Y84.108 E10.60928
G1 X87.998 Y84.026 E10.61956
G1 X88.587 Y83.741 E10.65874
G1 X88.808 Y83.644 E10.67319
G1 X89.395 Y83.421 E10.71078
G1 X89.604 Y83.352 E10.72396
G1 X90.194 Y83.186 E10.76065
G1 X90.445 Y83.128 E10.77607
G1 X91.063 Y83.012 E10.81372
G1 X91.265 Y82.984 E10.82593
G1 X92.091 Y82.911 E10.87557
G1 X92.494 Y82.9 E10.89971
G1 X107.849 Y82.903 E11.81898
G1 X108.566 Y82.935 E11.86195
G1 X108.749 Y82.951 E11.87295
G1 X109.27 Y83.022 E11.90443
G1 X109.94 Y83.07 E11.94464
G1 X110.719 Y83.018 E11.99139
G0 F7200 X110.4 Y83.039
G1 F1200 X110.4 Y137.098 E15.2278
;;retract;;
G1 F4800 E14.4278
G0 F7200 X108.8 Y137.098
G1 F4800 E15.2278
G1 F1200 X108.8 Y82.958 E18.46907
;;retract;;
G1 F4800 E17.66907
G0 F7200 X107.2 Y82.903
G1 F4800 E18.46907
G1 F1200 X107.2 Y137.098 E21.71363
;;retract;;
G1 F4800 E20.91363
G0 F7200 X105.6 Y137.098
G1 F4800 E21.71363
G1 F1200 X105.6 Y82.903 E24.95819
;;retract;;
G1 F4800 E24.15819
G0 F7200 X104 Y82.903
G1 F4800 E24.95819
G1 F1200 X104 Y137.097 E28.20269
;;retract;;
G1 F4800 E27.40269
G0 F7200 X102.4 Y137.097
G1 F4800 E28.20269
G1 F1200 X102.4 Y82.902 E31.44725
;;retract;;
G1 F4800 E30.64725
G0 F7200 X100.8 Y82.902
G1 F4800 E31.44725
G1 F1200 X100.8 Y137.097 E34.69181
;;retract;;
G1 F4800 E33.89181
G0 F7200 X99.2 Y137.097
G1 F4800 E34.69181
G1 F1200 X99.2 Y82.902 E37.93637
;;retract;;
G1 F4800 E37.13637
G0 F7200 X97.6 Y82.901
G1 F4800 E37.93637
G1 F1200 X97.6 Y137.097 E41.18099
;;retract;;
G1 F4800 E40.38099
G0 F7200 X96 Y137.097
G1 F4800 E41.18099
G1 F1200 X96 Y82.901 E44.4256
;;retract;;
G1 F4800 E43.6256
G0 F7200 X94.4 Y82.901
G1 F4800 E44.4256
G1 F1200 X94.4 Y137.097 E47.67022
;;retract;;
G1 F4800 E46.87022
G0 F7200 X92.8 Y137.097
G1 F4800 E47.67022
G1 F1200 X92.8 Y82.901 E50.91484
;;retract;;
G1 F4800 E50.11484
G0 F7200 X91.2 Y82.993
G1 F4800 E50.91484
G1 F1200 X91.2 Y137.001 E54.14821
;;retract;;
G1 F4800 E53.34821
G0 F7200 X89.6 Y136.64
G1 F4800 E54.14821
G1 F1200 X89.6 Y83.353 E57.33841
;;retract;;
G1 F4800 E56.53841
G0 F7200 X88 Y84.025
G1 F4800 E57.33841
G1 F1200 X88 Y135.967 E60.44808
;;retract;;
G1 F4800 E59.64808
G0 F7200 X86.4 Y134.901
G1 F4800 E60.44808
G1 F1200 X86.4 Y85.093 E63.43
;;retract;;
G1 F4800 E62.63
G0 F7200 X84.8 Y86.775
G1 F4800 E63.43
G1 F1200 X84.8 Y133.216 E66.21034
;;retract;;
G1 F4800 E65.41034
G0 F7200 X83.2 Y129.854
G1 F4800 E66.21034
G1 F1200 X83.2 Y90.149 E68.58741
;;retract;;
G1 F4800 E67.78741
G0 F7200 X112 Y82.905
G1 F4800 E68.58741
G1 F1200 X112 Y137.098 E71.83185
;;retract;;
G1 F4800 E71.03185
G0 F7200 X113.6 Y137.098
G1 F4800 E71.83185
G1 F1200 X113.6 Y82.901 E75.07653
;;retract;;
G1 F4800 E74.27653
G0 F7200 X115.2 Y82.901
G1 F4800 E75.07653
G1 F1200 X115.2 Y137.098 E78.32121
;;retract;;
G1 F4800 E77.52121
G0 F7200 X116.8 Y137.099
G1 F4800 E78.32121
G1 F1200 X116.8 Y82.901 E81.56595
;;retract;;
G1 F4800 E80.76595
G0 F7200 X118.4 Y82.902
G1 F4800 E81.56595
G1 F1200 X118.4 Y137.099 E84.81063
;;retract;;
G1 F4800 E84.01063
G0 F7200 X120 Y137.099
G1 F4800 E84.81063
G1 F1200 X120 Y82.902 E88.05531
;;retract;;
G1 F4800 E87.25531
G0 F7200 X121.6 Y82.902
G1 F4800 E88.05531
G1 F1200 X121.6 Y137.099 E91.29998
;;retract;;
G1 F4800 E90.49998
G0 F7200 X123.2 Y137.099
G1 F4800 E91.29998
G1 F1200 X123.2 Y82.903 E94.5446
;;retract;;
G1 F4800 E93.7446
G0 F7200 X124.8 Y82.903
G1 F4800 E94.5446
G1 F1200 X124.8 Y137.099 E97.78922
;;retract;;
G1 F4800 E96.98922
G0 F7200 X126.4 Y137.099
G1 F4800 E97.78922
G1 F1200 X126.4 Y82.903 E101.03384
;;retract;;
G1 F4800 E100.23384
G0 F7200 X128 Y82.924
G1 F4800 E101.03384
G1 F1200 X128 Y137.081 E104.27613
;;retract;;
G1 F4800 E103.47613
G0 F7200 X129.6 Y136.862
G1 F4800 E104.27613
G1 F1200 X129.6 Y83.144 E107.49213
;;retract;;
G1 F4800 E106.69213
G0 F7200 X131.2 Y83.653
G1 F4800 E107.49213
G1 F1200 X131.2 Y136.353 E110.64719
;;retract;;
G1 F4800 E109.84719
G0 F7200 X132.8 Y135.498
G1 F4800 E110.64719
G1 F1200 X132.8 Y84.508 E113.69987
;;retract;;
G1 F4800 E112.89987
G0 F7200 X134.4 Y85.833
G1 F4800 E113.69987
G1 F1200 X134.4 Y134.161 E116.59318
;;retract;;
G1 F4800 E115.79318
G0 F7200 X136 Y131.94
G1 F4800 E116.59318
G1 F1200 X136 Y88.052 E119.22068
;;retract;;
G1 F4800 E118.42068
G0 F600 X136 Y88.052 Z0.4
G0 F7200 X135.553 Y87.284
;TIME_ELAPSED:112.629307

;LAYER:-5
M140 S70
;TYPE:SUPPORT
G1 F4800 E119.22068
G1 F1800 X135.423 Y87.09 E119.23776
G1 X135.058 Y86.59 E119.28306
G1 X134.906 Y86.401 E119.30081
G1 X134.486 Y85.924 E119.34731
G1 X134.341 Y85.772 E119.36269
G1 X133.862 Y85.316 E119.41108
G1 X133.72 Y85.195 E119.42473
G1 X133.225 Y84.801 E119.47102
G1 X133.018 Y84.651 E119.48973
G1 X132.498 Y84.31 E119.53523
G1 X132.322 Y84.205 E119.55022
G1 X132.249 Y84.166 E119.55628
G1 X135.831 Y87.748 E119.92695
G1 X135.891 Y87.847 E119.93542
G1 X135.973 Y87.998 E119.94799
G1 X136.256 Y88.58 E119.99535
G1 X136.354 Y88.807 E120.01344
G1 X136.575 Y89.386 E120.05879
G1 X136.648 Y89.607 E120.07582
G1 X136.794 Y90.125 E120.1152
G1 X129.875 Y83.206 E120.83119
G1 X129.312 Y83.077 E120.87345
G1 X129.101 Y83.04 E120.88912
G1 X128.451 Y82.95 E120.93714
G1 X128.264 Y82.935 E120.95087
G1 X128.187 Y82.932 E120.95651
G1 X137.063 Y91.808 E121.87501
G1 X137.088 Y92.09 E121.89572
G1 X137.098 Y92.5 E121.92573
G1 X137.098 Y93.258 E121.98119
G1 X126.743 Y82.903 E123.05274
G1 X125.329 Y82.903 E123.15621
G1 X137.098 Y94.672 E124.37408
G1 X137.098 Y96.086 E124.47755
G1 X123.915 Y82.903 E125.84174
G1 X122.5 Y82.902 E125.94528
G1 X137.098 Y97.5 E127.4559
G1 X137.098 Y98.915 E127.55944
G1 X121.086 Y82.902 E129.21643
G1 X119.671 Y82.901 E129.31997
G1 X137.098 Y100.329 E131.12339
G1 X137.098 Y101.742 E131.22678
G1 X118.257 Y82.901 E133.17647
G1 X116.843 Y82.901 E133.27994
G1 X137.098 Y103.156 E135.37595
G1 X137.098 Y104.571 E135.47949
G1 X115.428 Y82.901 E137.72193
G1 X114.013 Y82.901 E137.82547
G1 X137.098 Y105.985 E140.21428
G1 X137.098 Y107.399 E140.31774
G1 X112.599 Y82.901 E142.85288
G1 X112.193 Y82.9 E142.88259
G1 X111.79 Y82.911 E142.91209
G1 X111.244 Y82.959 E142.95219
G1 X137.098 Y108.813 E145.6276
G1 X137.097 Y110.227 E145.73106
G1 X109.94 Y83.07 E148.5413
G0 F7200 X109.938 Y83.07
G1 F1800 X109.269 Y83.021 E148.59039
G1 X108.748 Y82.951 E148.62885
G1 X108.564 Y82.935 E148.64237
G1 X108.383 Y82.927 E148.65562
G1 X137.097 Y111.641 E151.62698
G1 X137.097 Y113.055 E151.73045
G1 X106.944 Y82.903 E154.85067
G1 X105.53 Y82.903 E154.95413
G1 X137.097 Y114.469 E158.22068
G1 X137.097 Y115.884 E158.32421
G1 X104.116 Y82.903 E161.73713
G1 X102.701 Y82.902 E161.84067
G1 X137.097 Y117.298 E165.40001
G1 X137.097 Y118.712 E165.50348
G1 X101.287 Y82.902 E169.20914
G1 X99.872 Y82.901 E169.31268
G1 X137.096 Y120.126 E173.16472
G1 X137.096 Y121.54 E173.26818
G1 X98.458 Y82.901 E177.26654
G1 X97.044 Y82.901 E177.37001
G1 X137.096 Y122.954 E181.51469
G1 X137.096 Y124.368 E181.61816
G1 X95.629 Y82.901 E185.90921
G1 X94.214 Y82.901 E186.01275
G1 X137.096 Y125.782 E190.45018
G1 X137.096 Y127.197 E190.55372
G1 X92.8 Y82.901 E195.13753
G1 X92.493 Y82.9 E195.15999
G1 X92.09 Y82.911 E195.18949
G1 X91.452 Y82.967 E195.23636
G1 X137.035 Y128.549 E199.95329
G1 X136.959 Y129.102 E199.99413
G1 X136.921 Y129.311 E200.00968
G1 X136.821 Y129.75 E200.04262
G1 X90.245 Y83.174 E204.86237
G1 X90.193 Y83.186 E204.86627
G1 X89.603 Y83.352 E204.91112
G1 X89.394 Y83.42 E204.9272
G1 X89.165 Y83.508 E204.94515
G1 X136.494 Y130.838 E209.84287
G1 X136.454 Y130.949 E209.8515
G1 X136.199 Y131.548 E209.89914
G1 X136.109 Y131.733 E209.91419
G1 X136.063 Y131.82 E209.92139
G1 X88.18 Y83.937 E214.87639
G1 X87.997 Y84.026 E214.89128
G1 X87.845 Y84.108 E214.90391
G1 X87.278 Y84.449 E214.95233
G1 X135.546 Y132.718 E219.94721
G1 X135.354 Y133.011 E219.97284
G1 X135.21 Y133.211 E219.99088
G1 X134.952 Y133.537 E220.0213
G1 X86.46 Y85.045 E225.03931
G1 X86.399 Y85.093 E225.04499
G1 X85.923 Y85.511 E225.09134
G1 X85.771 Y85.658 E225.10682
G1 X85.716 Y85.716 E225.11267
G1 X134.283 Y134.283 E230.13844
G1 X134.23 Y134.338 E230.14403
G1 X134.075 Y134.487 E230.15976
G1 X133.599 Y134.906 E230.20616
G1 X133.539 Y134.953 E230.21174
G1 X85.047 Y86.461 E235.22975
G1 X84.8 Y86.773 E235.25887
G1 X84.651 Y86.979 E235.27747
G1 X84.453 Y87.281 E235.3039
G1 X132.721 Y135.549 E240.29873
G1 X132.153 Y135.891 E240.34725
G1 X132.001 Y135.973 E240.35988
G1 X131.818 Y136.061 E240.37474
G1 X83.935 Y88.178 E245.32973
G1 X83.889 Y88.265 E245.33694
G1 X83.799 Y88.451 E245.35205
G1 X83.544 Y89.05 E245.39969
G1 X83.503 Y89.16 E245.40828
G1 X130.833 Y136.49 E250.30605
G1 X130.604 Y136.578 E250.324
G1 X130.396 Y136.646 E250.34001
G1 X129.805 Y136.813 E250.38495
G1 X129.753 Y136.824 E250.38884
G1 X83.176 Y90.248 E255.20863
G1 X83.077 Y90.685 E255.24142
G1 X83.039 Y90.897 E255.25718
G1 X82.964 Y91.449 E255.29794
G1 X128.546 Y137.031 E260.01483
G1 X127.908 Y137.088 E260.0617
G1 X127.506 Y137.098 E260.09112
G1 X127.198 Y137.098 E260.11366
G1 X82.902 Y92.802 E264.69746
G1 X82.902 Y94.216 E264.80093
G1 X125.784 Y137.098 E269.23841
