;FLAVOR:Marlin
;TIME:6902
;Filament used:4.11797m
;Layer height: 0.15
;MINX:82.699
;MINY:82.699
;MINZ:0.18
;MAXX:137.3
;MAXY:137.3
;MAXZ:45.82
                                
;Creality Print GCode Generated by CXEngineDEV
;Generated Time:2022-06-30 15:03:09
;----------Machine Config--------------
;Machine Name:Creality Ender-3 S1 Pro
;Machine Height:270
;Machine Width:220
;Machine Depth:220
;Material name:Castable
;Number of Extruders:1
;ExtruderParams[0] Nozzle Diameter1000
;----------Profile Config---------------
;Layer Height:0.15
;Wall Thickness:0.8
;Top/Bottom Thickness:1
;Out Wall Line Width:0.4
;Inner Wall Line Width:0.4
;Inital Layer Height:150
;Wall Line Count:2
;Infill Line Distance:4
;Infill Pattern:grid
;Infill Sparse Density:20
;Infill Wipe Distance:0
;Print Temperature:230
;Bed Temperature:70
;Support Enable:false
;Support Density:15
;Support Angle:1.0472
;Adhesion Type:raft
;machine is belt:false
;machine belt offset:10
;machine belt offset Y:0
;Raft Base Line Spacing:1.6
;Wait Heatup Sync:true
;----------Shell Config----------------
;Outer Wall Wipe Distance:200
;Infill Before Walls:false
;Infill Overlap:0.16
;Fill Gaps Between Walls:everywhere
;Minimum Infill Area:1
;Top Surface Skin Layer:0
;Top Layers:4
;Z Seam Alignment:sharpest_corner
;Seam Corner Preference:z_seam_corner_inner
;Z Seam X:110
;Z Seam Y:110
;Horizontal Expansion:0
;Top/Bottom Pattern:zigzag
;Ironing Pattern:zigzag
;Vase Model:false
;----------Support Config----------------
;Support Type:everywhere
;Support Pattern:zigzag
;Support Infill Layer Thickness:0.15
;Minimum Support Area:5
;Enable Support Roof:false
;Support Roof Thickness:0.8
;Support Roof Pattern:lines
;Connect Support Lines:0
;Connect Support ZigZags:1
;Minimum Support X/Y Distance:0.2
;Support Line Distance:2.67
; ---------PrintSpeed & Travel----------
;Enable Print Cool:true
;Avoid Printed Parts Traveling:true
;Enable Retraction:true
;Retraction Distance:0.8
;Retraction Speed:80
;Retraction Prime Speed:80
;Maximum Retraction Count:100
;Minimum Extrusion Distance Window:1
;Z Hop When Retracted:false
;Z Hop Height:0.2
;Retract Before Outer Wall:true
;Print Speed:50
;Infill Speed:50

;Prime Tower Speed:50
;Travel Speed:120
;Initial Layer Speed:25
;Skirt/Brim Speed:25
;Combing Mode:off
; --------SpecialModel&Mesh Fixes--------
;Union Overlapping Volum:true
;Remove All Holes:false
;Maximum Travel Resolution:0.6
;Maximum Deviation:0.05
;Maximum Model Angle:0.872665
;IS Mold Print:false
;Make Overhang Printable:false
;Enable Coasting:false
;Coasting Volumes:0.06
;Coasting Speed:0.9
;Raft AirGap:0.25
;Layer0 ZOverLap:0.13
;---------------------End of Head--------------------------
M140 S70
M105
M104 S230
M105
M109 S230
M105
M190 S70
M82 ;absolute extrusion mode
M220 S100 ;Reset Feedrate
M221 S100 ;Reset Flowrate

G28 ;Home

G92 E0 ;Reset Extruder
G1 Z2.0 F3000 ;Move Z Axis up
G1 X10.1 Y20 Z0.28 F5000.0 ;Move to start position
G1 X10.1 Y145.0 Z0.28 F1500.0 E15 ;Draw the first line
G1 X10.4 Y145.0 Z0.28 F5000.0 ;Move to side a little
G1 X10.4 Y20 Z0.28 F1500.0 E30 ;Draw the second line
G92 E0  ;Reset Extruder
G1 E-1.0000 F1800 ;Retract a bit
G1 Z2.0 F3000 ;Move Z Axis up
G1 E0.0000 F1800 

G92 E0
G92 E0
G1 F4800 E-0.8

;LAYER_COUNT:300

;LAYER:-6
M107
G0 F7200 X85.772 Y85.658 Z0.18
;TYPE:SUPPORT-INTERFACE
G1 F4800 E0
G1 F1200 X85.924 Y85.512 E0.01262
G1 X86.401 Y85.093 E0.05063
G1 X86.59 Y84.941 E0.06515
G1 X87.09 Y84.576 E0.10221
G1 X87.279 Y84.45 E0.11581
G1 X87.847 Y84.108 E0.1555
G1 X87.998 Y84.026 E0.16579
G1 X88.587 Y83.741 E0.20496
G1 X88.808 Y83.644 E0.21941
G1 X89.395 Y83.421 E0.25701
G1 X89.604 Y83.352 E0.27018
G1 X90.194 Y83.186 E0.30688
G1 X90.445 Y83.128 E0.3223
G1 X91.063 Y83.012 E0.35994
G1 X91.265 Y82.984 E0.37215
G1 X92.091 Y82.911 E0.4218
G1 X92.494 Y82.9 E0.44593
G1 X107.849 Y82.903 E1.36521
G1 X108.566 Y82.935 E1.40818
G1 X108.749 Y82.951 E1.41917
G1 X109.27 Y83.022 E1.45065
G1 X109.94 Y83.07 E1.49087
G1 X110.719 Y83.018 E1.53761
G1 X110.955 Y82.985 E1.55188
G1 X111.791 Y82.911 E1.60212
G1 X112.194 Y82.9 E1.62626
G1 X127.549 Y82.903 E2.54553
G1 X128.266 Y82.935 E2.5885
G1 X128.452 Y82.951 E2.59968
G1 X129.102 Y83.04 E2.63896
G1 X129.314 Y83.078 E2.65185
G1 X129.937 Y83.22 E2.69011
G1 X130.143 Y83.276 E2.70289
G1 X130.772 Y83.48 E2.74247
G1 X130.955 Y83.548 E2.75416
G1 X131.566 Y83.808 E2.79392
G1 X131.727 Y83.886 E2.80463
G1 X132.323 Y84.205 E2.8451
G1 X132.499 Y84.31 E2.85737
G1 X133.019 Y84.652 E2.89463
G1 X133.226 Y84.801 E2.9099
G1 X133.722 Y85.195 E2.94782
G1 X133.863 Y85.317 E2.95898
G1 X134.342 Y85.772 E2.99854
G1 X134.488 Y85.924 E3.01115
G1 X134.907 Y86.401 E3.04916
G1 X135.059 Y86.59 E3.06368
G1 X135.424 Y87.09 E3.10075
G1 X135.554 Y87.285 E3.11478
G1 X135.892 Y87.847 E3.15404
G1 X135.974 Y87.998 E3.16433
G1 X136.257 Y88.581 E3.20312
G1 X136.356 Y88.808 E3.21795
G1 X136.576 Y89.386 E3.25498
G1 X136.649 Y89.608 E3.26897
G1 X136.814 Y90.194 E3.30541
G1 X136.872 Y90.445 E3.32084
G1 X136.989 Y91.07 E3.3589
G1 X137.015 Y91.257 E3.37021
G1 X137.089 Y92.091 E3.42033
G1 X137.1 Y92.5 E3.44483
G1 X137.097 Y127.549 E5.54315
G1 X137.065 Y128.266 E5.58612
G1 X137.05 Y128.445 E5.59687
G1 X136.96 Y129.102 E5.63657
G1 X136.922 Y129.312 E5.64935
G1 X136.781 Y129.934 E5.68753
G1 X136.726 Y130.136 E5.70007
G1 X136.52 Y130.772 E5.74009
G1 X136.455 Y130.949 E5.75138
G1 X136.2 Y131.548 E5.79035
G1 X136.11 Y131.734 E5.80272
G1 X135.799 Y132.316 E5.84223
G1 X135.691 Y132.499 E5.85495
G1 X135.355 Y133.011 E5.89162
G1 X135.211 Y133.211 E5.90637
G1 X134.815 Y133.71 E5.94451
G1 X134.682 Y133.864 E5.95669
G1 X134.23 Y134.34 E5.99599
G1 X134.076 Y134.488 E6.00878
G1 X133.599 Y134.907 E6.04679
G1 X133.411 Y135.058 E6.06122
G1 X132.91 Y135.424 E6.09837
G1 X132.721 Y135.55 E6.11197
G1 X132.153 Y135.892 E6.15166
G1 X132.002 Y135.974 E6.16195
G1 X131.413 Y136.259 E6.20112
G1 X131.195 Y136.355 E6.21538
G1 X130.605 Y136.579 E6.25316
G1 X130.396 Y136.648 E6.26634
G1 X129.806 Y136.814 E6.30303
G1 X129.555 Y136.872 E6.31846
G1 X128.937 Y136.988 E6.3561
G1 X128.735 Y137.016 E6.36831
G1 X127.909 Y137.089 E6.41795
G1 X127.506 Y137.1 E6.44209
G1 X92.451 Y137.097 E8.54077
G1 X91.734 Y137.065 E8.58374
G1 X91.548 Y137.049 E8.59492
G1 X90.898 Y136.96 E8.63419
G1 X90.686 Y136.922 E8.64709
G1 X90.063 Y136.78 E8.68534
G1 X89.857 Y136.724 E8.69812
G1 X89.228 Y136.52 E8.73771
G1 X89.045 Y136.452 E8.7494
G1 X88.446 Y136.197 E8.78837
G1 X88.262 Y136.108 E8.80061
G1 X87.677 Y135.795 E8.84033
G1 X87.501 Y135.69 E8.8526
G1 X86.981 Y135.348 E8.88986
G1 X86.774 Y135.199 E8.90513
G1 X86.278 Y134.805 E8.94306
G1 X86.136 Y134.682 E8.9543
G1 X85.658 Y134.228 E8.99377
G1 X85.507 Y134.07 E9.00685
G1 X85.082 Y133.586 E9.04542
G1 X84.945 Y133.415 E9.05853
G1 X84.574 Y132.907 E9.09619
G1 X84.446 Y132.715 E9.11001
G1 X84.108 Y132.153 E9.14927
G1 X84.026 Y132.002 E9.15956
G1 X83.736 Y131.404 E9.19935
G1 X83.644 Y131.192 E9.21318
G1 X83.418 Y130.597 E9.25129
G1 X83.351 Y130.392 E9.2642
G1 X83.186 Y129.805 E9.3007
G1 X83.128 Y129.555 E9.31607
G1 X83.011 Y128.93 E9.35414
G1 X82.983 Y128.726 E9.36646
G1 X82.911 Y127.91 E9.41551
G1 X82.9 Y127.5 E9.44006
G1 X82.903 Y92.451 E11.53838
G1 X82.935 Y91.734 E11.58135
G1 X82.95 Y91.555 E11.59211
G1 X83.04 Y90.898 E11.63181
G1 X83.078 Y90.686 E11.6447
G1 X83.219 Y90.066 E11.68277
G1 X83.274 Y89.864 E11.6953
G1 X83.48 Y89.228 E11.73532
G1 X83.545 Y89.051 E11.74661
G1 X83.8 Y88.452 E11.78559
G1 X83.89 Y88.266 E11.79796
G1 X84.201 Y87.684 E11.83746
G1 X84.31 Y87.501 E11.85022
G1 X84.652 Y86.981 E11.88748
G1 X84.801 Y86.774 E11.90275
G1 X85.185 Y86.29 E11.93974
G1 X85.318 Y86.136 E11.95192
G1 X85.772 Y85.658 E11.99139
;;retract;;
G1 F4800 E11.19139
G0 F7200 X86.4 Y85.093
G1 F4800 E11.99139
G1 F1200 X86.4 Y134.901 E14.9733
;;retract;;
G1 F4800 E14.1733
G0 F7200 X88 Y135.967
G1 F4800 E14.9733
G1 F1200 X88 Y84.025 E18.08298
;;retract;;
G1 F4800 E17.28298
G0 F7200 X89.6 Y83.353
G1 F4800 E18.08298
G1 F1200 X89.6 Y136.64 E21.27318
;;retract;;
G1 F4800 E20.47318
G0 F7200 X91.2 Y137.001
G1 F4800 E21.27318
G1 F1200 X91.2 Y82.993 E24.50654
;;retract;;
G1 F4800 E23.70654
G0 F7200 X92.8 Y82.901
G1 F4800 E24.50654
G1 F1200 X92.8 Y137.097 E27.75116
;;retract;;
G1 F4800 E26.95116
G0 F7200 X94.4 Y137.097
G1 F4800 E27.75116
G1 F1200 X94.4 Y82.901 E30.99578
;;retract;;
G1 F4800 E30.19578
G0 F7200 X96 Y82.901
G1 F4800 E30.99578
G1 F1200 X96 Y137.097 E34.2404
;;retract;;
G1 F4800 E33.4404
G0 F7200 X97.6 Y137.097
G1 F4800 E34.2404
G1 F1200 X97.6 Y82.901 E37.48502
;;retract;;
G1 F4800 E36.68502
G0 F7200 X99.2 Y82.902
G1 F4800 E37.48502
G1 F1200 X99.2 Y137.097 E40.72958
;;retract;;
G1 F4800 E39.92958
G0 F7200 X100.8 Y137.097
G1 F4800 E40.72958
G1 F1200 X100.8 Y82.902 E43.97414
;;retract;;
G1 F4800 E43.17414
G0 F7200 X102.4 Y82.902
G1 F4800 E43.97414
G1 F1200 X102.4 Y137.097 E47.2187
;;retract;;
G1 F4800 E46.4187
G0 F7200 X104 Y137.097
G1 F4800 E47.2187
G1 F1200 X104 Y82.903 E50.4632
;;retract;;
G1 F4800 E49.6632
G0 F7200 X105.6 Y82.903
G1 F4800 E50.4632
G1 F1200 X105.6 Y137.098 E53.70776
;;retract;;
G1 F4800 E52.90776
G0 F7200 X107.2 Y137.098
G1 F4800 E53.70776
G1 F1200 X107.2 Y82.903 E56.95232
;;retract;;
G1 F4800 E56.15232
G0 F7200 X108.8 Y82.958
G1 F4800 E56.95232
G1 F1200 X108.8 Y137.098 E60.19358
;;retract;;
G1 F4800 E59.39358
G0 F7200 X110.4 Y137.098
G1 F4800 E60.19358
G1 F1200 X110.4 Y83.039 E63.43
;;retract;;
G1 F4800 E62.63
G0 F7200 X112 Y82.905
G1 F4800 E63.43
G1 F1200 X112 Y137.098 E66.67444
;;retract;;
G1 F4800 E65.87444
G0 F7200 X113.6 Y137.098
G1 F4800 E66.67444
G1 F1200 X113.6 Y82.901 E69.91912
;;retract;;
G1 F4800 E69.11912
G0 F7200 X115.2 Y82.901
G1 F4800 E69.91912
G1 F1200 X115.2 Y137.098 E73.1638
;;retract;;
G1 F4800 E72.3638
G0 F7200 X116.8 Y137.099
G1 F4800 E73.1638
G1 F1200 X116.8 Y82.901 E76.40854
;;retract;;
G1 F4800 E75.60854
G0 F7200 X118.4 Y82.902
G1 F4800 E76.40854
G1 F1200 X118.4 Y137.099 E79.65322
;;retract;;
G1 F4800 E78.85322
G0 F7200 X120 Y137.099
G1 F4800 E79.65322
G1 F1200 X120 Y82.902 E82.8979
;;retract;;
G1 F4800 E82.0979
G0 F7200 X121.6 Y82.902
G1 F4800 E82.8979
G1 F1200 X121.6 Y137.099 E86.14257
;;retract;;
G1 F4800 E85.34257
G0 F7200 X123.2 Y137.099
G1 F4800 E86.14257
G1 F1200 X123.2 Y82.903 E89.38719
;;retract;;
G1 F4800 E88.58719
G0 F7200 X124.8 Y82.903
G1 F4800 E89.38719
G1 F1200 X124.8 Y137.099 E92.63181
;;retract;;
G1 F4800 E91.83181
G0 F7200 X126.4 Y137.099
G1 F4800 E92.63181
G1 F1200 X126.4 Y82.903 E95.87643
;;retract;;
G1 F4800 E95.07643
G0 F7200 X128 Y82.924
G1 F4800 E95.87643
G1 F1200 X128 Y137.081 E99.11872
;;retract;;
G1 F4800 E98.31872
G0 F7200 X129.6 Y136.862
G1 F4800 E99.11872
G1 F1200 X129.6 Y83.144 E102.33472
;;retract;;
G1 F4800 E101.53472
G0 F7200 X131.2 Y83.653
G1 F4800 E102.33472
G1 F1200 X131.2 Y136.353 E105.48978
;;retract;;
G1 F4800 E104.68978
G0 F7200 X132.8 Y135.498
G1 F4800 E105.48978
G1 F1200 X132.8 Y84.508 E108.54246
;;retract;;
G1 F4800 E107.74246
G0 F7200 X134.4 Y85.833
G1 F4800 E108.54246
G1 F1200 X134.4 Y134.161 E111.43577
;;retract;;
G1 F4800 E110.63577
G0 F7200 X136 Y131.94
G1 F4800 E111.43577
G1 F1200 X136 Y88.052 E114.06327
;;retract;;
G1 F4800 E113.26327
G0 F7200 X84.8 Y86.775
G1 F4800 E114.06327
G1 F1200 X84.8 Y133.216 E116.84361
;;retract;;
G1 F4800 E116.04361
G0 F7200 X83.2 Y129.854
G1 F4800 E116.84361
G1 F1200 X83.2 Y90.149 E119.22068
;;retract;;
G1 F4800 E118.42068
G0 F600 X83.2 Y90.149 Z0.4
G0 F7200 X87.278 Y84.449
;TIME_ELAPSED:113.075463

;LAYER:-5
M140 S70
;TYPE:SUPPORT
G1 F4800 E119.22068
G1 F1800 X87.845 Y84.108 E119.26909
G1 X87.997 Y84.026 E119.28173
G1 X88.18 Y83.937 E119.29662
G1 X136.063 Y131.82 E124.25161
G1 X136.109 Y131.733 E124.25881
G1 X136.199 Y131.548 E124.27387
G1 X136.454 Y130.949 E124.3215
G1 X136.494 Y130.838 E124.33014
G1 X89.165 Y83.508 E129.22785
G1 X89.394 Y83.42 E129.2458
G1 X89.603 Y83.352 E129.26189
G1 X90.193 Y83.186 E129.30673
G1 X90.245 Y83.174 E129.31064
G1 X136.821 Y129.75 E134.13038
G1 X136.921 Y129.311 E134.16333
G1 X136.959 Y129.102 E134.17887
G1 X137.035 Y128.549 E134.21972
G1 X91.452 Y82.967 E138.93665
G1 X92.09 Y82.911 E138.98351
G1 X92.493 Y82.9 E139.01301
G1 X92.8 Y82.901 E139.03548
G1 X137.096 Y127.197 E143.61928
G1 X137.096 Y125.782 E143.72282
G1 X94.214 Y82.901 E148.16025
G1 X95.629 Y82.901 E148.26379
G1 X137.096 Y124.368 E152.55485
G1 X137.096 Y122.954 E152.65831
G1 X97.044 Y82.901 E156.803
G1 X98.458 Y82.901 E156.90646
G1 X137.096 Y121.54 E160.90482
G1 X137.096 Y120.126 E161.00829
G1 X99.872 Y82.901 E164.86033
G1 X101.287 Y82.902 E164.96387
G1 X137.097 Y118.712 E168.66953
G1 X137.097 Y117.298 E168.77299
G1 X102.701 Y82.902 E172.33234
G1 X104.116 Y82.903 E172.43587
G1 X137.097 Y115.884 E175.84879
G1 X137.097 Y114.469 E175.95233
G1 X105.53 Y82.903 E179.21887
G1 X106.944 Y82.903 E179.32234
G1 X137.097 Y113.055 E182.44255
G1 X137.097 Y111.641 E182.54602
G1 X108.383 Y82.927 E185.51738
G1 X108.564 Y82.935 E185.53064
G1 X108.748 Y82.951 E185.54415
G1 X109.269 Y83.021 E185.58262
G1 X109.938 Y83.07 E185.6317
G0 F7200 X109.94 Y83.07
G1 F1800 X137.097 Y110.227 E188.44194
G1 X137.098 Y108.813 E188.54541
G1 X111.244 Y82.959 E191.22081
G1 X111.79 Y82.911 E191.26092
G1 X112.193 Y82.9 E191.29042
G1 X112.599 Y82.901 E191.32012
G1 X137.098 Y107.399 E193.85526
G1 X137.098 Y105.985 E193.95873
G1 X114.013 Y82.901 E196.34754
G1 X115.428 Y82.901 E196.45108
G1 X137.098 Y104.571 E198.69352
G1 X137.098 Y103.156 E198.79706
G1 X116.843 Y82.901 E200.89307
G1 X118.257 Y82.901 E200.99653
G1 X137.098 Y101.742 E202.94622
G1 X137.098 Y100.329 E203.04962
G1 X119.671 Y82.901 E204.85304
G1 X121.086 Y82.902 E204.95657
G1 X137.098 Y98.915 E206.61357
G1 X137.098 Y97.5 E206.71711
G1 X122.5 Y82.902 E208.22773
G1 X123.915 Y82.903 E208.33127
G1 X137.098 Y96.086 E209.69546
G1 X137.098 Y94.672 E209.79892
G1 X125.329 Y82.903 E211.0168
G1 X126.743 Y82.903 E211.12026
G1 X137.098 Y93.258 E212.19181
G1 X137.098 Y92.5 E212.24727
G1 X137.088 Y92.09 E212.27728
G1 X137.063 Y91.808 E212.298
G1 X128.187 Y82.932 E213.2165
G1 X128.264 Y82.935 E213.22214
G1 X128.451 Y82.95 E213.23586
G1 X129.101 Y83.04 E213.28388
G1 X129.312 Y83.077 E213.29956
G1 X129.875 Y83.206 E213.34182
G1 X136.794 Y90.125 E214.05781
G1 X136.648 Y89.607 E214.09719
G1 X136.575 Y89.386 E214.11422
G1 X136.354 Y88.807 E214.15956
G1 X136.256 Y88.58 E214.17766
G1 X135.973 Y87.998 E214.22501
G1 X135.891 Y87.847 E214.23758
G1 X135.831 Y87.748 E214.24605
G1 X132.249 Y84.166 E214.61672
G1 X132.322 Y84.205 E214.62278
G1 X132.498 Y84.31 E214.63778
G1 X133.018 Y84.651 E214.68328
G1 X133.225 Y84.801 E214.70198
G1 X133.72 Y85.195 E214.74828
G1 X133.862 Y85.316 E214.76193
G1 X134.341 Y85.772 E214.81032
G1 X134.486 Y85.924 E214.82569
G1 X134.906 Y86.401 E214.87219
G1 X135.058 Y86.59 E214.88994
G1 X135.423 Y87.09 E214.93524
G1 X135.553 Y87.284 E214.95233
;;retract;;
G1 F4800 E214.15233
G0 F7200 X87.278 Y84.449
G1 F4800 E214.95233
G1 F1800 X135.546 Y132.718 E219.94721
G1 X135.354 Y133.011 E219.97284
G1 X135.21 Y133.211 E219.99088
G1 X134.952 Y133.537 E220.0213
G1 X86.46 Y85.045 E225.03931
G1 X86.399 Y85.093 E225.04499
G1 X85.923 Y85.511 E225.09134
G1 X85.771 Y85.658 E225.10682
G1 X85.716 Y85.716 E225.11267
G1 X134.283 Y134.283 E230.13844
G1 X134.23 Y134.338 E230.14403
G1 X134.075 Y134.487 E230.15976
G1 X133.599 Y134.906 E230.20616
G1 X133.539 Y134.953 E230.21174
G1 X85.047 Y86.461 E235.22975
G1 X84.8 Y86.773 E235.25887
G1 X84.651 Y86.979 E235.27747
G1 X84.453 Y87.281 E235.3039
G1 X132.721 Y135.549 E240.29873
G1 X132.153 Y135.891 E240.34725
G1 X132.001 Y135.973 E240.35988
G1 X131.818 Y136.061 E240.37474
G1 X83.935 Y88.178 E245.32973
G1 X83.889 Y88.265 E245.33694
G1 X83.799 Y88.451 E245.35205
G1 X83.544 Y89.05 E245.39969
G1 X83.503 Y89.16 E245.40828
G1 X130.833 Y136.49 E250.30605
G1 X130.604 Y136.578 E250.324
G1 X130.396 Y136.646 E250.34001
G1 X129.805 Y136.813 E250.38495
G1 X129.753 Y136.824 E250.38884
G1 X83.176 Y90.248 E255.20863
G1 X83.077 Y90.685 E255.24142
G1 X83.039 Y90.897 E255.25718
G1 X82.964 Y91.449 E255.29794
G1 X128.546 Y137.031 E260.01483
G1 X127.908 Y137.088 E260.0617
G1 X127.506 Y137.098 E260.09112
G1 X127.198 Y137.098 E260.11366
