;FLAVOR:Marlin
;TIME:10598
;Filament used:11.3437m
;Layer height: 0.2
;MINX:0.199
;MINY:57.699
;MINZ:0.24
;MAXX:219.8
;MAXY:162.3
;MAXZ:3.06
                                 
;Creality Print GCode Generated by CXEngineDEV
;Generated Time:2022-06-30 15:03:09
;----------Machine Config--------------
;Machine Name:Creality Ender-3 S1 Pro
;Machine Height:270
;Machine Width:220
;Machine Depth:220
;Material name:Castable
;Number of Extruders:1
;ExtruderParams[0] Nozzle Diameter1000
;----------Profile Config---------------
;Layer Height:0.2
;Wall Thickness:0.8
;Top/Bottom Thickness:1
;Out Wall Line Width:0.4
;Inner Wall Line Width:0.4
;Inital Layer Height:200
;Wall Line Count:2
;Infill Line Distance:4
;Infill Pattern:grid
;Infill Sparse Density:20
;Infill Wipe Distance:0
;Print Temperature:260
;Bed Temperature:90
;Support Enable:false
;Support Density:30
;Support Angle:1.0472
;Adhesion Type:raft
;machine is belt:false
;machine belt offset:10
;machine belt offset Y:0
;Raft Base Line Spacing:1.6
;Wait Heatup Sync:true
;----------Shell Config----------------
;Outer Wall Wipe Distance:200
;Infill Before Walls:false
;Infill Overlap:0.16
;Fill Gaps Between Walls:everywhere
;Minimum Infill Area:1
;Top Surface Skin Layer:0
;Top Layers:3
;Z Seam Alignment:sharpest_corner
;Seam Corner Preference:z_seam_corner_inner
;Z Seam X:110
;Z Seam Y:110
;Horizontal Expansion:0
;Top/Bottom Pattern:zigzag
;Ironing Pattern:zigzag
;Vase Model:false
;----------Support Config----------------
;Support Type:everywhere
;Support Pattern:zigzag
;Support Infill Layer Thickness:0.2
;Minimum Support Area:10
;Enable Support Roof:false
;Support Roof Thickness:0.8
;Support Roof Pattern:lines
;Connect Support Lines:0
;Connect Support ZigZags:1
;Minimum Support X/Y Distance:0.2
;Support Line Distance:1.33
; ---------PrintSpeed & Travel----------
;Enable Print Cool:true
;Avoid Printed Parts Traveling:true
;Enable Retraction:true
;Retraction Distance:0.8
;Retraction Speed:80
;Retraction Prime Speed:80
;Maximum Retraction Count:100
;Minimum Extrusion Distance Window:1
;Z Hop When Retracted:false
;Z Hop Height:0.2
;Retract Before Outer Wall:true
;Print Speed:50
;Infill Speed:50

;Prime Tower Speed:50
;Travel Speed:120
;Initial Layer Speed:25
;Skirt/Brim Speed:25
;Combing Mode:off
; --------SpecialModel&Mesh Fixes--------
;Union Overlapping Volum:true
;Remove All Holes:false
;Maximum Travel Resolution:0.6
;Maximum Deviation:0.05
;Maximum Model Angle:0.872665
;IS Mold Print:false
;Make Overhang Printable:false
;Enable Coasting:false
;Coasting Volumes:0.06
;Coasting Speed:0.9
;Raft AirGap:0.25
;Layer0 ZOverLap:0.13
;---------------------End of Head--------------------------
M140 S90
M105
M104 S260
M105
M109 S260
M105
M190 S90
M82 ;absolute extrusion mode
M220 S100 ;Reset Feedrate
M221 S100 ;Reset Flowrate

G28 ;Home

G92 E0 ;Reset Extruder
G1 Z2.0 F3000 ;Move Z Axis up
G1 X10.1 Y20 Z0.28 F5000.0 ;Move to start position
G1 X10.1 Y145.0 Z0.28 F1500.0 E15 ;Draw the first line
G1 X10.4 Y145.0 Z0.28 F5000.0 ;Move to side a little
G1 X10.4 Y20 Z0.28 F1500.0 E30 ;Draw the second line
G92 E0  ;Reset Extruder
G1 E-1.0000 F1800 ;Retract a bit
G1 Z2.0 F3000 ;Move Z Axis up
G1 E0.0000 F1800 

G92 E0
G92 E0
G1 F4800 E-0.8

;LAYER_COUNT:10

;LAYER:-6
M107
G0 F7200 X204.929 Y58.419 Z0.24
;TYPE:SUPPORT-INTERFACE
G1 F4800 E0
G1 F1200 X206.565 Y58.812 E0.13431
G1 X207.418 Y59.049 E0.20498
G1 X207.603 Y59.108 E0.22048
G1 X208.733 Y59.524 E0.3166
G1 X210.16 Y60.117 E0.43995
G1 X211.018 Y60.51 E0.51528
G1 X211.173 Y60.588 E0.52913
G1 X212.216 Y61.17 E0.62448
G1 X213.562 Y61.999 E0.75066
G1 X214.293 Y62.484 E0.82069
G1 X214.474 Y62.615 E0.83852
G1 X215.414 Y63.354 E0.93397
G1 X216.553 Y64.327 E1.05355
G1 X217.264 Y64.981 E1.13066
G1 X217.396 Y65.113 E1.14556
G1 X218.217 Y65.999 E1.24198
G1 X219.193 Y67.143 E1.36202
G1 X219.6 Y67.783 E1.42256
G1 X219.6 Y152.12 E8.15471
G1 X219.215 Y152.829 E8.21911
G1 X218.178 Y154.048 E8.34686
G1 X217.519 Y154.764 E8.42454
G1 X217.387 Y154.896 E8.43944
G1 X216.501 Y155.717 E8.53586
G1 X215.419 Y156.642 E8.64949
G1 X214.599 Y157.295 E8.73317
G1 X214.447 Y157.406 E8.74819
G1 X213.49 Y158.048 E8.84018
G1 X212.123 Y158.883 E8.96805
G1 X211.315 Y159.34 E9.04215
G1 X211.174 Y159.412 E9.05478
G1 X210.07 Y159.922 E9.15186
G1 X208.659 Y160.506 E9.27376
G1 X207.762 Y160.84 E9.35016
G1 X207.601 Y160.893 E9.36369
G1 X206.424 Y161.225 E9.46131
G1 X204.942 Y161.579 E9.58294
G1 X204.003 Y161.769 E9.65941
G1 X203.846 Y161.794 E9.6721
G1 X202.653 Y161.936 E9.76801
G1 X201.119 Y162.056 E9.89083
G1 X199.939 Y162.1 E9.98509
G1 X20.061 Y162.1 E24.34373
G1 X18.825 Y162.053 E24.44246
G1 X17.27 Y161.929 E24.56698
G1 X16.318 Y161.82 E24.64347
G1 X15.071 Y161.581 E24.74482
G1 X13.435 Y161.188 E24.87913
G1 X12.582 Y160.951 E24.9498
G1 X12.397 Y160.892 E24.9653
G1 X11.267 Y160.476 E25.06142
G1 X9.84 Y159.883 E25.18478
G1 X8.982 Y159.49 E25.26011
G1 X8.827 Y159.412 E25.27396
G1 X7.784 Y158.83 E25.3693
G1 X6.438 Y158.001 E25.49549
G1 X5.707 Y157.516 E25.56551
G1 X5.521 Y157.381 E25.58386
G1 X4.574 Y156.636 E25.68004
G1 X3.445 Y155.671 E25.7986
G1 X2.736 Y155.019 E25.87549
G1 X2.604 Y154.887 E25.89039
G1 X1.783 Y154.001 E25.98681
G1 X0.804 Y152.854 E26.10718
G1 X0.4 Y152.218 E26.16733
G1 X0.4 Y67.88 E32.89955
G1 X0.785 Y67.171 E32.96395
G1 X1.827 Y65.947 E33.09227
G1 X2.481 Y65.236 E33.16938
G1 X2.613 Y65.104 E33.18428
G1 X3.499 Y64.283 E33.2807
G1 X4.661 Y63.292 E33.40261
G1 X5.401 Y62.705 E33.47801
G1 X5.557 Y62.591 E33.49343
G1 X6.51 Y61.952 E33.58502
G1 X7.877 Y61.117 E33.71289
G1 X8.685 Y60.66 E33.78699
G1 X8.834 Y60.584 E33.80034
G1 X9.93 Y60.078 E33.8967
G1 X11.341 Y59.494 E34.0186
G1 X12.238 Y59.16 E34.095
G1 X12.399 Y59.107 E34.10853
G1 X13.576 Y58.775 E34.20615
G1 X15.057 Y58.421 E34.3277
G1 X15.997 Y58.231 E34.40426
G1 X16.154 Y58.206 E34.41695
G1 X17.347 Y58.064 E34.51285
G1 X18.881 Y57.944 E34.63567
G1 X20.061 Y57.9 E34.72993
G1 X199.939 Y57.9 E49.08857
G1 X201.175 Y57.947 E49.18731
G1 X202.73 Y58.071 E49.31183
G1 X203.682 Y58.18 E49.38832
G1 X204.929 Y58.419 E49.48967
G0 F7200 X204.8 Y58.395
G1 F1200 X204.8 Y161.608 E57.72858
;;retract;;
G1 F4800 E56.92858
G0 F7200 X203.2 Y161.871
G1 F4800 E57.72858
G1 F1200 X203.2 Y58.125 E66.01003
;;retract;;
G1 F4800 E65.21003
G0 F7200 X201.6 Y57.981
G1 F4800 E66.01003
G1 F1200 X201.6 Y162.019 E74.31479
;;retract;;
G1 F4800 E73.51479
G0 F7200 X200 Y162.098
G1 F4800 E74.31479
G1 F1200 X200 Y57.903 E82.63209
;;retract;;
G1 F4800 E81.83209
G0 F7200 X198.4 Y57.9
G1 F4800 E82.63209
G1 F1200 X198.4 Y162.1 E90.94978
;;retract;;
G1 F4800 E90.14978
G0 F7200 X196.8 Y162.1
G1 F4800 E90.94978
G1 F1200 X196.8 Y57.9 E99.26748
;;retract;;
G1 F4800 E98.46748
G0 F7200 X195.2 Y57.9
G1 F4800 E99.26748
G1 F1200 X195.2 Y162.1 E107.58517
;;retract;;
G1 F4800 E106.78517
G0 F7200 X193.6 Y162.1
G1 F4800 E107.58517
G1 F1200 X193.6 Y57.9 E115.90287
;;retract;;
G1 F4800 E115.10287
G0 F7200 X192 Y57.9
G1 F4800 E115.90287
G1 F1200 X192 Y162.1 E124.22056
;;retract;;
G1 F4800 E123.42056
G0 F7200 X190.4 Y162.1
G1 F4800 E124.22056
G1 F1200 X190.4 Y57.9 E132.53826
;;retract;;
G1 F4800 E131.73826
G0 F7200 X188.8 Y57.9
G1 F4800 E132.53826
G1 F1200 X188.8 Y162.1 E140.85595
;;retract;;
G1 F4800 E140.05595
G0 F7200 X187.2 Y162.1
G1 F4800 E140.85595
G1 F1200 X187.2 Y57.9 E149.17365
;;retract;;
G1 F4800 E148.37365
G0 F7200 X185.6 Y57.9
G1 F4800 E149.17365
G1 F1200 X185.6 Y162.1 E157.49134
;;retract;;
G1 F4800 E156.69134
G0 F7200 X184 Y162.1
G1 F4800 E157.49134
G1 F1200 X184 Y57.9 E165.80903
;;retract;;
G1 F4800 E165.00903
G0 F7200 X182.4 Y57.9
G1 F4800 E165.80903
G1 F1200 X182.4 Y162.1 E174.12673
;;retract;;
G1 F4800 E173.32673
G0 F7200 X180.8 Y162.1
G1 F4800 E174.12673
G1 F1200 X180.8 Y57.9 E182.44442
;;retract;;
G1 F4800 E181.64442
G0 F7200 X179.2 Y57.9
G1 F4800 E182.44442
G1 F1200 X179.2 Y162.1 E190.76212
;;retract;;
G1 F4800 E189.96212
G0 F7200 X177.6 Y162.1
G1 F4800 E190.76212
G1 F1200 X177.6 Y57.9 E199.07981
;;retract;;
G1 F4800 E198.27981
G0 F7200 X176 Y57.9
G1 F4800 E199.07981
G1 F1200 X176 Y162.1 E207.39751
;;retract;;
G1 F4800 E206.59751
G0 F7200 X174.4 Y162.1
G1 F4800 E207.39751
G1 F1200 X174.4 Y57.9 E215.7152
;;retract;;
G1 F4800 E214.9152
G0 F7200 X172.8 Y57.9
G1 F4800 E215.7152
G1 F1200 X172.8 Y162.1 E224.0329
;;retract;;
G1 F4800 E223.2329
G0 F7200 X171.2 Y162.1
G1 F4800 E224.0329
G1 F1200 X171.2 Y57.9 E232.35059
;;retract;;
G1 F4800 E231.55059
G0 F7200 X169.6 Y57.9
G1 F4800 E232.35059
G1 F1200 X169.6 Y162.1 E240.66829
;;retract;;
G1 F4800 E239.86829
G0 F7200 X168 Y162.1
G1 F4800 E240.66829
G1 F1200 X168 Y57.9 E248.98598
;;retract;;
G1 F4800 E248.18598
G0 F7200 X166.4 Y57.9
G1 F4800 E248.98598
G1 F1200 X166.4 Y162.1 E257.30367
;;retract;;
G1 F4800 E256.50367
G0 F7200 X164.8 Y162.1
G1 F4800 E257.30367
G1 F1200 X164.8 Y57.9 E265.62137
;;retract;;
G1 F4800 E264.82137
G0 F7200 X163.2 Y57.9
G1 F4800 E265.62137
G1 F1200 X163.2 Y162.1 E273.93906
;;retract;;
G1 F4800 E273.13906
G0 F7200 X161.6 Y162.1
G1 F4800 E273.93906
G1 F1200 X161.6 Y57.9 E282.25676
;;retract;;
G1 F4800 E281.45676
G0 F7200 X160 Y57.9
G1 F4800 E282.25676
G1 F1200 X160 Y162.1 E290.57445
;;retract;;
G1 F4800 E289.77445
G0 F7200 X158.4 Y162.1
G1 F4800 E290.57445
G1 F1200 X158.4 Y57.9 E298.89215
;;retract;;
G1 F4800 E298.09215
G0 F7200 X156.8 Y57.9
G1 F4800 E298.89215
G1 F1200 X156.8 Y162.1 E307.20984
;;retract;;
G1 F4800 E306.40984
G0 F7200 X155.2 Y162.1
G1 F4800 E307.20984
G1 F1200 X155.2 Y57.9 E315.52754
;;retract;;
G1 F4800 E314.72754
G0 F7200 X153.6 Y57.9
G1 F4800 E315.52754
G1 F1200 X153.6 Y162.1 E323.84523
;;retract;;
G1 F4800 E323.04523
G0 F7200 X152 Y162.1
G1 F4800 E323.84523
G1 F1200 X152 Y57.9 E332.16293
;;retract;;
G1 F4800 E331.36293
G0 F7200 X150.4 Y57.9
G1 F4800 E332.16293
G1 F1200 X150.4 Y162.1 E340.48062
;;retract;;
G1 F4800 E339.68062
G0 F7200 X148.8 Y162.1
G1 F4800 E340.48062
G1 F1200 X148.8 Y57.9 E348.79832
;;retract;;
G1 F4800 E347.99832
G0 F7200 X147.2 Y57.9
G1 F4800 E348.79832
G1 F1200 X147.2 Y162.1 E357.11601
;;retract;;
G1 F4800 E356.31601
G0 F7200 X145.6 Y162.1
G1 F4800 E357.11601
G1 F1200 X145.6 Y57.9 E365.4337
;;retract;;
G1 F4800 E364.6337
G0 F7200 X144 Y57.9
G1 F4800 E365.4337
G1 F1200 X144 Y162.1 E373.7514
;;retract;;
G1 F4800 E372.9514
G0 F7200 X142.4 Y162.1
G1 F4800 E373.7514
G1 F1200 X142.4 Y57.9 E382.06909
;;retract;;
G1 F4800 E381.26909
G0 F7200 X140.8 Y57.9
G1 F4800 E382.06909
G1 F1200 X140.8 Y162.1 E390.38679
;;retract;;
G1 F4800 E389.58679
G0 F7200 X139.2 Y162.1
G1 F4800 E390.38679
G1 F1200 X139.2 Y57.9 E398.70448
;;retract;;
G1 F4800 E397.90448
G0 F7200 X137.6 Y57.9
G1 F4800 E398.70448
G1 F1200 X137.6 Y162.1 E407.02218
;;retract;;
G1 F4800 E406.22218
G0 F7200 X136 Y162.1
G1 F4800 E407.02218
G1 F1200 X136 Y57.9 E415.33987
;;retract;;
G1 F4800 E414.53987
G0 F7200 X134.4 Y57.9
G1 F4800 E415.33987
G1 F1200 X134.4 Y162.1 E423.65757
;;retract;;
G1 F4800 E422.85757
G0 F7200 X132.8 Y162.1
G1 F4800 E423.65757
G1 F1200 X132.8 Y57.9 E431.97526
;;retract;;
G1 F4800 E431.17526
G0 F7200 X131.2 Y57.9
G1 F4800 E431.97526
G1 F1200 X131.2 Y162.1 E440.29296
;;retract;;
G1 F4800 E439.49296
G0 F7200 X129.6 Y162.1
G1 F4800 E440.29296
G1 F1200 X129.6 Y57.9 E448.61065
;;retract;;
G1 F4800 E447.81065
G0 F7200 X128 Y57.9
G1 F4800 E448.61065
G1 F1200 X128 Y162.1 E456.92834
;;retract;;
G1 F4800 E456.12834
G0 F7200 X126.4 Y162.1
G1 F4800 E456.92834
G1 F1200 X126.4 Y57.9 E465.24604
;;retract;;
G1 F4800 E464.44604
G0 F7200 X124.8 Y57.9
G1 F4800 E465.24604
G1 F1200 X124.8 Y162.1 E473.56373
;;retract;;
G1 F4800 E472.76373
G0 F7200 X123.2 Y162.1
G1 F4800 E473.56373
G1 F1200 X123.2 Y57.9 E481.88143
;;retract;;
G1 F4800 E481.08143
G0 F7200 X121.6 Y57.9
G1 F4800 E481.88143
G1 F1200 X121.6 Y162.1 E490.19912
;;retract;;
G1 F4800 E489.39912
G0 F7200 X120 Y162.1
G1 F4800 E490.19912
G1 F1200 X120 Y57.9 E498.51682
;;retract;;
G1 F4800 E497.71682
G0 F7200 X118.4 Y57.9
G1 F4800 E498.51682
G1 F1200 X118.4 Y162.1 E506.83451
;;retract;;
G1 F4800 E506.03451
G0 F7200 X116.8 Y162.1
G1 F4800 E506.83451
G1 F1200 X116.8 Y57.9 E515.15221
;;retract;;
G1 F4800 E514.35221
G0 F7200 X115.2 Y57.9
G1 F4800 E515.15221
G1 F1200 X115.2 Y162.1 E523.4699
;;retract;;
G1 F4800 E522.6699
G0 F7200 X113.6 Y162.1
G1 F4800 E523.4699
G1 F1200 X113.6 Y57.9 E531.7876
;;retract;;
G1 F4800 E530.9876
G0 F7200 X112 Y57.9
G1 F4800 E531.7876
G1 F1200 X112 Y162.1 E540.10529
;;retract;;
G1 F4800 E539.30529
G0 F7200 X110.4 Y162.1
G1 F4800 E540.10529
G1 F1200 X110.4 Y57.9 E548.42298
;;retract;;
G1 F4800 E547.62298
G0 F7200 X108.8 Y57.9
G1 F4800 E548.42298
G1 F1200 X108.8 Y162.1 E556.74068
;;retract;;
G1 F4800 E555.94068
G0 F7200 X107.2 Y162.1
G1 F4800 E556.74068
G1 F1200 X107.2 Y57.9 E565.05837
;;retract;;
G1 F4800 E564.25837
G0 F7200 X105.6 Y57.9
G1 F4800 E565.05837
G1 F1200 X105.6 Y162.1 E573.37607
;;retract;;
G1 F4800 E572.57607
G0 F7200 X104 Y162.1
G1 F4800 E573.37607
G1 F1200 X104 Y57.9 E581.69376
;;retract;;
G1 F4800 E580.89376
G0 F7200 X102.4 Y57.9
G1 F4800 E581.69376
G1 F1200 X102.4 Y162.1 E590.01146
;;retract;;
G1 F4800 E589.21146
G0 F7200 X100.8 Y162.1
G1 F4800 E590.01146
G1 F1200 X100.8 Y57.9 E598.32915
;;retract;;
G1 F4800 E597.52915
G0 F7200 X99.2 Y57.9
G1 F4800 E598.32915
G1 F1200 X99.2 Y162.1 E606.64685
;;retract;;
G1 F4800 E605.84685
G0 F7200 X97.6 Y162.1
G1 F4800 E606.64685
G1 F1200 X97.6 Y57.9 E614.96454
;;retract;;
G1 F4800 E614.16454
G0 F7200 X96 Y57.9
G1 F4800 E614.96454
G1 F1200 X96 Y162.1 E623.28224
;;retract;;
G1 F4800 E622.48224
G0 F7200 X94.4 Y162.1
G1 F4800 E623.28224
G1 F1200 X94.4 Y57.9 E631.59993
;;retract;;
G1 F4800 E630.79993
G0 F7200 X92.8 Y57.9
G1 F4800 E631.59993
G1 F1200 X92.8 Y162.1 E639.91763
;;retract;;
G1 F4800 E639.11763
G0 F7200 X91.2 Y162.1
G1 F4800 E639.91763
G1 F1200 X91.2 Y57.9 E648.23532
;;retract;;
G1 F4800 E647.43532
G0 F7200 X89.6 Y57.9
G1 F4800 E648.23532
G1 F1200 X89.6 Y162.1 E656.55301
;;retract;;
G1 F4800 E655.75301
G0 F7200 X88 Y162.1
G1 F4800 E656.55301
G1 F1200 X88 Y57.9 E664.87071
;;retract;;
G1 F4800 E664.07071
G0 F7200 X86.4 Y57.9
G1 F4800 E664.87071
G1 F1200 X86.4 Y162.1 E673.1884
;;retract;;
G1 F4800 E672.3884
G0 F7200 X84.8 Y162.1
G1 F4800 E673.1884
G1 F1200 X84.8 Y57.9 E681.5061
;;retract;;
G1 F4800 E680.7061
G0 F7200 X83.2 Y57.9
G1 F4800 E681.5061
G1 F1200 X83.2 Y162.1 E689.82379
;;retract;;
G1 F4800 E689.02379
G0 F7200 X81.6 Y162.1
G1 F4800 E689.82379
G1 F1200 X81.6 Y57.9 E698.14149
;;retract;;
G1 F4800 E697.34149
G0 F7200 X80 Y57.9
G1 F4800 E698.14149
G1 F1200 X80 Y162.1 E706.45918
;;retract;;
G1 F4800 E705.65918
G0 F7200 X78.4 Y162.1
G1 F4800 E706.45918
G1 F1200 X78.4 Y57.9 E714.77688
;;retract;;
G1 F4800 E713.97688
G0 F7200 X76.8 Y57.9
G1 F4800 E714.77688
G1 F1200 X76.8 Y162.1 E723.09457
;;retract;;
G1 F4800 E722.29457
G0 F7200 X75.2 Y162.1
G1 F4800 E723.09457
G1 F1200 X75.2 Y57.9 E731.41227
;;retract;;
G1 F4800 E730.61227
G0 F7200 X73.6 Y57.9
G1 F4800 E731.41227
G1 F1200 X73.6 Y162.1 E739.72996
;;retract;;
G1 F4800 E738.92996
G0 F7200 X72 Y162.1
G1 F4800 E739.72996
G1 F1200 X72 Y57.9 E748.04765
;;retract;;
G1 F4800 E747.24765
G0 F7200 X70.4 Y57.9
G1 F4800 E748.04765
G1 F1200 X70.4 Y162.1 E756.36535
;;retract;;
G1 F4800 E755.56535
G0 F7200 X68.8 Y162.1
G1 F4800 E756.36535
G1 F1200 X68.8 Y57.9 E764.68304
;;retract;;
G1 F4800 E763.88304
G0 F7200 X67.2 Y57.9
G1 F4800 E764.68304
G1 F1200 X67.2 Y162.1 E773.00074
;;retract;;
G1 F4800 E772.20074
G0 F7200 X65.6 Y162.1
G1 F4800 E773.00074
G1 F1200 X65.6 Y57.9 E781.31843
;;retract;;
G1 F4800 E780.51843
G0 F7200 X64 Y57.9
G1 F4800 E781.31843
G1 F1200 X64 Y162.1 E789.63613
;;retract;;
G1 F4800 E788.83613
G0 F7200 X62.4 Y162.1
G1 F4800 E789.63613
G1 F1200 X62.4 Y57.9 E797.95382
;;retract;;
G1 F4800 E797.15382
G0 F7200 X60.8 Y57.9
G1 F4800 E797.95382
G1 F1200 X60.8 Y162.1 E806.27152
;;retract;;
G1 F4800 E805.47152
G0 F7200 X59.2 Y162.1
G1 F4800 E806.27152
G1 F1200 X59.2 Y57.9 E814.58921
;;retract;;
G1 F4800 E813.78921
G0 F7200 X57.6 Y57.9
G1 F4800 E814.58921
G1 F1200 X57.6 Y162.1 E822.90691
;;retract;;
G1 F4800 E822.10691
G0 F7200 X56 Y162.1
G1 F4800 E822.90691
G1 F1200 X56 Y57.9 E831.2246
;;retract;;
G1 F4800 E830.4246
